P3
128 128
255
51 33 19 56 38 24 62 44 30 55 37 23 54 36 22 60 42 28 58 40 26 61 43 29 62 44 30 52 34 20 59 41 27 59 41 27 54 36 22 56 38 24 62 44 30 58 40 26 60 42 28 56 38 24 60 42 28 62 44 30 62 44 30 57 39 25 60 42 28 60 42 28 51 33 19 54 36 22 53 35 21 62 44 30 51 33 19 58 40 26 60 42 28 61 43 29 61 43 29 59 41 27 58 40 26 61 43 29 56 38 24 56 38 24 53 35 21 54 36 22 52 34 20 62 44 30 58 40 26 56 38 24 53 35 21 62 44 30 52 34 20 53 35 21 57 39 25 62 44 30 63 45 31 55 37 23 51 33 19 61 43 29 59 41 27 59 41 27 61 43 29 55 37 23 53 35 21 53 35 21 60 42 28 55 37 23 52 34 20 55 37 23 52 34 20 157 53 36 162 58 41 157 53 36 136 45 36 161 57 40 158 54 37 59 41 27 63 45 31 59 41 27 186 146 50 195 155 59 194 154 58 188 148 52 199 159 63 192 152 56 167 140 52 158 132 43 58 40 26 52 34 20 53 35 21 60 42 28 60 42 28 60 42 28 57 39 25 59 41 27 61 43 29 58 40 26 52 34 20 55 37 23 57 39 25 55 37 23 54 36 22 56 38 24 62 44 30 54 36 22 61 43 29 57 39 25 54 36 22 54 36 22 56 38 24 51 33 19 59 41 27 63 45 31 62 44 30 56 38 24 58 40 26 56 38 24 58 40 26 59 41 27 59 41 27 52 34 20 150 46 29 127 37 27 122 32 22 55 37 23 51 33 19 62 44 30 58 40 26 52 34 20 61 43 29 54 36 22 63 45 31 55 37 23
59 41 27 53 35 21 55 37 23 55 37 23 53 35 21 51 33 19 59 41 27 51 33 19 52 34 20 57 39 25 61 43 29 62 44 30 52 34 20 61 43 29 58 40 26 56 38 24 52 34 20 62 44 30 60 42 28 61 43 29 58 40 26 58 40 26 53 35 21 56 38 24 55 37 23 53 35 21 53 35 21 54 36 22 56 38 24 51 33 19 52 34 20 61 43 29 60 42 28 63 45 31 54 36 22 54 36 22 57 39 25 52 34 20 52 34 20 54 36 22 58 40 26 54 36 22 56 38 24 52 34 20 58 40 26 60 42 28 55 37 23 55 37 23 62 44 30 52 34 20 53 35 21 56 38 24 54 36 22 60 42 28 59 41 27 52 34 20 59 41 27 51 33 19 56 38 24 62 44 30 55 37 23 54 36 22 60 42 28 58 40 26 61 43 29 62 44 30 152 48 31 162 58 41 134 44 34 159 55 38 157 53 36 158 54 37 59 41 27 60 42 28 56 38 24 60 42 28 195 155 59 196 156 60 191 151 55 194 154 58 193 153 57 51 33 19 54 36 22 53 35 21 62 44 30 51 33 19 58 40 26 60 42 28 61 43 29 61 43 29 59 41 27 58 40 26 61 43 29 56 38 24 56 38 24 53 35 21 54 36 22 52 34 20 62 44 30 58 40 26 56 38 24 53 35 21 62 44 30 52 34 20 53 35 21 57 39 25 62 44 30 63 45 31 55 37 23 51 33 19 61 43 29 59 41 27 59 41 27 61 43 29 56 38 24 149 45 28 120 30 20 127 37 27 150 46 29 52 34 20 55 37 23 52 34 20 63 45 31 62 44 30 53 35 21 61 43 29 57 39 25 58 40 26
55 37 23 55 37 23 56 38 24 58 40 26 56 38 24 58 40 26 52 34 20 51 33 19 55 37 23 63 45 31 58 40 26 60 42 28 60 42 28 57 39 25 53 35 21 60 42 28 52 34 20 58 40 26 60 42 28 59 41 27 57 39 25 59 41 27 62 44 30 56 38 24 53 35 21 55 37 23 57 39 25 54 36 22 54 36 22 54 36 22 61 43 29 62 44 30 56 38 24 60 42 28 53 35 21 58 40 26 51 33 19 62 44 30 56 38 24 54 36 22 62 44 30 55 37 23 52 34 20 55 37 23 56 38 24 57 39 25 53 35 21 61 43 29 52 34 20 51 33 19 62 44 30 59 41 27 61 43 29 59 41 27 54 36 22 61 43 29 61 43 29 59 41 27 53 35 21 55 37 23 55 37 23 53 35 21 51 33 19 59 41 27 51 33 19 52 34 20 155 51 34 164 60 43 138 47 38 128 37 28 164 60 43 156 52 35 56 38 24 51 33 19 62 44 30 60 42 28 61 43 29 58 40 26 58 40 26 53 35 21 56 38 24 55 37 23 53 35 21 53 35 21 54 36 22 56 38 24 51 33 19 52 34 20 61 43 29 60 42 28 63 45 31 54 36 22 54 36 22 57 39 25 52 34 20 52 34 20 54 36 22 58 40 26 54 36 22 56 38 24 52 34 20 58 40 26 60 42 28 55 37 23 55 37 23 62 44 30 52 34 20 53 35 21 56 38 24 54 36 22 60 42 28 59 41 27 52 34 20 59 41 27 147 43 26 154 50 33 132 41 32 123 32 23 148 44 27 60 42 28 58 40 26 61 43 29 62 44 30 52 34 20 59 41 27 59 41 27 54 36 22 56 38 24
55 37 23 57 39 25 63 45 31 61 43 29 56 38 24 54 36 22 51 33 19 54 36 22 53 35 21 53 35 21 56 38 24 60 42 28 57 39 25 62 44 30 56 38 24 54 36 22 56 38 24 59 41 27 59 41 27 55 37 23 53 35 21 55 37 23 57 39 25 53 35 21 56 38 24 59 41 27 52 34 20 57 39 25 57 39 25 61 43 29 63 45 31 61 43 29 53 35 21 63 45 31 59 41 27 51 33 19 61 43 29 58 40 26 62 44 30 58 40 26 54 36 22 51 33 19 51 33 19 52 34 20 59 41 27 51 33 19 60 42 28 53 35 21 62 44 30 56 38 24 52 34 20 63 45 31 59 41 27 56 38 24 52 34 20 59 41 27 62 44 30 55 37 23 55 37 23 56 38 24 58 40 26 56 38 24 58 40 26 52 34 20 51 33 19 55 37 23 159 55 38 160 56 39 135 45 35 136 46 36 161 57 40 152 48 31 60 42 28 52 34 20 58 40 26 60 42 28 59 41 27 57 39 25 59 41 27 62 44 30 56 38 24 53 35 21 55 37 23 57 39 25 54 36 22 54 36 22 54 36 22 61 43 29 61 43 29 56 38 24 60 42 28 53 35 21 58 40 26 51 33 19 62 44 30 56 38 24 54 36 22 62 44 30 55 37 23 52 34 20 55 37 23 55 37 23 57 39 25 53 35 21 61 43 29 52 34 20 52 34 20 62 44 30 59 41 27 61 43 29 59 41 27 54 36 22 61 43 29 157 53 36 158 54 37 124 33 24 125 35 25 153 49 32 53 35 21 51 33 19 59 41 27 51 33 19 52 34 20 57 39 25 61 43 29 62 44 30 52 34 20 61 43 29
58 40 26 55 37 23 54 36 22 54 36 22 55 37 23 51 33 19 52 34 20 54 36 22 60 42 28 51 33 19 59 41 27 56 38 24 59 41 27 52 34 20 56 38 24 54 36 22 57 39 25 60 42 28 54 36 22 59 41 27 61 43 29 59 41 27 52 34 20 58 40 26 62 44 30 62 44 30 61 43 29 60 42 28 61 43 29 52 34 20 53 35 21 58 40 26 61 43 29 60 42 28 51 33 19 59 41 27 59 41 27 57 39 25 54 36 22 53 35 21 63 45 31 60 42 28 60 42 28 61 43 29 61 43 29 58 40 26 54 36 22 60 42 28 62 44 30 58 40 26 52 34 20 59 41 27 57 39 25 55 37 23 57 39 25 53 35 21 58 40 26 55 37 23 57 39 25 63 45 31 61 43 29 56 38 24 54 36 22 51 33 19 54 36 22 53 35 21 148 44 27 157 53 36 164 60 43 133 42 33 166 62 45 157 53 36 148 44 27 56 38 24 59 41 27 59 41 27 55 37 23 53 35 21 55 37 23 57 39 25 53 35 21 56 38 24 59 41 27 52 34 20 57 39 25 57 39 25 61 43 29 63 45 31 61 43 29 53 35 21 63 45 31 59 41 27 51 33 19 60 42 28 58 40 26 61 43 29 58 40 26 54 36 22 51 33 19 51 33 19 52 34 20 59 41 27 63 45 31 60 42 28 53 35 21 62 44 30 56 38 24 52 34 20 63 45 31 59 41 27 56 38 24 52 34 20 155 51 34 162 58 41 158 54 37 127 37 27 157 53 36 156 52 35 56 38 24 58 40 26 53 35 21 51 33 19 55 37 23 63 45 31 58 40 26 60 42 28 61 43 29 57 39 25
60 42 28 59 41 27 52 34 20 57 39 25 51 33 19 51 33 19 56 38 24 55 37 23 59 41 27 58 40 26 56 38 24 56 38 24 61 43 29 58 40 26 51 33 19 56 38 24 60 42 28 52 34 20 53 35 21 55 37 23 60 42 28 52 34 20 59 41 27 52 34 20 60 42 28 53 35 21 63 45 31 62 44 30 53 35 21 58 40 26 62 44 30 59 41 27 62 44 30 51 33 19 58 40 26 61 43 29 52 34 20 61 43 29 52 34 20 62 44 30 57 39 25 56 38 24 63 45 31 58 40 26 57 39 25 54 36 22 59 41 27 56 38 24 52 34 20 54 36 22 58 40 26 59 41 27 57 39 25 55 37 23 57 39 25 61 43 29 55 37 23 58 40 26 55 37 23 54 36 22 54 36 22 55 37 23 51 33 19 52 34 20 54 36 22 60 42 28 51 33 19 158 54 37 160 56 39 134 44 34 127 37 27 158 54 37 150 46 29 57 39 25 60 42 28 54 36 22 59 41 27 61 43 29 59 41 27 52 34 20 58 40 26 62 44 30 62 44 30 61 43 29 60 42 28 61 43 29 52 34 20 53 35 21 58 40 26 61 43 29 60 42 28 51 33 19 59 41 27 59 41 27 57 39 25 54 36 22 53 35 21 63 45 31 60 42 28 60 42 28 61 43 29 61 43 29 58 40 26 54 36 22 61 43 29 62 44 30 58 40 26 52 34 20 58 40 26 57 39 25 55 37 23 57 39 25 152 48 31 161 57 40 129 38 29 130 40 30 163 59 42 157 53 36 56 38 24 54 36 22 51 33 19 54 36 22 52 34 20 53 35 21 56 38 24 60 42 28 57 39 25 62 44 30
51 33 19 63 45 31 58 40 26 52 34 20 62 44 30 58 40 26 62 44 30 54 36 22 56 38 24 56 38 24 53 35 21 58 40 26 59 41 27 60 42 28 54 36 22 60 42 28 63 45 31 60 42 28 61 43 29 62 44 30 51 33 19 61 43 29 54 36 22 58 40 26 56 38 24 54 36 22 62 44 30 53 35 21 62 44 30 55 37 23 57 39 25 51 33 19 51 33 19 57 39 25 63 45 31 59 41 27 56 38 24 51 33 19 62 44 30 54 36 22 53 35 21 52 34 20 56 38 24 55 37 23 54 36 22 58 40 26 62 44 30 58 40 26 55 37 23 57 39 25 60 42 28 59 41 27 53 35 21 61 43 29 52 34 20 56 38 24 59 41 27 154 50 33 59 41 27 52 34 20 57 39 25 51 33 19 51 33 19 56 38 24 55 37 23 59 41 27 58 40 26 154 50 33 159 55 38 136 46 36 133 42 33 166 62 45 154 50 33 60 42 28 52 34 20 53 35 21 55 37 23 60 42 28 52 34 20 59 41 27 52 34 20 60 42 28 53 35 21 63 45 31 62 44 30 52 34 20 58 40 26 62 44 30 59 41 27 62 44 30 51 33 19 58 40 26 61 43 29 52 34 20 61 43 29 52 34 20 62 44 30 57 39 25 56 38 24 62 44 30 58 40 26 57 39 25 54 36 22 59 41 27 56 38 24 52 34 20 54 36 22 58 40 26 59 41 27 57 39 25 55 37 23 155 51 34 163 59 42 130 39 30 133 42 33 158 54 37 153 49 32 54 36 22 55 37 23 51 33 19 52 34 20 54 36 22 60 42 28 51 33 19 59 41 27 57 39 25 59 41 27 52 34 20
61 43 29 60 42 28 52 34 20 61 43 29 59 41 27 57 39 25 61 43 29 55 37 23 56 38 24 63 45 31 54 36 22 61 43 29 57 39 25 52 34 20 61 43 29 62 44 30 54 36 22 56 38 24 51 33 19 62 44 30 62 44 30 56 38 24 57 39 25 60 42 28 58 40 26 63 45 31 54 36 22 54 36 22 59 41 27 56 38 24 53 35 21 52 34 20 56 38 24 53 35 21 54 36 22 51 33 19 62 44 30 62 44 30 52 34 20 62 44 30 54 36 22 53 35 21 53 35 21 55 37 23 56 38 24 57 39 25 52 34 20 57 39 25 57 39 25 61 43 29 61 43 29 51 33 19 52 34 20 56 38 24 56 38 24 60 42 28 116 26 16 117 26 17 158 54 37 152 48 31 52 34 20 62 44 30 58 40 26 62 44 30 54 36 22 57 39 25 56 38 24 149 45 28 159 55 38 164 60 43 136 45 36 158 54 37 160 56 39 51 33 19 60 42 28 61 43 29 62 44 30 51 33 19 61 43 29 54 36 22 58 40 26 56 38 24 54 36 22 62 44 30 53 35 21 62 44 30 55 37 23 58 40 26 51 33 19 51 33 19 57 39 25 63 45 31 59 41 27 56 38 24 51 33 19 62 44 30 54 36 22 53 35 21 52 34 20 56 38 24 55 37 23 54 36 22 58 40 26 62 44 30 58 40 26 55 37 23 57 39 25 60 42 28 59 41 27 53 35 21 156 52 35 154 50 33 160 56 39 134 44 34 134 44 34 160 56 39 149 45 28 57 39 25 51 33 19 51 33 19 56 38 24 55 37 23 59 41 27 58 40 26 56 38 24 56 38 24 61 43 29 57 39 25
62 44 30 53 35 21 60 42 28 61 43 29 51 33 19 56 38 24 54 36 22 56 38 24 61 43 29 52 34 20 51 33 19 54 36 22 61 43 29 61 43 29 61 43 29 61 43 29 62 44 30 53 35 21 61 43 29 62 44 30 58 40 26 55 37 23 53 35 21 61 43 29 51 33 19 55 37 23 57 39 25 51 33 19 54 36 22 55 37 23 53 35 21 55 37 23 54 36 22 60 42 28 58 40 26 61 43 29 62 44 30 62 44 30 59 41 27 56 38 24 62 44 30 63 45 31 55 37 23 55 37 23 52 34 20 59 41 27 58 40 26 56 38 24 62 44 30 51 33 19 62 44 30 57 39 25 60 42 28 57 39 25 60 42 28 55 37 23 151 47 30 128 37 28 127 37 27 149 45 28 156 52 35 59 41 27 57 39 25 61 43 29 55 37 23 56 38 24 63 45 31 54 36 22 161 57 40 161 57 40 127 36 27 164 60 43 162 58 41 148 44 27 56 38 24 51 33 19 62 44 30 62 44 30 56 38 24 57 39 25 60 42 28 58 40 26 63 45 31 54 36 22 54 36 22 59 41 27 56 38 24 53 35 21 52 34 20 56 38 24 53 35 21 54 36 22 52 34 20 62 44 30 62 44 30 52 34 20 62 44 30 54 36 22 53 35 21 53 35 21 55 37 23 56 38 24 57 39 25 52 34 20 57 39 25 57 39 25 61 43 29 61 43 29 52 34 20 52 34 20 155 51 34 160 56 39 135 45 35 127 37 27 155 51 34 162 58 41 58 40 26 52 34 20 62 44 30 58 40 26 62 44 30 54 36 22 57 39 25 56 38 24 53 35 21 57 39 25 59 41 27 60 42 28
54 36 22 60 42 28 63 45 31 58 40 26 62 44 30 53 35 21 56 38 24 59 41 27 61 43 29 53 35 21 51 33 19 59 41 27 61 43 29 59 41 27 56 38 24 57 39 25 55 37 23 60 42 28 63 45 31 60 42 28 53 35 21 57 39 25 53 35 21 52 34 20 55 37 23 61 43 29 55 37 23 52 34 20 57 39 25 54 36 22 54 36 22 56 38 24 54 36 22 53 35 21 59 41 27 62 44 30 60 42 28 56 38 24 58 40 26 59 41 27 60 42 28 55 37 23 54 36 22 59 41 27 54 36 22 60 42 28 55 37 23 62 44 30 53 35 21 60 42 28 61 43 29 51 33 19 58 40 26 61 43 29 59 41 27 59 41 27 154 50 33 130 39 30 122 31 22 159 55 38 158 54 37 146 42 25 56 38 24 54 36 22 56 38 24 61 43 29 52 34 20 51 33 19 152 48 31 164 60 43 135 44 35 134 44 34 162 58 41 158 54 37 53 35 21 61 43 29 62 44 30 58 40 26 55 37 23 53 35 21 61 43 29 51 33 19 55 37 23 57 39 25 51 33 19 54 36 22 55 37 23 53 35 21 55 37 23 54 36 22 60 42 28 58 40 26 61 43 29 62 44 30 62 44 30 59 41 27 56 38 24 62 44 30 63 45 31 55 37 23 55 37 23 52 34 20 59 41 27 58 40 26 56 38 24 62 44 30 51 33 19 62 44 30 57 39 25 156 52 35 159 55 38 165 61 44 131 41 31 160 56 39 163 59 42 157 53 36 52 34 20 61 43 29 59 41 27 57 39 25 61 43 29 55 37 23 56 38 24 63 45 31 54 36 22 61 43 29 57 39 25 52 34 20
59 41 27 52 34 20 52 34 20 57 39 25 51 33 19 57 39 25 57 39 25 58 40 26 55 37 23 60 42 28 56 38 24 60 42 28 58 40 26 52 34 20 52 34 20 57 39 25 59 41 27 63 45 31 61 43 29 63 45 31 62 44 30 58 40 26 53 35 21 56 38 24 52 34 20 59 41 27 62 44 30 59 41 27 55 37 23 53 35 21 57 39 25 61 43 29 59 41 27 58 40 26 63 45 31 58 40 26 54 36 22 60 42 28 56 38 24 58 40 26 54 36 22 53 35 21 54 36 22 60 42 28 62 44 30 54 36 22 63 45 31 55 37 23 58 40 26 53 35 21 55 37 23 59 41 27 62 44 30 62 44 30 51 33 19 57 39 25 147 43 26 152 48 31 129 39 29 132 42 32 157 53 36 159 55 38 147 43 26 56 38 24 59 41 27 61 43 29 53 35 21 51 33 19 154 50 33 161 57 40 133 42 33 130 39 30 158 54 37 151 47 30 60 42 28 63 45 31 60 42 28 53 35 21 57 39 25 53 35 21 52 34 20 55 37 23 86 55 30 111 66 34 108 63 31 57 39 25 54 36 22 54 36 22 56 38 24 54 36 22 53 35 21 59 41 27 62 44 30 60 42 28 56 38 24 58 40 26 59 41 27 60 42 28 55 37 23 54 36 22 59 41 27 54 36 22 60 42 28 55 37 23 62 44 30 53 35 21 60 42 28 61 43 29 51 33 19 157 53 36 165 61 44 135 44 35 135 45 35 162 58 41 161 57 40 53 35 21 60 42 28 61 43 29 51 33 19 56 38 24 54 36 22 56 38 24 61 43 29 52 34 20 51 33 19 54 36 22 61 43 29 61 43 29
54 36 22 57 39 25 63 45 31 62 44 30 57 39 25 55 37 23 56 38 24 57 39 25 56 38 24 53 35 21 60 42 28 57 39 25 59 41 27 59 41 27 58 40 26 58 40 26 63 45 31 63 45 31 61 43 29 54 36 22 62 44 30 54 36 22 56 38 24 55 37 23 63 45 31 60 42 28 62 44 30 56 38 24 53 35 21 59 41 27 55 37 23 54 36 22 57 39 25 63 45 31 56 38 24 51 33 19 62 44 30 52 34 20 55 37 23 54 36 22 52 34 20 61 43 29 56 38 24 51 33 19 52 34 20 63 45 31 56 38 24 56 38 24 58 40 26 60 42 28 59 41 27 62 44 30 54 36 22 55 37 23 55 37 23 54 36 22 150 46 29 157 53 36 152 48 31 123 32 23 157 53 36 151 47 30 154 50 33 57 39 25 58 40 26 55 37 23 60 42 28 56 38 24 60 42 28 157 53 36 153 49 32 125 34 25 158 54 37 156 52 35 63 45 31 61 43 29 51 33 19 62 44 30 58 40 26 53 35 21 56 38 24 77 46 21 87 55 31 91 59 35 119 74 42 114 69 37 111 66 34 112 67 35 61 43 29 59 41 27 58 40 26 63 45 31 58 40 26 53 35 21 60 42 28 56 38 24 58 40 26 54 36 22 53 35 21 54 36 22 60 42 28 62 44 30 54 36 22 63 45 31 55 37 23 58 40 26 53 35 21 55 37 23 155 51 34 163 59 42 137 47 37 127 36 27 161 57 40 153 49 32 150 46 29 60 42 28 62 44 30 58 40 26 62 44 30 53 35 21 57 39 25 59 41 27 61 43 29 53 35 21 51 33 19 59 41 27 61 43 29 59 41 27
51 33 19 57 39 25 60 42 28 58 40 26 54 36 22 54 36 22 59 41 27 53 35 21 62 44 30 60 42 28 56 38 24 55 37 23 55 37 23 60 42 28 56 38 24 63 45 31 52 34 20 59 41 27 59 41 27 55 37 23 55 37 23 56 38 24 58 40 26 54 36 22 58 40 26 52 34 20 58 40 26 52 34 20 60 42 28 60 42 28 60 42 28 55 37 23 52 34 20 55 37 23 61 43 29 52 34 20 60 42 28 52 34 20 54 36 22 63 45 31 57 39 25 63 45 31 53 35 21 51 33 19 63 45 31 57 39 25 54 36 22 63 45 31 52 34 20 60 42 28 62 44 30 57 39 25 59 41 27 53 35 21 57 39 25 57 39 25 59 41 27 151 47 30 158 54 37 134 44 34 134 44 34 159 55 38 155 51 34 152 48 31 57 39 25 56 38 24 53 35 21 60 42 28 57 39 25 155 51 34 159 55 38 130 40 30 159 55 38 160 56 39 63 45 31 61 43 29 54 36 22 62 44 30 54 36 22 56 38 24 55 37 23 119 74 42 89 58 33 93 61 37 88 57 32 115 70 38 120 75 43 114 69 37 110 65 33 57 39 25 51 33 19 56 38 24 51 33 19 62 44 30 185 145 49 160 133 45 160 133 45 187 147 51 195 155 59 56 38 24 51 33 19 52 34 20 63 45 31 56 38 24 56 38 24 58 40 26 60 42 28 59 41 27 161 57 40 157 53 36 130 39 30 129 39 29 157 53 36 153 49 32 59 41 27 52 34 20 52 34 20 57 39 25 51 33 19 57 39 25 57 39 25 58 40 26 55 37 23 60 42 28 56 38 24 60 42 28 58 40 26 52 34 20
62 44 30 59 41 27 59 41 27 53 35 21 52 34 20 61 43 29 61 43 29 59 41 27 59 41 27 56 38 24 63 45 31 62 44 30 62 44 30 55 37 23 62 44 30 53 35 21 58 40 26 53 35 21 59 41 27 56 38 24 57 39 25 61 43 29 57 39 25 56 38 24 55 37 23 60 42 28 52 34 20 62 44 30 54 36 22 53 35 21 54 36 22 52 34 20 54 36 22 59 41 27 54 36 22 57 39 25 60 42 28 53 35 21 62 44 30 53 35 21 58 40 26 55 37 23 61 43 29 63 45 31 59 41 27 53 35 21 56 38 24 57 39 25 61 43 29 62 44 30 59 41 27 62 44 30 51 33 19 59 41 27 59 41 27 58 40 26 55 37 23 147 43 26 156 52 35 162 58 41 131 40 31 157 53 36 155 51 34 158 54 37 148 44 27 62 44 30 60 42 28 57 39 25 55 37 23 54 36 22 158 54 37 127 36 27 133 42 33 149 45 28 60 42 28 59 41 27 55 37 23 55 37 23 56 38 24 58 40 26 54 36 22 114 69 37 112 67 35 90 59 34 86 55 30 94 63 38 124 79 47 122 77 45 116 71 39 109 64 32 55 37 23 61 43 29 52 34 20 193 153 57 187 147 51 191 151 55 171 145 56 195 155 59 199 159 63 188 148 52 51 33 19 63 45 31 57 39 25 54 36 22 63 45 31 52 34 20 60 42 28 158 54 37 157 53 36 132 41 32 127 36 27 159 55 38 156 52 35 59 41 27 53 35 21 57 39 25 63 45 31 62 44 30 57 39 25 55 37 23 56 38 24 57 39 25 56 38 24 53 35 21 60 42 28 57 39 25 59 41 27 59 41 27
57 39 25 59 41 27 52 34 20 62 44 30 63 45 31 57 39 25 55 37 23 58 40 26 55 37 23 59 41 27 58 40 26 52 34 20 53 35 21 62 44 30 54 36 22 56 38 24 58 40 26 52 34 20 57 39 25 57 39 25 51 33 19 61 43 29 54 36 22 58 40 26 62 44 30 52 34 20 63 45 31 59 41 27 59 41 27 52 34 20 53 35 21 53 35 21 57 39 25 56 38 24 53 35 21 57 39 25 53 35 21 61 43 29 61 43 29 54 36 22 57 39 25 60 42 28 62 44 30 60 42 28 63 45 31 61 43 29 62 44 30 63 45 31 63 45 31 62 44 30 53 35 21 61 43 29 62 44 30 61 43 29 58 40 26 56 38 24 57 39 25 157 53 36 158 54 37 160 56 39 126 36 26 125 35 25 164 60 43 162 58 41 157 53 36 153 49 32 56 38 24 63 45 31 62 44 30 62 44 30 151 47 30 131 41 31 122 32 22 155 51 34 53 35 21 59 41 27 56 38 24 56 38 24 61 43 29 57 39 25 56 38 24 110 65 33 119 74 42 114 69 37 96 64 40 89 58 33 89 58 33 119 74 42 116 71 39 115 70 38 116 71 39 54 36 22 57 39 25 195 155 59 191 151 55 201 161 65 163 136 48 198 158 62 194 154 58 198 158 62 197 157 61 59 41 27 53 35 21 56 38 24 57 39 25 61 43 29 62 44 30 157 53 36 163 59 42 124 33 24 162 58 41 159 55 38 154 50 33 55 37 23 51 33 19 57 39 25 60 42 28 58 40 26 54 36 22 54 36 22 59 41 27 53 35 21 62 44 30 60 42 28 57 39 25 55 37 23 54 36 22 60 42 28
60 42 28 52 34 20 60 42 28 53 35 21 52 34 20 51 33 19 58 40 26 54 36 22 55 37 23 54 36 22 54 36 22 63 45 31 61 43 29 55 37 23 55 37 23 51 33 19 58 40 26 58 40 26 56 38 24 53 35 21 51 33 19 52 34 20 61 43 29 52 34 20 52 34 20 52 34 20 52 34 20 53 35 21 62 44 30 54 36 22 52 34 20 55 37 23 58 40 26 60 42 28 53 35 21 52 34 20 61 43 29 57 39 25 62 44 30 59 41 27 58 40 26 61 43 29 61 43 29 61 43 29 55 37 23 55 37 23 52 34 20 62 44 30 52 34 20 56 38 24 59 41 27 53 35 21 51 33 19 58 40 26 57 39 25 62 44 30 56 38 24 57 39 25 157 53 36 153 49 32 165 61 44 137 47 37 131 40 31 158 54 37 159 55 38 152 48 31 59 41 27 58 40 26 52 34 20 53 35 21 62 44 30 151 47 30 124 34 24 154 50 33 52 34 20 57 39 25 56 38 24 51 33 19 61 43 29 54 36 22 58 40 26 62 44 30 110 65 33 124 79 47 123 78 46 95 63 39 89 57 33 90 58 34 118 73 41 120 75 43 117 72 40 109 64 32 57 39 25 189 149 53 200 160 64 202 162 66 166 139 51 199 159 63 201 161 65 201 161 65 196 156 60 51 33 19 61 43 29 62 44 30 63 45 31 62 44 30 62 44 30 151 47 30 132 41 32 133 43 33 161 57 40 154 50 33 56 38 24 56 38 24 62 44 30 59 41 27 59 41 27 53 35 21 51 33 19 61 43 29 61 43 29 59 41 27 59 41 27 56 38 24 63 45 31 62 44 30 62 44 30 55 37 23
51 33 19 58 40 26 55 37 23 60 42 28 59 41 27 57 39 25 54 36 22 52 34 20 62 44 30 56 38 24 61 43 29 60 42 28 56 38 24 53 35 21 57 39 25 51 33 19 60 42 28 56 38 24 55 37 23 54 36 22 62 44 30 52 34 20 55 37 23 52 34 20 53 35 21 57 39 25 58 40 26 61 43 29 55 37 23 51 33 19 53 35 21 60 42 28 56 38 24 61 43 29 51 33 19 60 42 28 54 36 22 58 40 26 61 43 29 56 38 24 60 42 28 61 43 29 60 42 28 60 42 28 60 42 28 53 35 21 62 44 30 54 36 22 59 41 27 57 39 25 56 38 24 53 35 21 58 40 26 59 41 27 55 37 23 61 43 29 200 125 30 176 115 27 168 107 19 160 56 39 156 52 35 127 36 27 126 36 26 162 58 41 157 53 36 155 51 34 149 45 28 54 36 22 63 45 31 61 43 29 55 37 23 149 45 28 118 27 18 123 33 23 58 40 26 56 38 24 53 35 21 51 33 19 52 34 20 61 43 29 52 34 20 52 34 20 107 62 30 112 67 35 115 70 38 128 83 51 90 59 34 89 57 33 91 60 35 123 78 46 123 78 46 113 68 36 107 62 30 198 158 62 197 157 61 204 164 68 172 145 57 171 145 56 204 164 68 201 161 65 199 159 63 189 149 53 55 37 23 52 34 20 62 44 30 52 34 20 151 47 30 127 37 27 123 32 23 150 46 29 154 50 33 57 39 25 62 44 30 56 38 24 57 39 25 59 41 27 52 34 20 62 44 30 63 45 31 57 39 25 55 37 23 59 41 27 55 37 23 59 41 27 58 40 26 52 34 20 53 35 21 62 44 30
57 39 25 56 38 24 55 37 23 55 37 23 56 38 24 53 35 21 61 43 29 58 40 26 57 39 25 59 41 27 59 41 27 56 38 24 51 33 19 51 33 19 57 39 25 61 43 29 56 38 24 57 39 25 57 39 25 60 42 28 55 37 23 58 40 26 52 34 20 54 36 22 62 44 30 63 45 31 59 41 27 56 38 24 51 33 19 51 33 19 61 43 29 52 34 20 57 39 25 62 44 30 60 42 28 62 44 30 54 36 22 62 44 30 54 36 22 59 41 27 62 44 30 58 40 26 54 36 22 54 36 22 54 36 22 62 44 30 56 38 24 62 44 30 55 37 23 59 41 27 56 38 24 58 40 26 60 42 28 60 42 28 54 36 22 199 124 29 209 134 39 170 108 21 177 116 28 204 129 34 162 58 41 163 59 42 132 42 32 129 39 29 156 52 35 163 59 42 154 50 33 61 43 29 60 42 28 56 38 24 53 35 21 57 39 25 116 25 16 124 34 24 56 38 24 55 37 23 54 36 22 62 44 30 52 34 20 55 37 23 52 34 20 53 35 21 57 39 25 115 70 38 121 76 44 118 73 41 117 72 40 89 58 33 96 65 40 92 60 36 125 80 48 113 68 36 118 73 41 191 151 55 198 158 62 203 163 67 170 143 55 175 148 60 205 165 69 202 162 66 200 160 64 196 156 60 53 35 21 62 44 30 54 36 22 59 41 27 152 48 31 123 33 23 121 30 21 154 50 33 58 40 26 55 37 23 61 43 29 56 38 24 60 42 28 52 34 20 60 42 28 53 35 21 52 34 20 51 33 19 58 40 26 54 36 22 55 37 23 54 36 22 54 36 22 63 45 31 61 43 29 55 37 23
58 40 26 62 44 30 62 44 30 55 37 23 53 35 21 58 40 26 55 37 23 59 41 27 56 38 24 57 39 25 57 39 25 62 44 30 57 39 25 63 45 31 63 45 31 55 37 23 58 40 26 59 41 27 58 40 26 59 41 27 61 43 29 53 35 21 55 37 23 54 36 22 56 38 24 57 39 25 57 39 25 51 33 19 62 44 30 51 33 19 59 41 27 52 34 20 62 44 30 59 41 27 59 41 27 62 44 30 52 34 20 51 33 19 58 40 26 62 44 30 57 39 25 60 42 28 60 42 28 56 38 24 62 44 30 58 40 26 52 34 20 53 35 21 63 45 31 59 41 27 58 40 26 61 43 29 52 34 20 59 41 27 197 122 27 210 135 40 200 125 30 207 132 37 177 116 28 206 131 36 155 51 34 160 56 39 159 55 38 136 46 36 163 59 42 161 57 40 159 55 38 155 51 34 56 38 24 52 34 20 51 33 19 57 39 25 61 43 29 56 38 24 57 39 25 57 39 25 60 42 28 55 37 23 58 40 26 52 34 20 54 36 22 62 44 30 63 45 31 59 41 27 114 69 37 112 67 35 115 70 38 127 82 50 87 56 31 92 61 36 97 65 41 122 77 45 121 76 44 192 152 56 203 163 67 197 157 61 204 164 68 177 150 62 203 163 67 197 157 61 194 154 58 191 151 55 62 44 30 56 38 24 62 44 30 55 37 23 124 33 24 121 31 21 153 49 32 60 42 28 60 42 28 54 36 22 54 36 22 62 44 30 51 33 19 58 40 26 54 36 22 60 42 28 59 41 27 57 39 25 54 36 22 52 34 20 62 44 30 55 37 23 61 43 29 60 42 28 56 38 24 53 35 21
57 39 25 58 40 26 54 36 22 53 35 21 55 37 23 51 33 19 61 43 29 54 36 22 55 37 23 57 39 25 61 43 29 52 34 20 57 39 25 52 34 20 55 37 23 60 42 28 61 43 29 56 38 24 62 44 30 52 34 20 53 35 21 56 38 24 59 41 27 60 42 28 55 37 23 59 41 27 51 33 19 61 43 29 53 35 21 54 36 22 60 42 28 61 43 29 59 41 27 56 38 24 59 41 27 54 36 22 61 43 29 56 38 24 63 45 31 55 37 23 54 36 22 54 36 22 57 39 25 61 43 29 59 41 27 54 36 22 51 33 19 54 36 22 62 44 30 59 41 27 62 44 30 57 39 25 52 34 20 62 44 30 198 123 28 200 125 30 206 131 36 210 135 40 185 124 36 215 140 45 207 132 37 156 52 35 162 58 41 130 40 30 135 45 35 161 57 40 159 55 38 155 51 34 156 52 35 57 39 25 63 45 31 63 45 31 55 37 23 58 40 26 59 41 27 58 40 26 59 41 27 60 42 28 53 35 21 55 37 23 54 36 22 56 38 24 57 39 25 57 39 25 51 33 19 119 74 42 112 67 35 122 77 45 116 71 39 96 64 40 93 61 37 91 60 35 122 77 45 190 150 54 192 152 56 201 161 65 207 167 71 172 145 57 205 165 69 203 163 67 197 157 61 199 159 63 191 151 55 52 34 20 53 35 21 63 45 31 59 41 27 58 40 26 61 43 29 52 34 20 59 41 27 52 34 20 63 45 31 51 33 19 57 39 25 56 38 24 55 37 23 55 37 23 56 38 24 54 36 22 61 43 29 58 40 26 57 39 25 59 41 27 59 41 27 56 38 24 52 34 20 51 33 19
53 35 21 53 35 21 53 35 21 52 34 20 60 42 28 51 33 19 63 45 31 53 35 21 57 39 25 59 41 27 58 40 26 63 45 31 54 36 22 54 36 22 61 43 29 52 34 20 55 37 23 54 36 22 55 37 23 54 36 22 57 39 25 63 45 31 53 35 21 54 36 22 61 43 29 52 34 20 60 42 28 55 37 23 61 43 29 55 37 23 59 41 27 59 41 27 54 36 22 56 38 24 56 38 24 58 40 26 54 36 22 51 33 19 54 36 22 61 43 29 60 42 28 59 41 27 61 43 29 60 42 28 57 39 25 62 44 30 58 40 26 53 35 21 59 41 27 62 44 30 61 43 29 57 39 25 61 43 29 54 36 22 198 123 28 204 129 34 212 137 42 211 136 41 182 120 33 178 117 29 207 132 37 208 133 38 155 51 34 167 63 46 130 39 30 161 57 40 161 57 40 161 57 40 148 44 27 57 39 25 52 34 20 55 37 23 60 42 28 62 44 30 57 39 25 62 44 30 52 34 20 53 35 21 56 38 24 59 41 27 60 42 28 56 38 24 59 41 27 51 33 19 61 43 29 53 35 21 111 66 34 119 74 42 122 77 45 121 76 44 88 57 32 90 58 34 83 52 27 198 158 62 196 156 60 206 166 70 200 160 64 169 143 54 198 158 62 200 160 64 202 162 66 197 157 61 188 148 52 52 34 20 55 37 23 62 44 30 59 41 27 62 44 30 57 39 25 52 34 20 62 44 30 52 34 20 51 33 19 55 37 23 58 40 26 62 44 30 62 44 30 55 37 23 53 35 21 58 40 26 54 36 22 59 41 27 56 38 24 57 39 25 57 39 25 62 44 30 57 39 25 63 45 31
52 34 20 53 35 21 62 44 30 57 39 25 53 35 21 60 42 28 51 33 19 57 39 25 58 40 26 53 35 21 57 39 25 55 37 23 53 35 21 62 44 30 54 36 22 53 35 21 58 40 26 59 41 27 54 36 22 58 40 26 55 37 23 57 39 25 52 34 20 62 44 30 52 34 20 59 41 27 56 38 24 55 37 23 62 44 30 58 40 26 59 41 27 51 33 19 52 34 20 58 40 26 55 37 23 52 34 20 51 33 19 53 35 21 55 37 23 54 36 22 60 42 28 60 42 28 61 43 29 59 41 27 60 42 28 62 44 30 57 39 25 60 42 28 51 33 19 53 35 21 61 43 29 59 41 27 55 37 23 196 121 26 201 126 31 212 137 42 205 130 35 207 132 37 178 116 29 178 117 29 207 132 37 214 139 44 154 50 33 167 63 46 129 39 29 133 43 33 164 60 43 160 56 39 162 58 41 148 44 27 54 36 22 61 43 29 52 34 20 55 37 23 54 36 22 55 37 23 54 36 22 57 39 25 63 45 31 53 35 21 54 36 22 61 43 29 52 34 20 60 42 28 55 37 23 61 43 29 55 37 23 115 70 38 116 71 39 113 68 36 115 70 38 85 54 29 86 54 30 190 150 54 191 151 55 196 156 60 204 164 68 174 147 59 173 146 58 203 163 67 201 161 65 194 154 58 195 155 59 58 40 26 53 35 21 59 41 27 62 44 30 61 43 29 57 39 25 61 43 29 54 36 22 51 33 19 54 36 22 60 42 28 57 39 25 58 40 26 54 36 22 53 35 21 55 37 23 51 33 19 61 43 29 54 36 22 55 37 23 57 39 25 61 43 29 52 34 20 57 39 25 52 34 20
53 35 21 60 42 28 54 36 22 55 37 23 57 39 25 61 43 29 57 39 25 57 39 25 60 42 28 52 34 20 57 39 25 52 34 20 62 44 30 55 37 23 63 45 31 63 45 31 63 45 31 55 37 23 58 40 26 58 40 26 61 43 29 62 44 30 52 34 20 53 35 21 58 40 26 58 40 26 62 44 30 57 39 25 57 39 25 59 41 27 61 43 29 61 43 29 60 42 28 52 34 20 62 44 30 51 33 19 51 33 19 62 44 30 61 43 29 62 44 30 59 41 27 62 44 30 60 42 28 58 40 26 54 36 22 61 43 29 60 42 28 52 34 20 56 38 24 53 35 21 57 39 25 57 39 25 53 35 21 197 122 27 199 124 29 209 134 39 213 138 43 206 131 36 208 133 38 188 126 39 212 137 42 208 133 38 213 138 43 155 51 34 162 58 41 134 43 34 158 54 37 161 57 40 156 52 35 150 46 29 62 44 30 54 36 22 53 35 21 58 40 26 59 41 27 54 36 22 58 40 26 55 37 23 57 39 25 52 34 20 62 44 30 52 34 20 59 41 27 56 38 24 55 37 23 62 44 30 58 40 26 59 41 27 51 33 19 52 34 20 114 69 37 111 66 34 78 46 22 186 146 50 191 151 55 196 156 60 197 157 61 174 147 59 173 146 58 203 163 67 199 159 63 197 157 61 195 155 59 57 39 25 60 42 28 51 33 19 53 35 21 61 43 29 59 41 27 55 37 23 52 34 20 53 35 21 61 43 29 52 34 20 53 35 21 53 35 21 53 35 21 52 34 20 60 42 28 51 33 19 63 45 31 53 35 21 57 39 25 59 41 27 58 40 26 63 45 31 54 36 22 54 36 22
58 40 26 51 33 19 57 39 25 54 36 22 58 40 26 57 39 25 56 38 24 55 37 23 59 41 27 59 41 27 51 33 19 63 45 31 57 39 25 61 43 29 55 37 23 55 37 23 56 38 24 59 41 27 62 44 30 53 35 21 60 42 28 54 36 22 54 36 22 57 39 25 60 42 28 56 38 24 51 33 19 56 38 24 59 41 27 59 41 27 59 41 27 62 44 30 61 43 29 60 42 28 51 33 19 62 44 30 57 39 25 55 37 23 52 34 20 58 40 26 63 45 31 62 44 30 56 38 24 59 41 27 53 35 21 61 43 29 52 34 20 60 42 28 57 39 25 55 37 23 59 41 27 53 35 21 51 33 19 197 122 27 201 126 31 205 130 35 215 140 45 208 133 38 216 141 46 180 119 31 211 136 41 212 137 42 214 139 44 159 55 38 161 57 40 135 45 35 127 37 27 161 57 40 154 50 33 161 57 40 55 37 23 63 45 31 63 45 31 63 45 31 55 37 23 58 40 26 58 40 26 61 43 29 62 44 30 52 34 20 53 35 21 58 40 26 58 40 26 62 44 30 57 39 25 57 39 25 59 41 27 61 43 29 61 43 29 60 42 28 52 34 20 62 44 30 51 33 19 52 34 20 199 159 63 200 160 64 203 163 67 201 161 65 174 147 59 201 161 65 197 157 61 191 151 55 61 43 29 60 42 28 52 34 20 56 38 24 53 35 21 57 39 25 57 39 25 53 35 21 52 34 20 51 33 19 59 41 27 60 42 28 52 34 20 53 35 21 62 44 30 57 39 25 53 35 21 60 42 28 51 33 19 57 39 25 58 40 26 53 35 21 57 39 25 55 37 23 53 35 21 62 44 30
61 43 29 59 41 27 62 44 30 55 37 23 57 39 25 55 37 23 62 44 30 54 36 22 60 42 28 62 44 30 63 45 31 58 40 26 59 41 27 60 42 28 59 41 27 57 39 25 59 41 27 53 35 21 57 39 25 58 40 26 57 39 25 55 37 23 56 38 24 61 43 29 62 44 30 58 40 26 54 36 22 59 41 27 57 39 25 56 38 24 52 34 20 58 40 26 57 39 25 51 33 19 61 43 29 53 35 21 62 44 30 53 35 21 57 39 25 63 45 31 52 34 20 54 36 22 51 33 19 57 39 25 62 44 30 53 35 21 51 33 19 61 43 29 53 35 21 61 43 29 55 37 23 63 45 31 54 36 22 59 41 27 208 133 38 211 136 41 206 131 36 212 137 42 207 132 37 183 121 34 209 134 39 213 138 43 210 135 40 207 132 37 158 54 37 163 59 42 134 43 34 126 35 26 166 62 45 157 53 36 157 53 36 55 37 23 55 37 23 56 38 24 59 41 27 62 44 30 53 35 21 60 42 28 54 36 22 54 36 22 57 39 25 59 41 27 56 38 24 51 33 19 56 38 24 59 41 27 59 41 27 59 41 27 62 44 30 61 43 29 60 42 28 51 33 19 62 44 30 57 39 25 190 150 54 189 149 53 197 157 61 203 163 67 172 146 57 195 155 59 196 156 60 187 147 51 61 43 29 52 34 20 60 42 28 57 39 25 55 37 23 59 41 27 53 35 21 51 33 19 53 35 21 53 35 21 54 36 22 62 44 30 53 35 21 60 42 28 54 36 22 55 37 23 57 39 25 61 43 29 57 39 25 57 39 25 60 42 28 52 34 20 57 39 25 52 34 20 62 44 30 55 37 23
61 43 29 59 41 27 52 34 20 57 39 25 54 36 22 58 40 26 61 43 29 62 44 30 61 43 29 63 45 31 60 42 28 57 39 25 52 34 20 51 33 19 57 39 25 59 41 27 56 38 24 60 42 28 56 38 24 59 41 27 57 39 25 56 38 24 62 44 30 56 38 24 52 34 20 53 35 21 60 42 28 56 38 24 54 36 22 109 64 32 111 66 34 111 66 34 121 76 44 118 73 41 117 72 40 114 69 37 55 37 23 55 37 23 63 45 31 53 35 21 52 34 20 56 38 24 61 43 29 63 45 31 53 35 21 54 36 22 53 35 21 51 33 19 52 34 20 56 38 24 62 44 30 56 38 24 53 35 21 55 37 23 206 131 36 203 128 33 208 133 38 215 140 45 214 139 44 187 126 38 180 119 31 211 136 41 207 132 37 213 138 43 155 51 34 163 59 42 136 46 36 137 47 37 162 58 41 160 56 39 157 53 36 59 41 27 56 38 24 59 41 27 53 35 21 57 39 25 58 40 26 57 39 25 55 37 23 56 38 24 61 43 29 62 44 30 58 40 26 54 36 22 59 41 27 57 39 25 56 38 24 52 34 20 58 40 26 57 39 25 51 33 19 61 43 29 53 35 21 62 44 30 53 35 21 191 151 55 200 160 64 190 150 54 162 136 47 189 149 53 192 152 56 195 155 59 53 35 21 51 33 19 61 43 29 53 35 21 61 43 29 55 37 23 63 45 31 54 36 22 59 41 27 61 43 29 61 43 29 53 35 21 58 40 26 51 33 19 57 39 25 54 36 22 58 40 26 57 39 25 56 38 24 55 37 23 59 41 27 58 40 26 51 33 19 63 45 31 57 39 25 61 43 29
55 37 23 61 43 29 56 38 24 53 35 21 54 36 22 57 39 25 52 34 20 59 41 27 63 45 31 61 43 29 56 38 24 57 39 25 56 38 24 59 41 27 60 42 28 59 41 27 52 34 20 54 36 22 61 43 29 58 40 26 56 38 24 52 34 20 62 44 30 58 40 26 51 33 19 60 42 28 54 36 22 51 33 19 82 50 26 90 59 34 122 77 45 123 78 46 120 75 43 117 72 40 113 68 36 116 71 39 112 67 35 119 74 42 54 36 22 63 45 31 61 43 29 54 36 22 52 34 20 54 36 22 57 39 25 56 38 24 61 43 29 54 36 22 58 40 26 62 44 30 57 39 25 59 41 27 61 43 29 58 40 26 199 124 29 203 128 33 209 134 39 214 139 44 212 137 42 177 115 28 181 119 32 207 132 37 210 135 40 211 136 41 160 56 39 162 58 41 166 62 45 134 43 34 131 40 31 154 50 33 150 46 29 152 48 31 59 41 27 56 38 24 60 42 28 56 38 24 59 41 27 57 39 25 56 38 24 62 44 30 56 38 24 52 34 20 53 35 21 60 42 28 56 38 24 54 36 22 54 36 22 54 36 22 54 36 22 63 45 31 60 42 28 60 42 28 57 39 25 55 37 23 55 37 23 63 45 31 187 147 51 188 148 52 162 135 47 166 139 51 196 156 60 53 35 21 54 36 22 53 35 21 51 33 19 52 34 20 56 38 24 62 44 30 56 38 24 53 35 21 55 37 23 60 42 28 54 36 22 56 38 24 61 43 29 59 41 27 62 44 30 55 37 23 57 39 25 55 37 23 62 44 30 54 36 22 60 42 28 62 44 30 63 45 31 59 41 27 59 41 27 60 42 28
58 40 26 56 38 24 52 34 20 62 44 30 52 34 20 54 36 22 57 39 25 62 44 30 62 44 30 54 36 22 63 45 31 61 43 29 60 42 28 60 42 28 61 43 29 55 37 23 52 34 20 52 34 20 60 42 28 55 37 23 53 35 21 150 46 29 147 43 26 158 54 37 157 53 36 149 45 28 156 52 35 152 48 31 116 71 39 89 57 33 93 61 37 121 76 44 115 70 38 123 78 46 121 76 44 114 69 37 123 78 46 114 69 37 117 72 40 54 36 22 58 40 26 53 35 21 54 36 22 60 42 28 59 41 27 59 41 27 57 39 25 59 41 27 62 44 30 58 40 26 53 35 21 55 37 23 57 39 25 55 37 23 54 36 22 203 128 33 212 137 42 206 131 36 213 138 43 209 134 39 176 114 27 206 131 36 207 132 37 200 125 30 205 130 35 162 58 41 163 59 42 159 55 38 130 40 30 158 54 37 158 54 37 156 52 35 59 41 27 52 34 20 54 36 22 61 43 29 58 40 26 56 38 24 52 34 20 62 44 30 58 40 26 52 34 20 60 42 28 54 36 22 51 33 19 56 38 24 63 45 31 63 45 31 62 44 30 59 41 27 56 38 24 53 35 21 57 39 25 54 36 22 63 45 31 55 37 23 63 45 31 61 43 29 54 36 22 52 34 20 54 36 22 57 39 25 56 38 24 61 43 29 54 36 22 58 40 26 62 44 30 57 39 25 59 41 27 61 43 29 58 40 26 54 36 22 55 37 23 58 40 26 61 43 29 59 41 27 52 34 20 57 39 25 54 36 22 58 40 26 61 43 29 62 44 30 61 43 29 63 45 31 60 42 28 58 40 26 52 34 20 51 33 19
55 37 23 52 34 20 58 40 26 60 42 28 56 38 24 56 38 24 62 44 30 51 33 19 52 34 20 200 125 30 199 124 29 206 131 36 205 130 35 198 123 28 204 129 34 208 133 38 201 126 31 208 133 38 151 47 30 151 47 30 158 54 37 156 52 35 159 55 38 161 57 40 152 48 31 158 54 37 158 54 37 152 48 31 114 69 37 122 77 45 90 59 34 93 62 37 120 75 43 125 80 48 127 82 50 126 81 49 119 74 42 120 75 43 118 73 41 107 62 30 54 36 22 54 36 22 62 44 30 63 45 31 57 39 25 60 42 28 61 43 29 61 43 29 60 42 28 58 40 26 61 43 29 55 37 23 55 37 23 53 35 21 54 36 22 197 122 27 210 135 40 207 132 37 206 131 36 203 128 33 183 121 34 203 128 33 203 128 33 205 130 35 207 132 37 159 55 38 154 50 33 164 60 43 133 42 33 131 41 31 160 56 39 159 55 38 55 37 23 52 34 20 52 34 20 60 42 28 55 37 23 53 35 21 55 37 23 52 34 20 62 44 30 61 43 29 53 35 21 61 43 29 58 40 26 59 41 27 59 41 27 62 44 30 59 41 27 52 34 20 60 42 28 59 41 27 52 34 20 63 45 31 56 38 24 61 43 29 54 36 22 58 40 26 53 35 21 54 36 22 60 42 28 59 41 27 59 41 27 57 39 25 59 41 27 61 43 29 58 40 26 53 35 21 55 37 23 57 39 25 55 37 23 54 36 22 56 38 24 63 45 31 55 37 23 61 43 29 56 38 24 53 35 21 54 36 22 57 39 25 52 34 20 59 41 27 63 45 31 61 43 29 183 82 27 185 84 29 56 38 24 58 40 26
63 45 31 54 36 22 56 38 24 57 39 25 199 124 29 207 132 37 199 124 29 211 136 41 210 135 40 209 134 39 212 137 42 210 135 40 204 129 34 211 136 41 211 136 41 208 133 38 202 127 32 204 129 34 155 51 34 154 50 33 164 60 43 161 57 40 165 61 44 154 50 33 160 56 39 163 59 42 163 59 42 152 48 31 159 55 38 118 73 41 119 74 42 86 55 30 98 67 42 127 82 50 127 82 50 123 78 46 122 77 45 116 71 39 117 72 40 114 69 37 109 64 32 53 35 21 54 36 22 55 37 23 63 45 31 52 34 20 61 43 29 61 43 29 51 33 19 54 36 22 54 36 22 56 38 24 52 34 20 52 34 20 55 37 23 59 41 27 199 124 29 202 127 32 200 125 30 207 132 37 179 117 30 174 112 25 203 128 33 207 132 37 51 33 19 52 34 20 153 49 32 153 49 32 162 58 41 131 40 31 152 48 31 156 52 35 157 53 36 55 37 23 63 45 31 55 37 23 54 36 22 61 43 29 57 39 25 60 42 28 62 44 30 52 34 20 59 41 27 60 42 28 55 37 23 56 38 24 61 43 29 58 40 26 60 42 28 56 38 24 61 43 29 63 45 31 62 44 30 57 39 25 59 41 27 59 41 27 51 33 19 54 36 22 54 36 22 62 44 30 63 45 31 57 39 25 60 42 28 61 43 29 61 43 29 60 42 28 58 40 26 61 43 29 55 37 23 56 38 24 53 35 21 54 36 22 53 35 21 63 45 31 58 40 26 56 38 24 52 34 20 62 44 30 52 34 20 54 36 22 186 85 30 192 91 36 193 92 37 186 85 30 194 93 38 192 91 36 190 89 34 189 88 33
149 62 14 198 123 28 206 131 36 200 125 30 209 134 39 203 128 33 213 138 43 207 132 37 205 130 35 204 129 34 213 138 43 209 134 39 205 130 35 212 137 42 214 139 44 208 133 38 207 132 37 208 133 38 160 56 39 159 55 38 161 57 40 156 52 35 156 52 35 160 56 39 155 51 34 161 57 40 162 58 41 131 40 31 126 36 26 114 69 37 123 78 46 117 72 40 95 63 39 97 65 41 125 80 48 122 77 45 124 79 47 126 81 49 119 74 42 113 68 36 112 67 35 56 38 24 53 35 21 54 36 22 54 36 22 61 43 29 62 44 30 56 38 24 59 41 27 52 34 20 57 39 25 51 33 19 63 45 31 56 38 24 54 36 22 62 44 30 54 36 22 207 132 37 200 125 30 202 127 32 174 113 25 170 108 21 205 130 35 52 34 20 63 45 31 62 44 30 153 49 32 159 55 38 159 55 38 124 33 24 131 40 31 158 54 37 153 49 32 53 35 21 55 37 23 56 38 24 54 36 22 63 45 31 59 41 27 63 45 31 52 34 20 57 39 25 62 44 30 63 45 31 52 34 20 61 43 29 57 39 25 56 38 24 52 34 20 62 44 30 61 43 29 61 43 29 58 40 26 58 40 26 53 35 21 57 39 25 55 37 23 54 36 22 53 35 21 54 36 22 55 37 23 63 45 31 52 34 20 61 43 29 61 43 29 51 33 19 54 36 22 54 36 22 56 38 24 52 34 20 52 34 20 55 37 23 59 41 27 54 36 22 55 37 23 52 34 20 58 40 26 187 86 31 185 84 29 187 86 31 195 94 39 185 84 29 187 86 31 191 90 35 188 87 32 194 93 38 162 74 27 152 65 17
208 133 38 210 135 40 212 137 42 210 135 40 206 131 36 213 138 43 216 141 46 213 138 43 208 133 38 214 139 44 213 138 43 180 118 31 182 120 33 178 116 29 183 121 34 179 118 30 181 119 32 154 50 33 165 61 44 160 56 39 158 54 37 157 53 36 130 39 30 129 38 29 128 38 28 130 39 30 132 41 32 128 37 28 131 41 31 117 72 40 117 72 40 121 76 44 125 80 48 96 64 40 92 60 36 89 58 33 122 77 45 123 78 46 116 71 39 117 72 40 117 72 40 51 33 19 57 39 25 57 39 25 62 44 30 51 33 19 61 43 29 52 34 20 62 44 30 59 41 27 51 33 19 61 43 29 58 40 26 62 44 30 58 40 26 53 35 21 62 44 30 51 33 19 52 34 20 59 41 27 52 34 20 60 42 28 53 35 21 61 43 29 55 37 23 53 35 21 51 33 19 154 50 33 153 49 32 150 46 29 127 37 27 129 39 29 151 47 30 55 37 23 57 39 25 58 40 26 56 38 24 57 39 25 52 34 20 51 33 19 56 38 24 51 33 19 58 40 26 60 42 28 60 42 28 57 39 25 53 35 21 60 42 28 52 34 20 59 41 27 60 42 28 58 40 26 56 38 24 59 41 27 62 44 30 57 39 25 54 36 22 55 37 23 56 38 24 53 35 21 54 36 22 54 36 22 61 43 29 62 44 30 56 38 24 59 41 27 52 34 20 57 39 25 51 33 19 63 45 31 56 38 24 54 36 22 62 44 30 54 36 22 51 33 19 54 36 22 185 84 29 189 88 33 187 86 31 196 95 40 188 87 32 200 99 44 199 98 43 166 78 31 168 81 33 164 77 29 157 69 22 192 91 36
201 126 31 210 135 40 209 134 39 207 132 37 183 121 34 180 119 31 178 116 29 180 119 31 185 123 36 185 123 36 182 121 33 180 119 31 182 120 33 186 125 37 180 119 31 212 137 42 158 54 37 157 53 36 128 38 28 130 39 30 127 36 27 129 38 29 131 40 31 136 46 36 126 35 26 162 58 41 158 54 37 159 55 38 152 48 31 116 71 39 116 71 39 121 76 44 125 80 48 119 74 42 125 80 48 98 66 42 96 64 40 118 73 41 121 76 44 123 78 46 120 75 43 116 71 39 60 42 28 62 44 30 52 34 20 53 35 21 57 39 25 60 42 28 60 42 28 51 33 19 60 42 28 60 42 28 57 39 25 53 35 21 52 34 20 62 44 30 60 42 28 60 42 28 61 43 29 61 43 29 58 40 26 53 35 21 60 42 28 61 43 29 58 40 26 53 35 21 59 41 27 57 39 25 149 45 28 153 49 32 120 30 20 125 35 25 151 47 30 58 40 26 51 33 19 61 43 29 55 37 23 53 35 21 51 33 19 54 36 22 53 35 21 54 36 22 56 38 24 59 41 27 56 38 24 61 43 29 56 38 24 54 36 22 56 38 24 59 41 27 59 41 27 55 37 23 52 34 20 56 38 24 58 40 26 53 35 21 57 39 25 59 41 27 52 34 20 57 39 25 57 39 25 61 43 29 51 33 19 61 43 29 52 34 20 62 44 30 59 41 27 51 33 19 61 43 29 58 40 26 62 44 30 58 40 26 53 35 21 63 45 31 178 77 22 182 81 26 192 91 36 186 85 30 196 95 40 190 89 34 200 99 44 164 77 29 161 73 26 159 71 24 166 78 31 190 89 34 184 83 28 207 132 37
177 116 28 177 115 28 177 115 28 181 119 32 186 125 37 183 122 34 181 119 32 183 122 34 215 140 45 214 139 44 208 133 38 215 140 45 207 132 37 210 135 40 212 137 42 211 136 41 131 41 31 126 35 26 131 40 31 127 36 27 127 37 27 162 58 41 161 57 40 163 59 42 161 57 40 158 54 37 157 53 36 161 57 40 156 52 35 110 65 33 116 71 39 122 77 45 116 71 39 118 73 41 121 76 44 127 82 50 88 56 32 94 63 38 115 70 38 121 76 44 111 66 34 119 74 42 62 44 30 53 35 21 58 40 26 62 44 30 59 41 27 61 43 29 51 33 19 58 40 26 62 44 30 52 34 20 61 43 29 52 34 20 62 44 30 57 39 25 57 39 25 51 33 19 59 41 27 57 39 25 54 36 22 58 40 26 56 38 24 52 34 20 54 36 22 59 41 27 59 41 27 57 39 25 55 37 23 150 46 29 157 53 36 122 31 22 124 33 24 56 38 24 54 36 22 54 36 22 55 37 23 51 33 19 53 35 21 55 37 23 61 43 29 51 33 19 58 40 26 56 38 24 58 40 26 53 35 21 56 38 24 54 36 22 57 39 25 59 41 27 53 35 21 59 41 27 61 43 29 59 41 27 53 35 21 58 40 26 61 43 29 62 44 30 61 43 29 60 42 28 62 44 30 52 34 20 53 35 21 57 39 25 60 42 28 60 42 28 51 33 19 60 42 28 60 42 28 57 39 25 54 36 22 53 35 21 62 44 30 187 86 31 191 90 35 194 93 38 196 95 40 195 94 39 191 90 35 169 81 34 170 83 35 167 80 32 191 90 35 196 95 40 193 92 37 187 86 31 175 113 26 173 111 24
194 154 58 167 140 52 168 142 53 209 134 39 206 131 36 211 136 41 211 136 41 215 140 45 214 139 44 216 141 46 205 130 35 208 133 38 208 133 38 211 136 41 121 31 21 134 43 34 164 60 43 161 57 40 156 52 35 167 63 46 163 59 42 167 63 46 157 53 36 159 55 38 157 53 36 154 50 33 157 53 36 157 53 36 156 52 35 110 65 33 119 74 42 123 78 46 122 77 45 125 80 48 127 82 50 116 71 39 125 80 48 87 56 31 90 59 34 117 72 40 112 67 35 118 73 41 54 36 22 62 44 30 55 37 23 57 39 25 63 45 31 51 33 19 57 39 25 52 34 20 59 41 27 56 38 24 62 44 30 62 44 30 54 36 22 54 36 22 53 35 21 56 38 24 55 37 23 54 36 22 57 39 25 62 44 30 58 40 26 56 38 24 58 40 26 60 42 28 59 41 27 53 35 21 60 42 28 53 35 21 56 38 24 154 50 33 60 42 28 58 40 26 52 34 20 56 38 24 51 33 19 52 34 20 57 39 25 56 38 24 59 41 27 57 39 25 56 38 24 56 38 24 61 43 29 58 40 26 51 33 19 56 38 24 60 42 28 52 34 20 53 35 21 55 37 23 61 43 29 52 34 20 59 41 27 52 34 20 60 42 28 52 34 20 63 45 31 62 44 30 53 35 21 58 40 26 62 44 30 59 41 27 61 43 29 51 33 19 58 40 26 62 44 30 52 34 20 61 43 29 52 34 20 62 44 30 57 39 25 186 85 30 183 82 27 193 92 37 163 75 28 161 74 26 167 79 32 164 77 29 191 90 35 192 91 36 195 94 39 194 93 38 189 88 33 185 84 29 175 113 26 181 119 32
197 157 61 169 142 54 194 154 58 209 134 39 209 134 39 207 132 37 212 137 42 213 138 43 211 136 41 206 131 36 208 133 38 206 131 36 208 133 38 153 49 32 153 49 32 160 56 39 160 56 39 154 50 33 164 60 43 162 58 41 159 55 38 163 59 42 156 52 35 156 52 35 162 58 41 153 49 32 158 54 37 58 40 26 52 34 20 60 42 28 117 72 40 113 68 36 116 71 39 114 69 37 126 81 49 125 80 48 119 74 42 118 73 41 91 60 35 87 56 31 108 63 31 55 37 23 54 36 22 59 41 27 55 37 23 53 35 21 52 34 20 56 38 24 53 35 21 54 36 22 51 33 19 61 43 29 62 44 30 52 34 20 62 44 30 55 37 23 53 35 21 53 35 21 54 36 22 56 38 24 57 39 25 53 35 21 57 39 25 57 39 25 61 43 29 61 43 29 63 45 31 52 34 20 56 38 24 57 39 25 60 42 28 52 34 20 63 45 31 62 44 30 58 40 26 52 34 20 63 45 31 58 40 26 63 45 31 54 36 22 56 38 24 56 38 24 53 35 21 58 40 26 60 42 28 61 43 29 54 36 22 60 42 28 62 44 30 59 41 27 62 44 30 63 45 31 52 34 20 61 43 29 54 36 22 58 40 26 56 38 24 54 36 22 63 45 31 54 36 22 62 44 30 55 37 23 57 39 25 63 45 31 51 33 19 57 39 25 52 34 20 59 41 27 56 38 24 62 44 30 62 44 30 54 36 22 181 80 25 184 83 28 159 72 24 159 72 24 160 72 25 164 76 29 199 98 43 195 94 39 192 91 36 193 92 37 194 93 38 190 89 34 182 81 26 205 130 35 199 124 29 197 157 61
168 141 53 173 146 58 196 156 60 198 158 62 201 126 31 208 133 38 198 123 28 204 129 34 205 130 35 196 121 26 58 40 26 62 44 30 59 41 27 154 50 33 155 51 34 159 55 38 152 48 31 160 56 39 161 57 40 151 47 30 155 51 34 152 48 31 153 49 32 157 53 36 147 43 26 52 34 20 55 37 23 61 43 29 60 42 28 60 42 28 61 43 29 118 73 41 112 67 35 121 76 44 122 77 45 118 73 41 115 70 38 112 67 35 121 76 44 80 48 24 81 49 25 57 39 25 51 33 19 53 35 21 54 36 22 53 35 21 55 37 23 55 37 23 60 42 28 58 40 26 60 42 28 62 44 30 62 44 30 59 41 27 57 39 25 62 44 30 63 45 31 54 36 22 54 36 22 51 33 19 59 41 27 59 41 27 56 38 24 62 44 30 63 45 31 61 43 29 56 38 24 60 42 28 58 40 26 61 43 29 56 38 24 55 37 23 60 42 28 60 42 28 52 34 20 62 44 30 60 42 28 57 39 25 61 43 29 55 37 23 56 38 24 63 45 31 55 37 23 62 44 30 58 40 26 52 34 20 60 42 28 61 43 29 54 36 22 56 38 24 52 34 20 63 45 31 62 44 30 56 38 24 56 38 24 60 42 28 58 40 26 51 33 19 55 37 23 54 36 22 59 41 27 55 37 23 53 35 21 52 34 20 56 38 24 53 35 21 54 36 22 51 33 19 61 43 29 62 44 30 52 34 20 62 44 30 153 66 18 154 66 19 155 68 20 188 87 32 190 89 34 191 90 35 187 86 31 191 90 35 190 89 34 193 92 37 190 89 34 190 89 34 52 34 20 56 38 24 195 155 59 203 163 67
169 142 54 205 165 69 203 163 67 189 149 53 63 45 31 54 36 22 57 39 25 53 35 21 56 38 24 59 41 27 62 44 30 63 45 31 63 45 31 56 38 24 52 34 20 149 45 28 155 51 34 147 43 26 154 50 33 158 54 37 147 43 26 150 46 29 59 41 27 61 43 29 54 36 22 52 34 20 59 41 27 60 42 28 59 41 27 56 38 24 57 39 25 55 37 23 61 43 29 119 74 42 117 72 40 110 65 33 115 70 38 111 66 34 109 64 32 111 66 34 61 43 29 55 37 23 51 33 19 57 39 25 54 36 22 54 36 22 56 38 24 55 37 23 53 35 21 59 41 27 62 44 30 59 41 27 57 39 25 59 41 27 59 41 27 60 42 28 54 36 22 53 35 21 58 40 26 54 36 22 61 43 29 55 37 23 62 44 30 53 35 21 59 41 27 60 42 28 52 34 20 58 40 26 62 44 30 59 41 27 59 41 27 58 40 26 61 43 29 53 35 21 61 43 29 62 44 30 52 34 20 55 37 23 53 35 21 56 38 24 60 42 28 52 34 20 52 34 20 55 37 23 61 43 29 60 42 28 60 42 28 61 43 29 63 45 31 54 36 22 62 44 30 62 44 30 58 40 26 54 36 22 52 34 20 62 44 30 52 34 20 55 37 23 57 39 25 51 33 19 53 35 21 55 37 23 53 35 21 55 37 23 55 37 23 60 42 28 58 40 26 60 42 28 62 44 30 62 44 30 59 41 27 57 39 25 62 44 30 191 90 35 184 83 28 186 85 30 183 82 27 191 90 35 190 89 34 186 85 30 190 89 34 63 45 31 61 43 29 56 38 24 60 42 28 193 153 57 202 162 66 200 160 64
170 144 55 195 155 59 191 151 55 63 45 31 56 38 24 55 37 23 58 40 26 60 42 28 60 42 28 63 45 31 54 36 22 55 37 23 54 36 22 54 36 22 56 38 24 60 42 28 53 35 21 52 34 20 56 38 24 63 45 31 56 38 24 57 39 25 59 41 27 56 38 24 60 42 28 56 38 24 60 42 28 58 40 26 51 33 19 52 34 20 57 39 25 60 42 28 63 45 31 61 43 29 62 44 30 61 43 29 58 40 26 54 36 22 56 38 24 52 34 20 59 41 27 61 43 29 59 41 27 55 37 23 54 36 22 58 40 26 61 43 29 59 41 27 57 39 25 62 44 30 58 40 26 54 36 22 61 43 29 56 38 24 57 39 25 54 36 22 52 34 20 54 36 22 61 43 29 62 44 30 54 36 22 63 45 31 54 36 22 57 39 25 53 35 21 56 38 24 59 41 27 62 44 30 63 45 31 63 45 31 56 38 24 52 34 20 54 36 22 60 42 28 51 33 19 58 40 26 62 44 30 52 34 20 56 38 24 59 41 27 61 43 29 54 36 22 52 34 20 59 41 27 60 42 28 59 41 27 56 38 24 57 39 25 55 37 23 61 43 29 63 45 31 59 41 27 52 34 20 57 39 25 54 36 22 53 35 21 56 38 24 61 43 29 55 37 23 51 33 19 57 39 25 54 36 22 54 36 22 56 38 24 55 37 23 53 35 21 59 41 27 62 44 30 59 41 27 57 39 25 59 41 27 59 41 27 60 42 28 54 36 22 53 35 21 186 85 30 181 80 25 61 43 29 55 37 23 62 44 30 53 35 21 59 41 27 61 43 29 52 34 20 58 40 26 199 159 63 201 161 65 173 147 58
197 157 61 192 152 56 198 158 62 57 39 25 54 36 22 63 45 31 53 35 21 61 43 29 63 45 31 57 39 25 58 40 26 52 34 20 56 38 24 57 39 25 59 41 27 54 36 22 58 40 26 62 44 30 61 43 29 57 39 25 55 37 23 56 38 24 58 40 26 57 39 25 53 35 21 59 41 27 57 39 25 59 41 27 60 42 28 59 41 27 58 40 26 63 45 31 62 44 30 61 43 29 54 36 22 62 44 30 55 37 23 57 39 25 55 37 23 62 44 30 59 41 27 61 43 29 56 38 24 53 35 21 59 41 27 55 37 23 53 35 21 56 38 24 62 44 30 56 38 24 52 34 20 63 45 31 53 35 21 55 37 23 54 36 22 51 33 19 61 43 29 56 38 24 52 34 20 53 35 21 63 45 31 56 38 24 55 37 23 58 40 26 60 42 28 60 42 28 63 45 31 54 36 22 55 37 23 54 36 22 54 36 22 56 38 24 60 42 28 53 35 21 52 34 20 56 38 24 63 45 31 56 38 24 57 39 25 59 41 27 56 38 24 60 42 28 56 38 24 60 42 28 58 40 26 51 33 19 52 34 20 57 39 25 60 42 28 63 45 31 61 43 29 62 44 30 61 43 29 58 40 26 54 36 22 56 38 24 52 34 20 59 41 27 61 43 29 59 41 27 55 37 23 54 36 22 58 40 26 61 43 29 59 41 27 57 39 25 62 44 30 58 40 26 54 36 22 61 43 29 56 38 24 57 39 25 54 36 22 52 34 20 54 36 22 61 43 29 62 44 30 54 36 22 63 45 31 54 36 22 57 39 25 53 35 21 56 38 24 59 41 27 195 155 59 202 162 66 206 166 70 170 144 55
203 163 67 200 160 64 58 40 26 52 34 20 56 38 24 57 39 25 62 44 30 51 33 19 59 41 27 61 43 29 62 44 30 59 41 27 59 41 27 59 41 27 56 38 24 51 33 19 56 38 24 60 42 28 57 39 25 54 36 22 54 36 22 60 42 28 53 35 21 62 44 30 59 41 27 56 38 24 55 37 23 55 37 23 61 43 29 57 39 25 63 45 31 52 34 20 59 41 27 59 41 27 55 37 23 56 38 24 57 39 25 58 40 26 54 36 22 57 39 25 52 34 20 58 40 26 53 35 21 61 43 29 61 43 29 59 41 27 55 37 23 63 45 31 55 37 23 61 43 29 53 35 21 61 43 29 51 33 19 53 35 21 62 44 30 57 39 25 51 33 19 54 36 22 52 34 20 63 45 31 57 39 25 54 36 22 63 45 31 53 35 21 61 43 29 63 45 31 57 39 25 58 40 26 52 34 20 56 38 24 57 39 25 59 41 27 54 36 22 58 40 26 62 44 30 61 43 29 57 39 25 55 37 23 56 38 24 58 40 26 57 39 25 53 35 21 59 41 27 57 39 25 59 41 27 59 41 27 59 41 27 58 40 26 63 45 31 62 44 30 61 43 29 54 36 22 62 44 30 54 36 22 57 39 25 55 37 23 62 44 30 59 41 27 61 43 29 56 38 24 53 35 21 59 41 27 55 37 23 53 35 21 56 38 24 62 44 30 56 38 24 51 33 19 63 45 31 52 34 20 55 37 23 54 36 22 51 33 19 61 43 29 56 38 24 52 34 20 53 35 21 63 45 31 56 38 24 56 38 24 58 40 26 60 42 28 60 42 28 62 44 30 188 148 52 194 154 58 167 140 52 167 140 52
200 160 64 193 153 57 62 44 30 61 43 29 62 44 30 51 33 19 51 33 19 62 44 30 53 35 21 60 42 28 62 44 30 61 43 29 59 41 27 57 39 25 57 39 25 62 44 30 58 40 26 58 40 26 53 35 21 52 34 20 62 44 30 61 43 29 58 40 26 58 40 26 55 37 23 63 45 31 62 44 30 63 45 31 55 37 23 62 44 30 53 35 21 57 39 25 52 34 20 60 42 28 57 39 25 57 39 25 61 43 29 57 39 25 55 37 23 54 36 22 60 42 28 53 35 21 62 44 30 54 36 22 53 35 21 53 35 21 52 34 20 53 35 21 59 41 27 55 37 23 57 39 25 60 42 28 53 35 21 61 43 29 53 35 21 59 41 27 56 38 24 62 44 30 63 45 31 58 40 26 52 34 20 56 38 24 57 39 25 62 44 30 51 33 19 59 41 27 61 43 29 62 44 30 59 41 27 59 41 27 59 41 27 55 37 23 51 33 19 56 38 24 60 42 28 57 39 25 54 36 22 54 36 22 60 42 28 53 35 21 62 44 30 59 41 27 56 38 24 55 37 23 55 37 23 61 43 29 57 39 25 63 45 31 52 34 20 59 41 27 59 41 27 55 37 23 56 38 24 57 39 25 58 40 26 54 36 22 57 39 25 52 34 20 58 40 26 53 35 21 61 43 29 61 43 29 59 41 27 55 37 23 51 33 19 55 37 23 61 43 29 53 35 21 61 43 29 51 33 19 53 35 21 62 44 30 57 39 25 51 33 19 54 36 22 52 34 20 63 45 31 57 39 25 54 36 22 63 45 31 53 35 21 61 43 29 63 45 31 57 39 25 193 153 57 192 152 56 168 141 53 198 158 62
195 155 59 61 43 29 54 36 22 55 37 23 52 34 20 51 33 19 52 34 20 56 38 24 58 40 26 53 35 21 51 33 19 59 41 27 58 40 26 62 44 30 56 38 24 57 39 25 59 41 27 52 34 20 62 44 30 52 34 20 57 39 25 55 37 23 58 40 26 54 36 22 59 41 27 58 40 26 52 34 20 53 35 21 62 44 30 54 36 22 55 37 23 58 40 26 53 35 21 58 40 26 57 39 25 51 33 19 60 42 28 53 35 21 57 39 25 62 44 30 53 35 21 51 33 19 59 41 27 59 41 27 51 33 19 52 34 20 53 35 21 57 39 25 57 39 25 53 35 21 57 39 25 52 34 20 61 43 29 61 43 29 54 36 22 57 39 25 60 42 28 62 44 30 59 41 27 62 44 30 61 43 29 62 44 30 51 33 19 51 33 19 62 44 30 53 35 21 60 42 28 62 44 30 61 43 29 59 41 27 57 39 25 57 39 25 62 44 30 58 40 26 58 40 26 53 35 21 52 34 20 62 44 30 61 43 29 58 40 26 58 40 26 55 37 23 63 45 31 62 44 30 63 45 31 55 37 23 62 44 30 53 35 21 57 39 25 52 34 20 60 42 28 57 39 25 57 39 25 61 43 29 57 39 25 55 37 23 54 36 22 60 42 28 53 35 21 62 44 30 54 36 22 53 35 21 53 35 21 52 34 20 53 35 21 59 41 27 55 37 23 57 39 25 60 42 28 53 35 21 62 44 30 53 35 21 59 41 27 56 38 24 62 44 30 63 45 31 58 40 26 52 34 20 56 38 24 57 39 25 62 44 30 63 45 31 59 41 27 61 43 29 198 158 62 167 141 52 168 142 53 197 157 61
59 41 27 60 42 28 61 43 29 54 36 22 63 45 31 54 36 22 58 40 26 57 39 25 56 38 24 54 36 22 59 41 27 59 41 27 55 37 23 61 43 29 55 37 23 60 42 28 52 34 20 60 42 28 53 35 21 53 35 21 63 45 31 57 39 25 54 36 22 55 37 23 54 36 22 54 36 22 51 33 19 61 43 29 54 36 22 54 36 22 51 33 19 58 40 26 59 41 27 57 39 25 53 35 21 51 33 19 52 34 20 60 42 28 52 34 20 53 35 21 53 35 21 53 35 21 52 34 20 62 44 30 53 35 21 52 34 20 55 37 23 58 40 26 61 43 29 53 35 21 51 33 19 60 42 28 57 39 25 62 44 30 59 41 27 58 40 26 61 43 29 60 42 28 61 43 29 54 36 22 55 37 23 52 34 20 51 33 19 52 34 20 56 38 24 59 41 27 53 35 21 51 33 19 59 41 27 58 40 26 62 44 30 56 38 24 57 39 25 59 41 27 52 34 20 62 44 30 52 34 20 57 39 25 55 37 23 58 40 26 54 36 22 59 41 27 58 40 26 52 34 20 53 35 21 62 44 30 54 36 22 56 38 24 58 40 26 53 35 21 58 40 26 57 39 25 51 33 19 60 42 28 54 36 22 57 39 25 62 44 30 53 35 21 51 33 19 59 41 27 59 41 27 51 33 19 52 34 20 53 35 21 57 39 25 57 39 25 53 35 21 57 39 25 52 34 20 61 43 29 61 43 29 54 36 22 57 39 25 60 42 28 62 44 30 59 41 27 62 44 30 61 43 29 62 44 30 51 33 19 51 33 19 62 44 30 53 35 21 61 43 29 196 156 60 168 141 53 195 155 59 191 151 55
54 36 22 54 36 22 55 37 23 63 45 31 56 38 24 61 43 29 55 37 23 59 41 27 56 38 24 59 41 27 60 42 28 60 42 28 54 36 22 53 35 21 61 43 29 51 33 19 59 41 27 55 37 23 60 42 28 59 41 27 56 38 24 53 35 21 52 34 20 62 44 30 56 38 24 61 43 29 60 42 28 55 37 23 52 34 20 57 39 25 51 33 19 60 42 28 57 39 25 55 37 23 54 36 22 62 44 30 51 33 19 55 37 23 53 35 21 54 36 22 57 39 25 57 39 25 60 42 28 54 36 22 51 33 19 53 35 21 60 42 28 56 38 24 61 43 29 63 45 31 60 42 28 53 35 21 58 40 26 61 43 29 56 38 24 60 42 28 61 43 29 59 41 27 60 42 28 61 43 29 54 36 22 63 45 31 54 36 22 58 40 26 57 39 25 56 38 24 54 36 22 59 41 27 59 41 27 55 37 23 61 43 29 55 37 23 60 42 28 52 34 20 60 42 28 53 35 21 53 35 21 63 45 31 57 39 25 54 36 22 55 37 23 54 36 22 54 36 22 51 33 19 61 43 29 54 36 22 54 36 22 51 33 19 58 40 26 59 41 27 57 39 25 53 35 21 51 33 19 52 34 20 60 42 28 52 34 20 53 35 21 53 35 21 53 35 21 52 34 20 62 44 30 53 35 21 52 34 20 55 37 23 58 40 26 61 43 29 53 35 21 52 34 20 60 42 28 57 39 25 62 44 30 59 41 27 58 40 26 61 43 29 60 42 28 61 43 29 54 36 22 55 37 23 52 34 20 51 33 19 52 34 20 56 38 24 59 41 27 53 35 21 51 33 19 162 136 47 58 40 26 62 44 30
60 42 28 57 39 25 62 44 30 58 40 26 52 34 20 53 35 21 62 44 30 59 41 27 59 41 27 61 43 29 52 34 20 59 41 27 51 33 19 62 44 30 51 33 19 57 39 25 57 39 25 56 38 24 54 36 22 55 37 23 53 35 21 61 43 29 58 40 26 58 40 26 59 41 27 58 40 26 56 38 24 63 45 31 63 45 31 57 39 25 62 44 30 56 38 24 57 39 25 56 38 24 60 42 28 55 37 23 58 40 26 53 35 21 55 37 23 62 44 30 62 44 30 58 40 26 56 38 24 51 33 19 52 34 20 62 44 30 52 34 20 57 39 25 62 44 30 59 41 27 62 44 30 54 36 22 51 33 19 54 36 22 59 41 27 61 43 29 58 40 26 54 36 22 54 36 22 55 37 23 63 45 31 56 38 24 61 43 29 55 37 23 59 41 27 56 38 24 59 41 27 60 42 28 60 42 28 54 36 22 53 35 21 61 43 29 51 33 19 59 41 27 55 37 23 60 42 28 59 41 27 56 38 24 53 35 21 52 34 20 62 44 30 56 38 24 61 43 29 60 42 28 55 37 23 52 34 20 57 39 25 51 33 19 60 42 28 57 39 25 55 37 23 54 36 22 62 44 30 51 33 19 55 37 23 53 35 21 54 36 22 57 39 25 57 39 25 60 42 28 54 36 22 51 33 19 53 35 21 60 42 28 56 38 24 61 43 29 63 45 31 60 42 28 53 35 21 58 40 26 61 43 29 56 38 24 60 42 28 61 43 29 59 41 27 60 42 28 61 43 29 54 36 22 63 45 31 54 36 22 58 40 26 57 39 25 56 38 24 54 36 22 59 41 27 59 41 27 55 37 23 61 43 29
58 40 26 62 44 30 59 41 27 54 36 22 63 45 31 54 36 22 62 44 30 59 41 27 62 44 30 57 39 25 52 34 20 62 44 30 52 34 20 51 33 19 56 38 24 59 41 27 63 45 31 62 44 30 54 36 22 53 35 21 58 40 26 55 37 23 60 42 28 57 39 25 57 39 25 56 38 24 61 43 29 57 39 25 63 45 31 51 33 19 56 38 24 59 41 27 59 41 27 58 40 26 58 40 26 61 43 29 53 35 21 56 38 24 55 37 23 55 37 23 57 39 25 57 39 25 51 33 19 63 45 31 52 34 20 59 41 27 52 34 20 61 43 29 59 41 27 59 41 27 63 45 31 53 35 21 52 34 20 58 40 26 62 44 30 56 38 24 60 42 28 60 42 28 56 38 24 62 44 30 58 40 26 52 34 20 53 35 21 62 44 30 59 41 27 59 41 27 61 43 29 52 34 20 59 41 27 52 34 20 62 44 30 51 33 19 57 39 25 57 39 25 56 38 24 54 36 22 55 37 23 53 35 21 61 43 29 58 40 26 58 40 26 59 41 27 58 40 26 56 38 24 63 45 31 63 45 31 57 39 25 62 44 30 56 38 24 57 39 25 56 38 24 60 42 28 55 37 23 58 40 26 53 35 21 55 37 23 62 44 30 63 45 31 58 40 26 56 38 24 51 33 19 52 34 20 62 44 30 52 34 20 57 39 25 62 44 30 59 41 27 62 44 30 54 36 22 51 33 19 54 36 22 59 41 27 61 43 29 58 40 26 54 36 22 54 36 22 55 37 23 63 45 31 56 38 24 61 43 29 55 37 23 59 41 27 56 38 24 59 41 27 60 42 28 60 42 28 54 36 22 53 35 21
61 43 29 60 42 28 56 38 24 61 43 29 58 40 26 54 36 22 60 42 28 51 33 19 61 43 29 56 38 24 60 42 28 53 35 21 51 33 19 55 37 23 61 43 29 58 40 26 57 39 25 53 35 21 52 34 20 55 37 23 52 34 20 62 44 30 54 36 22 55 37 23 56 38 24 60 42 28 51 33 19 57 39 25 53 35 21 55 37 23 60 42 28 61 43 29 56 38 24 62 44 30 52 34 20 54 36 22 57 39 25 59 41 27 60 42 28 55 37 23 58 40 26 51 33 19 61 43 29 54 36 22 54 36 22 60 42 28 60 42 28 58 40 26 56 38 24 59 41 27 55 37 23 61 43 29 56 38 24 62 44 30 55 37 23 54 36 22 54 36 22 58 40 26 62 44 30 59 41 27 54 36 22 63 45 31 54 36 22 62 44 30 59 41 27 62 44 30 57 39 25 52 34 20 62 44 30 52 34 20 51 33 19 56 38 24 59 41 27 63 45 31 62 44 30 54 36 22 53 35 21 58 40 26 55 37 23 60 42 28 57 39 25 57 39 25 56 38 24 61 43 29 57 39 25 63 45 31 51 33 19 56 38 24 59 41 27 59 41 27 58 40 26 58 40 26 61 43 29 53 35 21 56 38 24 55 37 23 55 37 23 57 39 25 57 39 25 51 33 19 62 44 30 52 34 20 59 41 27 52 34 20 61 43 29 59 41 27 59 41 27 63 45 31 53 35 21 52 34 20 58 40 26 62 44 30 56 38 24 60 42 28 60 42 28 56 38 24 62 44 30 58 40 26 52 34 20 53 35 21 62 44 30 59 41 27 59 41 27 61 43 29 52 34 20 59 41 27 52 34 20 62 44 30
61 43 29 58 40 26 59 41 27 62 44 30 57 39 25 60 42 28 52 34 20 53 35 21 61 43 29 58 40 26 55 37 23 52 34 20 54 36 22 62 44 30 52 34 20 52 34 20 52 34 20 52 34 20 52 34 20 60 42 28 52 34 20 51 33 19 53 35 21 57 39 25 59 41 27 58 40 26 51 33 19 54 36 22 55 37 23 61 43 29 51 33 19 54 36 22 54 36 22 55 37 23 54 36 22 57 39 25 63 45 31 52 34 20 53 35 21 60 42 28 52 34 20 60 42 28 55 37 23 61 43 29 55 37 23 59 41 27 58 40 26 54 36 22 56 38 24 57 39 25 59 41 27 54 36 22 63 45 31 53 35 21 61 43 29 60 42 28 59 41 27 61 43 29 60 42 28 56 38 24 61 43 29 58 40 26 54 36 22 60 42 28 51 33 19 61 43 29 56 38 24 60 42 28 53 35 21 51 33 19 55 37 23 60 42 28 58 40 26 57 39 25 53 35 21 52 34 20 55 37 23 52 34 20 62 44 30 54 36 22 55 37 23 56 38 24 60 42 28 51 33 19 57 39 25 53 35 21 55 37 23 60 42 28 61 43 29 56 38 24 62 44 30 52 34 20 54 36 22 57 39 25 59 41 27 60 42 28 55 37 23 58 40 26 51 33 19 61 43 29 54 36 22 54 36 22 60 42 28 60 42 28 58 40 26 56 38 24 59 41 27 55 37 23 61 43 29 56 38 24 62 44 30 55 37 23 54 36 22 54 36 22 58 40 26 62 44 30 59 41 27 54 36 22 63 45 31 54 36 22 62 44 30 59 41 27 62 44 30 57 39 25 52 34 20 62 44 30 52 34 20 51 33 19
60 42 28 57 39 25 54 36 22 61 43 29 61 43 29 53 35 21 57 39 25 53 35 21 56 38 24 57 39 25 53 35 21 53 35 21 52 34 20 59 41 27 59 41 27 51 33 19 52 34 20 62 44 30 57 39 25 54 36 22 60 42 28 51 33 19 57 39 25 57 39 25 53 35 21 58 40 26 56 38 24 54 36 22 62 44 30 53 35 21 52 34 20 58 40 26 59 41 27 55 37 23 58 40 26 55 37 23 57 39 25 51 33 19 62 44 30 52 34 20 59 41 27 57 39 25 56 38 24 62 44 30 58 40 26 58 40 26 51 33 19 53 35 21 59 41 27 56 38 24 52 34 20 63 45 31 52 34 20 55 37 23 54 36 22 61 43 29 60 42 28 61 43 29 58 40 26 59 41 27 62 44 30 57 39 25 60 42 28 52 34 20 53 35 21 61 43 29 58 40 26 55 37 23 52 34 20 54 36 22 62 44 30 52 34 20 52 34 20 52 34 20 52 34 20 52 34 20 60 42 28 52 34 20 51 33 19 53 35 21 57 39 25 59 41 27 58 40 26 51 33 19 54 36 22 55 37 23 61 43 29 51 33 19 54 36 22 54 36 22 55 37 23 54 36 22 57 39 25 63 45 31 52 34 20 53 35 21 60 42 28 52 34 20 60 42 28 55 37 23 61 43 29 55 37 23 59 41 27 58 40 26 54 36 22 56 38 24 57 39 25 59 41 27 54 36 22 63 45 31 53 35 21 61 43 29 60 42 28 59 41 27 61 43 29 60 42 28 56 38 24 61 43 29 58 40 26 54 36 22 60 42 28 51 33 19 61 43 29 56 38 24 60 42 28 53 35 21 51 33 19 55 37 23
55 37 23 58 40 26 53 35 21 62 44 30 53 35 21 60 42 28 57 39 25 54 36 22 59 41 27 54 36 22 52 34 20 53 35 21 53 35 21 54 36 22 62 44 30 52 34 20 60 42 28 55 37 23 56 38 24 57 39 25 61 43 29 57 39 25 56 38 24 60 42 28 52 34 20 58 40 26 53 35 21 62 44 30 55 37 23 62 44 30 62 44 30 63 45 31 55 37 23 59 41 27 58 40 26 61 43 29 61 43 29 52 34 20 53 35 21 58 40 26 59 41 27 62 44 30 57 39 25 56 38 24 58 40 26 61 43 29 62 44 30 61 43 29 53 35 21 62 44 30 63 45 31 63 45 31 62 44 30 61 43 29 63 45 31 59 41 27 62 44 30 60 42 28 57 39 25 54 36 22 61 43 29 61 43 29 52 34 20 57 39 25 53 35 21 56 38 24 57 39 25 53 35 21 53 35 21 52 34 20 59 41 27 59 41 27 51 33 19 52 34 20 62 44 30 57 39 25 54 36 22 60 42 28 51 33 19 57 39 25 57 39 25 53 35 21 58 40 26 56 38 24 54 36 22 62 44 30 53 35 21 52 34 20 58 40 26 59 41 27 55 37 23 58 40 26 55 37 23 57 39 25 51 33 19 62 44 30 52 34 20 59 41 27 57 39 25 56 38 24 62 44 30 58 40 26 58 40 26 51 33 19 53 35 21 59 41 27 56 38 24 52 34 20 63 45 31 52 34 20 55 37 23 54 36 22 61 43 29 60 42 28 61 43 29 58 40 26 59 41 27 62 44 30 57 39 25 60 42 28 52 34 20 53 35 21 61 43 29 58 40 26 55 37 23 52 34 20 54 36 22 62 44 30
63 45 31 57 39 25 63 45 31 54 36 22 52 34 20 61 43 29 52 34 20 61 43 29 55 37 23 51 33 19 55 37 23 60 42 28 60 42 28 60 42 28 53 35 21 58 40 26 52 34 20 58 40 26 54 36 22 58 40 26 57 39 25 55 37 23 55 37 23 59 41 27 59 41 27 52 34 20 63 45 31 56 38 24 60 42 28 55 37 23 55 37 23 56 38 24 59 41 27 62 44 30 53 35 21 59 41 27 54 36 22 54 36 22 58 40 26 60 42 28 56 38 24 51 33 19 55 37 23 59 41 27 59 41 27 59 41 27 63 45 31 62 44 30 59 41 27 63 45 31 62 44 30 57 39 25 56 38 24 52 34 20 58 40 26 63 45 31 62 44 30 55 37 23 58 40 26 53 35 21 62 44 30 53 35 21 60 42 28 57 39 25 54 36 22 59 41 27 54 36 22 52 34 20 53 35 21 53 35 21 54 36 22 62 44 30 52 34 20 60 42 28 55 37 23 189 149 53 191 151 55 195 155 59 191 151 55 191 151 55 193 153 57 52 34 20 57 39 25 53 35 21 62 44 30 55 37 23 62 44 30 62 44 30 63 45 31 55 37 23 59 41 27 58 40 26 61 43 29 61 43 29 52 34 20 53 35 21 58 40 26 59 41 27 62 44 30 57 39 25 56 38 24 58 40 26 61 43 29 62 44 30 61 43 29 53 35 21 62 44 30 63 45 31 63 45 31 62 44 30 61 43 29 63 45 31 59 41 27 62 44 30 60 42 28 57 39 25 54 36 22 61 43 29 61 43 29 52 34 20 57 39 25 53 35 21 56 38 24 57 39 25 53 35 21 53 35 21 52 34 20 59 41 27
61 43 29 52 34 20 54 36 22 55 37 23 52 34 20 62 44 30 51 33 19 56 38 24 63 45 31 56 38 24 54 36 22 55 37 23 59 41 27 53 35 21 56 38 24 61 43 29 60 42 28 63 45 31 55 37 23 56 38 24 54 36 22 62 44 30 54 36 22 61 43 29 63 45 31 63 45 31 58 40 26 59 41 27 59 41 27 59 41 27 57 39 25 60 42 28 53 35 21 56 38 24 57 39 25 56 38 24 55 37 23 57 39 25 62 44 30 63 45 31 58 40 26 54 36 22 59 41 27 57 39 25 57 39 25 53 35 21 58 40 26 57 39 25 62 44 30 61 43 29 52 34 20 63 45 31 54 36 22 57 39 25 63 45 31 51 33 19 53 35 21 63 45 31 57 39 25 63 45 31 54 36 22 52 34 20 61 43 29 52 34 20 61 43 29 55 37 23 51 33 19 55 37 23 60 42 28 60 42 28 60 42 28 53 35 21 191 151 55 187 147 51 194 154 58 191 151 55 195 155 59 194 154 58 192 152 56 191 151 55 164 138 49 163 136 48 52 34 20 63 45 31 57 39 25 60 42 28 55 37 23 55 37 23 56 38 24 59 41 27 62 44 30 53 35 21 59 41 27 54 36 22 54 36 22 58 40 26 60 42 28 56 38 24 51 33 19 55 37 23 59 41 27 59 41 27 59 41 27 63 45 31 62 44 30 59 41 27 63 45 31 62 44 30 57 39 25 56 38 24 52 34 20 58 40 26 63 45 31 62 44 30 55 37 23 58 40 26 53 35 21 62 44 30 53 35 21 60 42 28 57 39 25 54 36 22 59 41 27 54 36 22 52 34 20 53 35 21 53 35 21 54 36 22
53 35 21 54 36 22 58 40 26 56 38 24 60 42 28 54 36 22 58 40 26 62 44 30 58 40 26 59 41 27 61 43 29 58 40 26 54 36 22 55 37 23 59 41 27 62 44 30 59 41 27 52 34 20 56 38 24 53 35 21 58 40 26 62 44 30 63 45 31 61 43 29 63 45 31 59 41 27 57 39 25 52 34 20 51 33 19 58 40 26 60 42 28 56 38 24 60 42 28 55 37 23 58 40 26 57 39 25 57 39 25 51 33 19 56 38 24 52 34 20 52 34 20 59 41 27 56 38 24 54 36 22 55 37 23 55 37 23 54 36 22 62 44 30 60 42 28 60 42 28 58 40 26 56 38 24 56 38 24 63 45 31 53 35 21 52 34 20 56 38 24 61 43 29 52 34 20 54 36 22 55 37 23 52 34 20 62 44 30 51 33 19 56 38 24 63 45 31 56 38 24 54 36 22 55 37 23 59 41 27 187 147 51 192 152 56 199 159 63 198 158 62 202 162 66 195 155 59 196 156 60 194 154 58 171 144 56 162 135 47 167 141 52 197 157 61 63 45 31 58 40 26 59 41 27 59 41 27 59 41 27 57 39 25 60 42 28 53 35 21 56 38 24 57 39 25 56 38 24 55 37 23 57 39 25 62 44 30 63 45 31 58 40 26 54 36 22 59 41 27 57 39 25 57 39 25 53 35 21 58 40 26 57 39 25 63 45 31 61 43 29 52 34 20 63 45 31 54 36 22 57 39 25 63 45 31 51 33 19 54 36 22 63 45 31 57 39 25 63 45 31 53 35 21 51 33 19 61 43 29 52 34 20 61 43 29 55 37 23 51 33 19 55 37 23 60 42 28 60 42 28 60 42 28
54 36 22 60 42 28 59 41 27 59 41 27 56 38 24 60 42 28 62 44 30 59 41 27 53 35 21 55 37 23 56 38 24 54 36 22 54 36 22 57 39 25 52 34 20 55 37 23 61 43 29 56 38 24 52 34 20 53 35 21 57 39 25 53 35 21 60 42 28 63 45 31 61 43 29 55 37 23 57 39 25 56 38 24 59 41 27 60 42 28 59 41 27 51 33 19 54 36 22 61 43 29 59 41 27 56 38 24 52 34 20 62 44 30 58 40 26 63 45 31 60 42 28 54 36 22 52 34 20 57 39 25 51 33 19 63 45 31 62 44 30 59 41 27 56 38 24 53 35 21 58 40 26 54 36 22 63 45 31 54 36 22 62 44 30 61 43 29 54 36 22 53 35 21 54 36 22 57 39 25 56 38 24 61 43 29 54 36 22 58 40 26 62 44 30 58 40 26 59 41 27 61 43 29 191 151 55 189 149 53 192 152 56 198 158 62 202 162 66 200 160 64 194 154 58 198 158 62 195 155 59 168 142 53 171 145 56 171 144 56 197 157 61 197 157 61 59 41 27 57 39 25 52 34 20 51 33 19 58 40 26 60 42 28 56 38 24 60 42 28 56 38 24 58 40 26 57 39 25 57 39 25 51 33 19 56 38 24 52 34 20 52 34 20 59 41 27 56 38 24 54 36 22 55 37 23 55 37 23 54 36 22 62 44 30 60 42 28 60 42 28 58 40 26 56 38 24 56 38 24 63 45 31 53 35 21 52 34 20 56 38 24 61 43 29 52 34 20 54 36 22 55 37 23 52 34 20 63 45 31 51 33 19 56 38 24 63 45 31 56 38 24 53 35 21 55 37 23 59 41 27 53 35 21
63 45 31 62 44 30 57 39 25 59 41 27 62 44 30 62 44 30 60 42 28 58 40 26 60 42 28 54 36 22 55 37 23 53 35 21 55 37 23 53 35 21 51 33 19 57 39 25 55 37 23 52 34 20 62 44 30 53 35 21 54 36 22 58 40 26 62 44 30 62 44 30 53 35 21 62 44 30 61 43 29 60 42 28 60 42 28 61 43 29 55 37 23 52 34 20 52 34 20 61 43 29 56 38 24 54 36 22 56 38 24 51 33 19 61 43 29 61 43 29 53 35 21 62 44 30 59 41 27 59 41 27 59 41 27 61 43 29 58 40 26 51 33 19 61 43 29 59 41 27 53 35 21 62 44 30 55 37 23 60 42 28 54 36 22 59 41 27 54 36 22 54 36 22 60 42 28 59 41 27 59 41 27 56 38 24 60 42 28 62 44 30 59 41 27 53 35 21 55 37 23 190 150 54 191 151 55 193 153 57 197 157 61 193 153 57 198 158 62 204 164 68 199 159 63 165 139 50 166 139 51 168 142 53 192 152 56 198 158 62 198 158 62 194 154 58 55 37 23 57 39 25 56 38 24 59 41 27 60 42 28 59 41 27 51 33 19 54 36 22 61 43 29 59 41 27 56 38 24 52 34 20 62 44 30 58 40 26 63 45 31 60 42 28 54 36 22 52 34 20 57 39 25 51 33 19 63 45 31 62 44 30 59 41 27 56 38 24 53 35 21 58 40 26 54 36 22 63 45 31 54 36 22 62 44 30 61 43 29 54 36 22 53 35 21 54 36 22 57 39 25 56 38 24 61 43 29 54 36 22 58 40 26 62 44 30 58 40 26 59 41 27 61 43 29 58 40 26 54 36 22 55 37 23
53 35 21 55 37 23 62 44 30 52 34 20 62 44 30 62 44 30 51 33 19 54 36 22 53 35 21 56 38 24 52 34 20 53 35 21 55 37 23 59 41 27 54 36 22 54 36 22 63 45 31 58 40 26 60 42 28 56 38 24 56 38 24 62 44 30 63 45 31 52 34 20 56 38 24 54 36 22 61 43 29 60 42 28 52 34 20 58 40 26 62 44 30 55 37 23 63 45 31 56 38 24 55 37 23 61 43 29 57 39 25 60 42 28 61 43 29 52 34 20 60 42 28 60 42 28 55 37 23 56 38 24 61 43 29 57 39 25 60 42 28 56 38 24 61 43 29 51 33 19 62 44 30 56 38 24 59 41 27 59 41 27 52 34 20 55 37 23 54 36 22 63 45 31 62 44 30 57 39 25 59 41 27 62 44 30 62 44 30 60 42 28 58 40 26 60 42 28 190 150 54 193 153 57 192 152 56 196 156 60 196 156 60 195 155 59 201 161 65 169 143 54 166 139 51 175 148 60 195 155 59 195 155 59 197 157 61 199 159 63 196 156 60 53 35 21 62 44 30 61 43 29 60 42 28 60 42 28 61 43 29 55 37 23 52 34 20 52 34 20 61 43 29 56 38 24 54 36 22 56 38 24 51 33 19 61 43 29 61 43 29 53 35 21 62 44 30 58 40 26 59 41 27 59 41 27 61 43 29 58 40 26 52 34 20 61 43 29 59 41 27 53 35 21 62 44 30 55 37 23 60 42 28 54 36 22 59 41 27 54 36 22 54 36 22 60 42 28 59 41 27 59 41 27 56 38 24 60 42 28 62 44 30 59 41 27 53 35 21 55 37 23 56 38 24 54 36 22 54 36 22 57 39 25
53 35 21 53 35 21 54 36 22 62 44 30 63 45 31 56 38 24 59 41 27 51 33 19 57 39 25 51 33 19 51 33 19 57 39 25 55 37 23 62 44 30 54 36 22 62 44 30 54 36 22 56 38 24 58 40 26 54 36 22 61 43 29 51 33 19 62 44 30 61 43 29 59 41 27 63 45 31 60 42 28 54 36 22 60 42 28 60 42 28 58 40 26 53 35 21 56 38 24 56 38 24 54 36 22 62 44 30 58 40 26 62 44 30 52 34 20 58 40 26 62 44 30 63 45 31 52 34 20 60 42 28 57 39 25 56 38 24 52 34 20 51 33 19 61 43 29 61 43 29 57 39 25 57 39 25 53 35 21 57 39 25 56 38 24 54 36 22 53 35 21 53 35 21 55 37 23 62 44 30 52 34 20 62 44 30 62 44 30 51 33 19 54 36 22 189 149 53 194 154 58 192 152 56 195 155 59 198 158 62 203 163 67 198 158 62 169 143 54 178 151 63 172 145 57 203 163 67 198 158 62 196 156 60 199 159 63 198 158 62 52 34 20 56 38 24 54 36 22 61 43 29 60 42 28 52 34 20 185 84 29 160 73 25 183 82 27 63 45 31 56 38 24 55 37 23 61 43 29 57 39 25 60 42 28 61 43 29 52 34 20 60 42 28 60 42 28 55 37 23 56 38 24 61 43 29 57 39 25 60 42 28 56 38 24 61 43 29 51 33 19 62 44 30 56 38 24 59 41 27 59 41 27 52 34 20 55 37 23 54 36 22 63 45 31 62 44 30 57 39 25 59 41 27 62 44 30 62 44 30 60 42 28 58 40 26 60 42 28 55 37 23 55 37 23 53 35 21 55 37 23 53 35 21
57 39 25 57 39 25 62 44 30 52 34 20 61 43 29 52 34 20 61 43 29 58 40 26 51 33 19 62 44 30 59 41 27 62 44 30 58 40 26 53 35 21 62 44 30 63 45 31 52 34 20 60 42 28 52 34 20 59 41 27 52 34 20 61 43 29 55 37 23 53 35 21 52 34 20 60 42 28 56 38 24 51 33 19 58 40 26 61 43 29 56 38 24 56 38 24 57 39 25 59 41 27 56 38 24 56 38 24 51 33 19 51 33 19 56 38 24 52 34 20 59 41 27 60 42 28 59 41 27 56 38 24 52 34 20 60 42 28 53 35 21 59 41 27 60 42 28 58 40 26 55 37 23 58 40 26 62 44 30 57 39 25 54 36 22 55 37 23 56 38 24 53 35 21 53 35 21 54 36 22 62 44 30 63 45 31 56 38 24 59 41 27 187 147 51 195 155 59 192 152 56 193 153 57 200 160 64 199 159 63 177 150 62 169 142 54 177 151 62 198 158 62 200 160 64 200 160 64 194 154 58 199 159 63 187 147 51 62 44 30 61 43 29 59 41 27 63 45 31 60 42 28 54 36 22 61 43 29 188 87 32 157 70 22 183 82 27 184 83 28 56 38 24 54 36 22 62 44 30 58 40 26 62 44 30 52 34 20 58 40 26 62 44 30 63 45 31 52 34 20 60 42 28 57 39 25 56 38 24 52 34 20 51 33 19 61 43 29 61 43 29 57 39 25 57 39 25 53 35 21 57 39 25 56 38 24 54 36 22 53 35 21 53 35 21 55 37 23 62 44 30 52 34 20 62 44 30 62 44 30 51 33 19 54 36 22 53 35 21 56 38 24 52 34 20 53 35 21 55 37 23 59 41 27
60 42 28 62 44 30 53 35 21 54 36 22 57 39 25 60 42 28 59 41 27 51 33 19 60 42 28 61 43 29 58 40 26 53 35 21 52 34 20 61 43 29 60 42 28 61 43 29 62 44 30 62 44 30 58 40 26 53 35 21 59 41 27 61 43 29 59 41 27 53 35 21 60 42 28 57 39 25 54 36 22 56 38 24 52 34 20 58 40 26 56 38 24 58 40 26 51 33 19 61 43 29 55 37 23 53 35 21 51 33 19 55 37 23 54 36 22 54 36 22 55 37 23 58 40 26 56 38 24 61 43 29 57 39 25 55 37 23 57 39 25 59 41 27 58 40 26 54 36 22 52 34 20 56 38 24 59 41 27 54 36 22 57 39 25 58 40 26 63 45 31 57 39 25 57 39 25 62 44 30 52 34 20 61 43 29 52 34 20 197 157 61 196 156 60 191 151 55 203 163 67 202 162 66 176 150 61 172 146 57 168 141 53 206 166 70 207 167 71 196 156 60 202 162 66 192 152 56 198 158 62 188 148 52 61 43 29 55 37 23 53 35 21 52 34 20 60 42 28 56 38 24 51 33 19 58 40 26 191 90 35 157 69 22 157 69 22 187 86 31 59 41 27 56 38 24 56 38 24 51 33 19 51 33 19 56 38 24 52 34 20 58 40 26 60 42 28 59 41 27 56 38 24 53 35 21 60 42 28 53 35 21 59 41 27 60 42 28 58 40 26 55 37 23 58 40 26 62 44 30 57 39 25 54 36 22 55 37 23 56 38 24 53 35 21 53 35 21 54 36 22 62 44 30 63 45 31 56 38 24 59 41 27 51 33 19 57 39 25 51 33 19 51 33 19 57 39 25 55 37 23 62 44 30
63 45 31 54 36 22 58 40 26 62 44 30 58 40 26 61 43 29 51 33 19 59 41 27 63 45 31 53 35 21 61 43 29 63 45 31 61 43 29 57 39 25 57 39 25 52 34 20 59 41 27 57 39 25 53 35 21 58 40 26 55 37 23 53 35 21 55 37 23 59 41 27 59 41 27 56 38 24 54 36 22 56 38 24 62 44 30 57 39 25 59 41 27 56 38 24 53 35 21 53 35 21 54 36 22 51 33 19 53 35 21 56 38 24 61 43 29 51 33 19 57 39 25 55 37 23 58 40 26 53 35 21 57 39 25 54 36 22 57 39 25 59 41 27 52 34 20 58 40 26 62 44 30 60 42 28 53 35 21 58 40 26 61 43 29 61 43 29 60 42 28 60 42 28 62 44 30 53 35 21 54 36 22 57 39 25 194 154 58 196 156 60 190 150 54 201 161 65 203 163 67 171 144 56 167 141 52 166 140 51 206 166 70 203 163 67 203 163 67 203 163 67 201 161 65 196 156 60 188 148 52 59 41 27 61 43 29 59 41 27 53 35 21 60 42 28 57 39 25 54 36 22 56 38 24 180 79 24 189 88 33 158 71 23 161 73 26 182 81 26 189 88 33 55 37 23 53 35 21 51 33 19 55 37 23 54 36 22 54 36 22 55 37 23 58 40 26 56 38 24 61 43 29 57 39 25 55 37 23 57 39 25 59 41 27 58 40 26 54 36 22 52 34 20 56 38 24 59 41 27 54 36 22 57 39 25 59 41 27 63 45 31 57 39 25 57 39 25 62 44 30 52 34 20 61 43 29 52 34 20 62 44 30 58 40 26 51 33 19 62 44 30 59 41 27 62 44 30 58 40 26 53 35 21
55 37 23 62 44 30 54 36 22 56 38 24 62 44 30 51 33 19 58 40 26 52 34 20 60 42 28 56 38 24 62 44 30 61 43 29 54 36 22 54 36 22 54 36 22 57 39 25 55 37 23 53 35 21 56 38 24 62 44 30 59 41 27 56 38 24 59 41 27 60 42 28 58 40 26 52 34 20 60 42 28 53 35 21 57 39 25 60 42 28 60 42 28 58 40 26 51 33 19 56 38 24 51 33 19 52 34 20 57 39 25 56 38 24 58 40 26 56 38 24 55 37 23 55 37 23 62 44 30 59 41 27 52 34 20 56 38 24 59 41 27 51 33 19 53 35 21 56 38 24 62 44 30 53 35 21 60 42 28 51 33 19 59 41 27 52 34 20 51 33 19 63 45 31 54 36 22 58 40 26 62 44 30 191 151 55 197 157 61 189 149 53 199 159 63 174 147 59 165 138 50 174 147 59 206 166 70 204 164 68 199 159 63 199 159 63 192 152 56 198 158 62 193 153 57 187 147 51 58 40 26 55 37 23 53 35 21 55 37 23 59 41 27 59 41 27 56 38 24 54 36 22 56 38 24 190 89 34 188 87 32 163 75 28 159 72 24 186 85 30 182 81 26 54 36 22 51 33 19 53 35 21 56 38 24 61 43 29 51 33 19 57 39 25 55 37 23 58 40 26 53 35 21 57 39 25 54 36 22 57 39 25 59 41 27 52 34 20 58 40 26 62 44 30 60 42 28 53 35 21 58 40 26 61 43 29 61 43 29 60 42 28 60 42 28 62 44 30 53 35 21 54 36 22 57 39 25 60 42 28 59 41 27 179 78 23 189 88 33 159 71 24 57 39 25 53 35 21 52 34 20 62 44 30
54 36 22 58 40 26 54 36 22 52 34 20 52 34 20 57 39 25 54 36 22 54 36 22 63 45 31 61 43 29 61 43 29 52 34 20 63 45 31 56 38 24 54 36 22 53 35 21 53 35 21 55 37 23 56 38 24 53 35 21 58 40 26 58 40 26 61 43 29 60 42 28 62 44 30 52 34 20 56 38 24 58 40 26 61 43 29 52 34 20 62 44 30 61 43 29 57 39 25 52 34 20 51 33 19 59 41 27 63 45 31 53 35 21 55 37 23 55 37 23 53 35 21 58 40 26 61 43 29 61 43 29 54 36 22 59 41 27 62 44 30 59 41 27 62 44 30 51 33 19 52 34 20 61 43 29 53 35 21 57 39 25 56 38 24 54 36 22 51 33 19 55 37 23 62 44 30 54 36 22 56 38 24 196 156 60 188 148 52 166 139 51 162 135 47 170 144 55 197 157 61 203 163 67 203 163 67 195 155 59 194 154 58 193 153 57 194 154 58 190 150 54 186 146 50 56 38 24 62 44 30 59 41 27 56 38 24 59 41 27 60 42 28 58 40 26 52 34 20 60 42 28 53 35 21 186 85 30 192 91 36 164 77 29 163 75 28 185 84 29 187 86 31 178 77 22 52 34 20 57 39 25 56 38 24 58 40 26 56 38 24 55 37 23 55 37 23 62 44 30 59 41 27 52 34 20 56 38 24 59 41 27 51 33 19 53 35 21 56 38 24 62 44 30 53 35 21 60 42 28 51 33 19 59 41 27 52 34 20 51 33 19 63 45 31 54 36 22 58 40 26 62 44 30 58 40 26 188 87 32 180 79 24 189 88 33 163 76 28 153 65 18 189 88 33 63 45 31 61 43 29 57 39 25
63 45 31 52 34 20 54 36 22 53 35 21 56 38 24 56 38 24 61 43 29 58 40 26 59 41 27 61 43 29 61 43 29 60 42 28 58 40 26 63 45 31 62 44 30 53 35 21 54 36 22 51 33 19 60 42 28 60 42 28 57 39 25 62 44 30 62 44 30 60 42 28 56 38 24 60 42 28 58 40 26 62 44 30 56 38 24 55 37 23 59 41 27 59 41 27 52 34 20 62 44 30 61 43 29 58 40 26 60 42 28 54 36 22 55 37 23 63 45 31 55 37 23 63 45 31 58 40 26 52 34 20 59 41 27 60 42 28 54 36 22 56 38 24 53 35 21 51 33 19 62 44 30 55 37 23 55 37 23 60 42 28 58 40 26 52 34 20 55 37 23 54 36 22 58 40 26 54 36 22 52 34 20 186 146 50 163 136 48 161 135 46 163 136 48 202 162 66 200 160 64 201 161 65 191 151 55 201 161 65 193 153 57 189 149 53 186 146 50 53 35 21 55 37 23 56 38 24 53 35 21 58 40 26 58 40 26 61 43 29 60 42 28 62 44 30 52 34 20 56 38 24 58 40 26 190 89 34 185 84 29 197 96 41 167 79 32 192 91 36 184 83 28 180 79 24 59 41 27 63 45 31 54 36 22 55 37 23 55 37 23 53 35 21 58 40 26 61 43 29 61 43 29 54 36 22 59 41 27 62 44 30 59 41 27 62 44 30 51 33 19 52 34 20 61 43 29 53 35 21 57 39 25 56 38 24 54 36 22 51 33 19 55 37 23 62 44 30 54 36 22 56 38 24 62 44 30 181 80 25 189 88 33 185 84 29 162 75 27 188 87 32 192 91 36 189 88 33 54 36 22 54 36 22
62 44 30 56 38 24 54 36 22 55 37 23 57 39 25 55 37 23 52 34 20 58 40 26 61 43 29 59 41 27 57 39 25 60 42 28 60 42 28 60 42 28 53 35 21 53 35 21 58 40 26 54 36 22 61 43 29 56 38 24 63 45 31 52 34 20 58 40 26 60 42 28 52 34 20 59 41 27 62 44 30 59 41 27 59 41 27 57 39 25 61 43 29 53 35 21 61 43 29 62 44 30 52 34 20 55 37 23 53 35 21 55 37 23 60 42 28 52 34 20 53 35 21 55 37 23 61 43 29 59 41 27 59 41 27 61 43 29 63 45 31 54 36 22 62 44 30 62 44 30 57 39 25 53 35 21 52 34 20 62 44 30 53 35 21 56 38 24 58 40 26 63 45 31 52 34 20 54 36 22 53 35 21 159 133 44 161 134 46 197 157 61 195 155 59 197 157 61 198 158 62 198 158 62 196 156 60 193 153 57 196 156 60 62 44 30 53 35 21 54 36 22 51 33 19 60 42 28 60 42 28 57 39 25 62 44 30 62 44 30 60 42 28 56 38 24 60 42 28 58 40 26 62 44 30 185 84 29 188 87 32 195 94 39 165 78 30 188 87 32 196 95 40 191 90 35 57 39 25 60 42 28 54 36 22 55 37 23 63 45 31 150 46 29 159 55 38 155 51 34 148 44 27 125 34 25 60 42 28 54 36 22 56 38 24 53 35 21 51 33 19 62 44 30 55 37 23 55 37 23 60 42 28 58 40 26 52 34 20 55 37 23 54 36 22 59 41 27 54 36 22 52 34 20 181 80 25 188 87 32 187 86 31 189 88 33 155 68 20 194 93 38 192 91 36 180 79 24 63 45 31 56 38 24
58 40 26 55 37 23 54 36 22 59 41 27 61 43 29 59 41 27 57 39 25 61 43 29 58 40 26 54 36 22 62 44 30 56 38 24 57 39 25 53 35 21 52 34 20 53 35 21 61 43 29 51 33 19 55 37 23 63 45 31 54 36 22 57 39 25 53 35 21 56 38 24 60 42 28 63 45 31 63 45 31 62 44 30 56 38 24 51 33 19 54 36 22 61 43 29 52 34 20 58 40 26 62 44 30 51 33 19 55 37 23 58 40 26 62 44 30 55 37 23 52 34 20 59 41 27 59 41 27 58 40 26 56 38 24 58 40 26 56 38 24 61 43 29 63 45 31 59 41 27 51 33 19 56 38 24 54 36 22 53 35 21 57 39 25 61 43 29 55 37 23 62 44 30 56 38 24 54 36 22 55 37 23 57 39 25 189 149 53 187 147 51 193 153 57 196 156 60 194 154 58 191 151 55 60 42 28 60 42 28 60 42 28 53 35 21 53 35 21 58 40 26 54 36 22 61 43 29 56 38 24 63 45 31 52 34 20 58 40 26 60 42 28 52 34 20 59 41 27 62 44 30 59 41 27 188 87 32 191 90 35 197 96 41 160 73 25 198 97 42 197 96 41 183 82 27 55 37 23 53 35 21 55 37 23 155 51 34 149 45 28 151 47 30 154 50 33 160 56 39 128 37 28 126 36 26 155 51 34 63 45 31 54 36 22 62 44 30 62 44 30 57 39 25 53 35 21 52 34 20 62 44 30 53 35 21 56 38 24 58 40 26 63 45 31 52 34 20 54 36 22 181 80 25 187 86 31 189 88 33 196 95 40 164 76 29 165 77 30 195 94 39 194 93 38 189 88 33 58 40 26 63 45 31
57 39 25 54 36 22 60 42 28 55 37 23 53 35 21 55 37 23 62 44 30 56 38 24 52 34 20 52 34 20 53 35 21 54 36 22 53 35 21 63 45 31 61 43 29 56 38 24 53 35 21 54 36 22 63 45 31 55 37 23 55 37 23 57 39 25 60 42 28 61 43 29 51 33 19 54 36 22 54 36 22 54 36 22 53 35 21 56 38 24 60 42 28 53 35 21 52 34 20 56 38 24 62 44 30 56 38 24 57 39 25 59 41 27 57 39 25 61 43 29 56 38 24 59 41 27 57 39 25 51 33 19 53 35 21 58 40 26 60 42 28 63 45 31 60 42 28 62 44 30 61 43 29 58 40 26 54 36 22 57 39 25 52 34 20 58 40 26 61 43 29 58 40 26 55 37 23 54 36 22 59 41 27 61 43 29 59 41 27 57 39 25 61 43 29 58 40 26 54 36 22 62 44 30 56 38 24 57 39 25 53 35 21 52 34 20 53 35 21 61 43 29 63 45 31 55 37 23 63 45 31 54 36 22 57 39 25 53 35 21 56 38 24 60 42 28 63 45 31 63 45 31 62 44 30 185 84 29 185 84 29 191 90 35 168 81 33 159 72 24 194 93 38 194 93 38 179 78 23 55 37 23 153 49 32 159 55 38 154 50 33 153 49 32 160 56 39 130 40 30 128 38 28 154 50 33 153 49 32 56 38 24 61 43 29 63 45 31 59 41 27 52 34 20 56 38 24 54 36 22 53 35 21 56 38 24 61 43 29 55 37 23 63 45 31 56 38 24 54 36 22 185 84 29 190 89 34 190 89 34 189 88 33 165 78 30 168 80 33 194 93 38 190 89 34 189 88 33 60 42 28 60 42 28
54 36 22 62 44 30 61 43 29 59 41 27 54 36 22 62 44 30 55 37 23 62 44 30 54 36 22 61 43 29 51 33 19 53 35 21 62 44 30 57 39 25 52 34 20 55 37 23 52 34 20 63 45 31 56 38 24 53 35 21 62 44 30 53 35 21 62 44 30 51 33 19 57 39 25 58 40 26 52 34 20 56 38 24 57 39 25 60 42 28 55 37 23 58 40 26 62 44 30 61 43 29 56 38 24 55 37 23 57 39 25 59 41 27 57 39 25 53 35 21 59 41 27 56 38 24 59 41 27 60 42 28 60 42 28 59 41 27 63 45 31 62 44 30 60 42 28 54 36 22 62 44 30 55 37 23 57 39 25 55 37 23 62 44 30 59 41 27 61 43 29 56 38 24 54 36 22 60 42 28 55 37 23 53 35 21 55 37 23 62 44 30 56 38 24 52 34 20 52 34 20 53 35 21 54 36 22 53 35 21 63 45 31 61 43 29 56 38 24 53 35 21 53 35 21 63 45 31 55 37 23 55 37 23 57 39 25 60 42 28 61 43 29 51 33 19 54 36 22 54 36 22 54 36 22 183 82 27 189 88 33 197 96 41 161 74 26 160 73 25 192 91 36 196 95 40 185 84 29 152 48 31 157 53 36 157 53 36 163 59 42 159 55 38 132 42 32 129 39 29 152 48 31 152 48 31 154 50 33 60 42 28 63 45 31 60 42 28 62 44 30 61 43 29 58 40 26 54 36 22 57 39 25 52 34 20 58 40 26 61 43 29 58 40 26 55 37 23 182 81 26 190 89 34 196 95 40 195 94 39 194 93 38 169 82 34 195 94 39 190 89 34 194 93 38 186 85 30 57 39 25 53 35 21
63 45 31 54 36 22 53 35 21 52 34 20 51 33 19 53 35 21 60 42 28 55 37 23 57 39 25 60 42 28 52 34 20 61 43 29 52 34 20 59 41 27 56 38 24 63 45 31 63 45 31 58 40 26 51 33 19 55 37 23 57 39 25 63 45 31 52 34 20 60 42 28 61 43 29 62 44 30 58 40 26 59 41 27 59 41 27 56 38 24 52 34 20 56 38 24 59 41 27 57 39 25 54 36 22 55 37 23 60 42 28 53 35 21 62 44 30 58 40 26 55 37 23 54 36 22 55 37 23 61 43 29 57 39 25 63 45 31 63 45 31 58 40 26 59 41 27 55 37 23 56 38 24 58 40 26 58 40 26 53 35 21 57 39 25 51 33 19 58 40 26 54 36 22 61 43 29 61 43 29 59 41 27 54 36 22 62 44 30 55 37 23 62 44 30 53 35 21 61 43 29 51 33 19 53 35 21 62 44 30 57 39 25 52 34 20 54 36 22 52 34 20 63 45 31 56 38 24 53 35 21 62 44 30 53 35 21 62 44 30 51 33 19 57 39 25 58 40 26 52 34 20 56 38 24 186 85 30 193 92 37 191 90 35 166 79 31 170 83 35 198 97 42 190 89 34 185 84 29 154 50 33 159 55 38 159 55 38 157 53 36 163 59 42 130 40 30 132 41 32 161 57 40 159 55 38 155 51 34 63 45 31 62 44 30 60 42 28 54 36 22 62 44 30 55 37 23 57 39 25 55 37 23 62 44 30 59 41 27 61 43 29 56 38 24 54 36 22 190 89 34 188 87 32 189 88 33 193 92 37 170 83 35 164 77 29 189 88 33 187 86 31 186 85 30 184 83 28 53 35 21 63 45 31
60 42 28 58 40 26 63 45 31 52 34 20 53 35 21 58 40 26 57 39 25 53 35 21 56 38 24 51 33 19 60 42 28 60 42 28 55 37 23 58 40 26 61 43 29 62 44 30 59 41 27 62 44 30 60 42 28 62 44 30 52 34 20 52 34 20 62 44 30 52 34 20 60 42 28 61 43 29 61 43 29 59 41 27 57 39 25 57 39 25 62 44 30 58 40 26 57 39 25 53 35 21 53 35 21 62 44 30 61 43 29 58 40 26 58 40 26 54 36 22 62 44 30 63 45 31 51 33 19 56 38 24 62 44 30 52 34 20 56 38 24 52 34 20 60 42 28 57 39 25 58 40 26 61 43 29 57 39 25 55 37 23 54 36 22 60 42 28 53 35 21 63 45 31 54 36 22 53 35 21 52 34 20 51 33 19 53 35 21 60 42 28 55 37 23 57 39 25 60 42 28 52 34 20 61 43 29 52 34 20 59 41 27 56 38 24 62 44 30 63 45 31 58 40 26 51 33 19 55 37 23 57 39 25 63 45 31 52 34 20 60 42 28 61 43 29 62 44 30 58 40 26 59 41 27 188 87 32 189 88 33 188 87 32 164 77 29 168 80 33 194 93 38 189 88 33 185 84 29 160 56 39 156 52 35 166 62 45 163 59 42 131 40 31 129 39 29 159 55 38 163 59 42 156 52 35 158 54 37 51 33 19 58 40 26 59 41 27 55 37 23 56 38 24 57 39 25 58 40 26 53 35 21 57 39 25 51 33 19 58 40 26 54 36 22 61 43 29 192 91 36 193 92 37 191 90 35 201 100 45 163 76 28 170 83 35 191 90 35 197 96 41 184 83 28 181 80 25 62 44 30 57 39 25
52 34 20 61 43 29 53 35 21 52 34 20 56 38 24 59 41 27 61 43 29 53 35 21 63 45 31 59 41 27 57 39 25 63 45 31 60 42 28 59 41 27 61 43 29 59 41 27 60 42 28 54 36 22 56 38 24 53 35 21 52 34 20 52 34 20 55 37 23 58 40 26 52 34 20 51 33 19 59 41 27 59 41 27 62 44 30 55 37 23 56 38 24 58 40 26 52 34 20 63 45 31 52 34 20 57 39 25 55 37 23 57 39 25 54 36 22 59 41 27 59 41 27 53 35 21 54 36 22 62 44 30 53 35 21 55 37 23 57 39 25 53 35 21 58 40 26 58 40 26 51 33 19 60 42 28 53 35 21 57 39 25 62 44 30 53 35 21 52 34 20 60 42 28 58 40 26 63 45 31 52 34 20 53 35 21 58 40 26 57 39 25 148 44 27 152 48 31 117 26 17 60 42 28 60 42 28 55 37 23 58 40 26 61 43 29 62 44 30 59 41 27 62 44 30 61 43 29 62 44 30 52 34 20 52 34 20 62 44 30 52 34 20 60 42 28 61 43 29 61 43 29 59 41 27 185 84 29 190 89 34 198 97 42 196 95 40 166 79 31 191 90 35 188 87 32 194 93 38 163 59 42 162 58 41 163 59 42 130 40 30 138 48 38 168 64 47 155 51 34 157 53 36 160 56 39 146 42 25 57 39 25 52 34 20 60 42 28 57 39 25 58 40 26 61 43 29 57 39 25 55 37 23 54 36 22 60 42 28 53 35 21 63 45 31 182 81 26 185 84 29 187 86 31 188 87 32 192 91 36 168 81 33 194 93 38 195 94 39 195 94 39 184 83 28 189 88 33 52 34 20 59 41 27
59 41 27 54 36 22 51 33 19 54 36 22 61 43 29 57 39 25 61 43 29 62 44 30 59 41 27 53 35 21 59 41 27 62 44 30 57 39 25 60 42 28 60 42 28 58 40 26 60 42 28 61 43 29 54 36 22 52 34 20 54 36 22 58 40 26 56 38 24 55 37 23 54 36 22 59 41 27 60 42 28 55 37 23 61 43 29 54 36 22 59 41 27 52 34 20 61 43 29 54 36 22 53 35 21 63 45 31 56 38 24 53 35 21 55 37 23 54 36 22 55 37 23 52 34 20 61 43 29 54 36 22 53 35 21 63 45 31 58 40 26 60 42 28 58 40 26 53 35 21 63 45 31 63 45 31 60 42 28 53 35 21 53 35 21 53 35 21 53 35 21 52 34 20 61 43 29 53 35 21 52 34 20 56 38 24 59 41 27 157 53 36 150 46 29 130 40 30 126 36 26 152 48 31 62 44 30 60 42 28 59 41 27 61 43 29 59 41 27 60 42 28 54 36 22 56 38 24 53 35 21 52 34 20 52 34 20 55 37 23 58 40 26 52 34 20 51 33 19 59 41 27 59 41 27 189 88 33 188 87 32 192 91 36 197 96 41 161 74 26 201 100 45 188 87 32 157 53 36 157 53 36 162 58 41 159 55 38 135 44 35 164 60 43 158 54 37 156 52 35 162 58 41 150 46 29 55 37 23 57 39 25 53 35 21 58 40 26 58 40 26 51 33 19 60 42 28 53 35 21 57 39 25 62 44 30 53 35 21 52 34 20 60 42 28 187 86 31 195 94 39 187 86 31 190 89 34 166 79 31 166 79 31 192 91 36 193 92 37 186 85 30 191 90 35 60 42 28 55 37 23 58 40 26
55 37 23 51 33 19 52 34 20 63 45 31 52 34 20 56 38 24 61 43 29 58 40 26 62 44 30 55 37 23 52 34 20 55 37 23 59 41 27 61 43 29 57 39 25 53 35 21 55 37 23 56 38 24 51 33 19 56 38 24 61 43 29 54 36 22 59 41 27 56 38 24 59 41 27 61 43 29 60 42 28 54 36 22 53 35 21 60 42 28 51 33 19 59 41 27 56 38 24 61 43 29 59 41 27 56 38 24 53 35 21 52 34 20 63 45 31 57 39 25 62 44 30 60 42 28 55 37 23 52 34 20 57 39 25 52 34 20 61 43 29 57 39 25 55 37 23 53 35 21 61 43 29 63 45 31 55 37 23 53 35 21 54 36 22 58 40 26 57 39 25 59 41 27 54 36 22 51 33 19 54 36 22 61 43 29 153 49 32 159 55 38 161 57 40 128 38 28 122 31 22 155 51 34 156 52 35 57 39 25 60 42 28 60 42 28 58 40 26 60 42 28 61 43 29 54 36 22 51 33 19 54 36 22 58 40 26 56 38 24 55 37 23 54 36 22 59 41 27 60 42 28 55 37 23 61 43 29 186 85 30 195 94 39 190 89 34 170 82 35 192 91 36 189 88 33 164 60 43 160 56 39 158 54 37 131 40 31 130 40 30 160 56 39 156 52 35 162 58 41 152 48 31 148 44 27 63 45 31 58 40 26 60 42 28 58 40 26 53 35 21 63 45 31 63 45 31 60 42 28 52 34 20 53 35 21 53 35 21 53 35 21 52 34 20 190 89 34 186 85 30 187 86 31 193 92 37 167 80 32 170 82 35 190 89 34 199 98 43 193 92 37 186 85 30 62 44 30 60 42 28 59 41 27
51 33 19 51 33 19 53 35 21 60 42 28 52 34 20 60 42 28 58 40 26 59 41 27 51 33 19 54 36 22 52 34 20 58 40 26 61 43 29 55 37 23 60 42 28 60 42 28 57 39 25 63 45 31 58 40 26 51 33 19 52 34 20 62 44 30 59 41 27 60 42 28 62 44 30 53 35 21 59 41 27 63 45 31 62 44 30 51 33 19 58 40 26 58 40 26 56 38 24 54 36 22 55 37 23 52 34 20 60 42 28 59 41 27 59 41 27 60 42 28 58 40 26 55 37 23 62 44 30 62 44 30 57 39 25 62 44 30 57 39 25 57 39 25 56 38 24 59 41 27 54 36 22 58 40 26 54 36 22 55 37 23 62 44 30 62 44 30 58 40 26 55 37 23 51 33 19 52 34 20 63 45 31 147 43 26 154 50 33 161 57 40 159 55 38 133 42 33 155 51 34 150 46 29 150 46 29 59 41 27 61 43 29 57 39 25 53 35 21 55 37 23 56 38 24 51 33 19 56 38 24 61 43 29 54 36 22 59 41 27 56 38 24 59 41 27 61 43 29 60 42 28 54 36 22 53 35 21 191 90 35 186 85 30 197 96 41 165 77 30 169 81 34 195 94 39 157 53 36 156 52 35 126 36 26 138 47 38 162 58 41 166 62 45 162 58 41 154 50 33 148 44 27 57 39 25 52 34 20 61 43 29 57 39 25 55 37 23 53 35 21 61 43 29 63 45 31 55 37 23 53 35 21 54 36 22 58 40 26 57 39 25 59 41 27 183 82 27 184 83 28 189 88 33 198 97 42 165 77 30 198 97 42 199 98 43 194 93 38 185 84 29 186 85 30 62 44 30 57 39 25 60 42 28
62 44 30 54 36 22 55 37 23 59 41 27 59 41 27 58 40 26 56 38 24 60 42 28 56 38 24 62 44 30 56 38 24 62 44 30 54 36 22 54 36 22 54 36 22 59 41 27 62 44 30 59 41 27 53 35 21 62 44 30 54 36 22 62 44 30 60 42 28 63 45 31 57 39 25 51 33 19 61 43 29 51 33 19 51 33 19 56 38 24 59 41 27 51 33 19 62 44 30 54 36 22 52 34 20 57 39 25 55 37 23 61 43 29 57 39 25 57 39 25 56 38 24 61 43 29 57 39 25 51 33 19 52 34 20 57 39 25 59 41 27 58 40 26 57 39 25 58 40 26 61 43 29 54 36 22 56 38 24 55 37 23 55 37 23 56 38 24 56 38 24 51 33 19 51 33 19 53 35 21 59 41 27 149 45 28 160 56 39 160 56 39 131 41 31 123 33 23 155 51 34 151 47 30 154 50 33 61 43 29 55 37 23 60 42 28 60 42 28 57 39 25 63 45 31 58 40 26 51 33 19 52 34 20 62 44 30 59 41 27 60 42 28 62 44 30 53 35 21 59 41 27 63 45 31 62 44 30 181 80 25 192 91 36 195 94 39 164 77 29 163 75 28 191 90 35 154 50 33 134 43 34 133 42 33 163 59 42 163 59 42 161 57 40 155 51 34 160 56 39 157 53 36 57 39 25 62 44 30 57 39 25 57 39 25 56 38 24 59 41 27 54 36 22 58 40 26 53 35 21 55 37 23 62 44 30 62 44 30 58 40 26 55 37 23 181 80 25 185 84 29 198 97 42 159 71 24 163 76 28 198 97 42 194 93 38 195 94 39 185 84 29 52 34 20 55 37 23 59 41 27 61 43 29
56 38 24 61 43 29 55 37 23 58 40 26 58 40 26 53 35 21 56 38 24 58 40 26 59 41 27 54 36 22 62 44 30 53 35 21 60 42 28 60 42 28 60 42 28 62 44 30 60 42 28 56 38 24 60 42 28 57 39 25 54 36 22 61 43 29 52 34 20 61 43 29 56 38 24 59 41 27 53 35 21 51 33 19 55 37 23 61 43 29 58 40 26 57 39 25 53 35 21 52 34 20 55 37 23 52 34 20 63 45 31 55 37 23 55 37 23 56 38 24 59 41 27 51 33 19 57 39 25 53 35 21 56 38 24 60 42 28 61 43 29 55 37 23 62 44 30 52 34 20 54 36 22 57 39 25 59 41 27 60 42 28 54 36 22 58 40 26 51 33 19 62 44 30 54 36 22 55 37 23 155 51 34 158 54 37 159 55 38 159 55 38 133 43 33 129 38 29 164 60 43 156 52 35 158 54 37 54 36 22 54 36 22 54 36 22 59 41 27 62 44 30 59 41 27 53 35 21 62 44 30 54 36 22 62 44 30 60 42 28 63 45 31 57 39 25 51 33 19 61 43 29 51 33 19 51 33 19 185 84 29 193 92 37 187 86 31 170 82 35 162 74 27 189 88 33 158 54 37 128 37 28 134 43 34 160 56 39 159 55 38 156 52 35 159 55 38 151 47 30 51 33 19 52 34 20 57 39 25 59 41 27 58 40 26 57 39 25 58 40 26 61 43 29 54 36 22 56 38 24 55 37 23 55 37 23 56 38 24 56 38 24 51 33 19 192 91 36 185 84 29 194 93 38 158 70 23 166 79 31 193 92 37 193 92 37 182 81 26 182 81 26 52 34 20 58 40 26 61 43 29 56 38 24
56 38 24 62 44 30 57 39 25 58 40 26 51 33 19 53 35 21 60 42 28 56 38 24 52 34 20 62 44 30 51 33 19 55 37 23 55 37 23 62 44 30 61 43 29 61 43 29 58 40 26 58 40 26 61 43 29 57 39 25 61 43 29 52 34 20 53 35 21 60 42 28 57 39 25 54 36 22 52 34 20 54 36 22 63 45 31 53 35 21 52 34 20 52 34 20 52 34 20 52 34 20 61 43 29 53 35 21 52 34 20 53 35 21 56 38 24 58 40 26 58 40 26 52 34 20 55 37 23 55 37 23 61 43 29 63 45 31 53 35 21 53 35 21 55 37 23 55 37 23 58 40 26 51 33 19 52 34 20 52 34 20 60 42 28 52 34 20 61 43 29 56 38 24 61 43 29 55 37 23 156 52 35 158 54 37 156 52 35 160 56 39 132 41 32 163 59 42 156 52 35 162 58 41 149 45 28 60 42 28 60 42 28 60 42 28 62 44 30 60 42 28 56 38 24 60 42 28 58 40 26 54 36 22 60 42 28 52 34 20 61 43 29 56 38 24 59 41 27 53 35 21 51 33 19 55 37 23 189 88 33 190 89 34 193 92 37 160 73 25 159 72 24 191 90 35 186 85 30 134 43 34 156 52 35 156 52 35 155 51 34 157 53 36 146 42 25 57 39 25 53 35 21 56 38 24 60 42 28 61 43 29 55 37 23 62 44 30 52 34 20 54 36 22 57 39 25 59 41 27 60 42 28 54 36 22 58 40 26 51 33 19 62 44 30 183 82 27 186 85 30 193 92 37 164 76 29 192 91 36 190 89 34 191 90 35 185 84 29 62 44 30 56 38 24 62 44 30 54 36 22 54 36 22
56 38 24 56 38 24 58 40 26 61 43 29 62 44 30 62 44 30 53 35 21 62 44 30 62 44 30 62 44 30 62 44 30 61 43 29 51 33 19 60 42 28 62 44 30 59 41 27 56 38 24 54 36 22 61 43 29 62 44 30 53 35 21 57 39 25 52 34 20 55 37 23 56 38 24 53 35 21 53 35 21 52 34 20 59 41 27 59 41 27 62 44 30 52 34 20 62 44 30 58 40 26 55 37 23 61 43 29 63 45 31 56 38 24 57 39 25 52 34 20 58 40 26 57 39 25 54 36 22 62 44 30 53 35 21 51 33 19 58 40 26 59 41 27 55 37 23 59 41 27 55 37 23 56 38 24 62 44 30 61 43 29 52 34 20 60 42 28 58 40 26 56 38 24 62 44 30 152 48 31 157 53 36 153 49 32 157 53 36 164 60 43 131 41 31 156 52 35 165 61 44 151 47 30 151 47 30 55 37 23 62 44 30 61 43 29 61 43 29 58 40 26 58 40 26 61 43 29 57 39 25 61 43 29 52 34 20 53 35 21 60 42 28 57 39 25 54 36 22 52 34 20 54 36 22 63 45 31 53 35 21 183 82 27 186 85 30 188 87 32 159 72 24 197 96 41 186 85 30 151 47 30 152 48 31 154 50 33 155 51 34 152 48 31 52 34 20 55 37 23 55 37 23 61 43 29 63 45 31 53 35 21 53 35 21 55 37 23 55 37 23 58 40 26 51 33 19 52 34 20 52 34 20 60 42 28 52 34 20 61 43 29 56 38 24 189 88 33 185 84 29 190 89 34 160 73 25 186 85 30 188 87 32 187 86 31 59 41 27 54 36 22 62 44 30 53 35 21 60 42 28 60 42 28
54 36 22 58 40 26 59 41 27 60 42 28 52 34 20 62 44 30 59 41 27 62 44 30 61 43 29 57 39 25 56 38 24 53 35 21 59 41 27 63 45 31 61 43 29 55 37 23 58 40 26 53 35 21 62 44 30 54 36 22 60 42 28 56 38 24 54 36 22 58 40 26 54 36 22 53 35 21 54 36 22 54 36 22 54 36 22 61 43 29 52 34 20 60 42 28 55 37 23 57 39 25 58 40 26 61 43 29 56 38 24 56 38 24 59 41 27 53 35 21 58 40 26 53 35 21 62 44 30 54 36 22 61 43 29 62 44 30 63 45 31 56 38 24 59 41 27 59 41 27 60 42 28 61 43 29 51 33 19 53 35 21 59 41 27 59 41 27 63 45 31 56 38 24 56 38 24 154 50 33 161 57 40 165 61 44 166 62 45 129 38 29 137 47 37 167 63 46 165 61 44 162 58 41 157 53 36 51 33 19 60 42 28 62 44 30 59 41 27 56 38 24 54 36 22 61 43 29 62 44 30 53 35 21 57 39 25 52 34 20 56 38 24 56 38 24 53 35 21 53 35 21 52 34 20 59 41 27 59 41 27 192 91 36 185 84 29 198 97 42 164 77 29 190 89 34 194 93 38 160 56 39 152 48 31 152 48 31 52 34 20 58 40 26 56 38 24 54 36 22 62 44 30 53 35 21 51 33 19 58 40 26 59 41 27 55 37 23 59 41 27 55 37 23 56 38 24 63 45 31 61 43 29 52 34 20 60 42 28 58 40 26 56 38 24 62 44 30 186 85 30 158 70 23 152 64 17 184 83 28 189 88 33 183 82 27 52 34 20 62 44 30 51 33 19 55 37 23 55 37 23 62 44 30
58 40 26 57 39 25 57 39 25 53 35 21 59 41 27 56 38 24 62 44 30 60 42 28 52 34 20 51 33 19 55 37 23 58 40 26 63 45 31 63 45 31 53 35 21 63 45 31 57 39 25 51 33 19 54 36 22 52 34 20 60 42 28 52 34 20 60 42 28 55 37 23 52 34 20 56 38 24 60 42 28 60 42 28 60 42 28 52 34 20 58 40 26 52 34 20 58 40 26 54 36 22 58 40 26 56 38 24 55 37 23 54 36 22 60 42 28 60 42 28 52 34 20 63 45 31 56 38 24 60 42 28 54 36 22 55 37 23 57 39 25 60 42 28 62 44 30 52 34 20 59 41 27 53 35 21 54 36 22 58 40 26 61 43 29 57 39 25 63 45 31 54 36 22 58 40 26 157 53 36 161 57 40 155 51 34 167 63 46 135 45 35 138 47 38 166 62 45 159 55 38 156 52 35 149 45 28 59 41 27 63 45 31 61 43 29 55 37 23 58 40 26 53 35 21 62 44 30 54 36 22 60 42 28 56 38 24 54 36 22 58 40 26 54 36 22 52 34 20 54 36 22 54 36 22 54 36 22 61 43 29 181 80 25 192 91 36 190 89 34 162 75 27 193 92 37 193 92 37 185 84 29 56 38 24 59 41 27 53 35 21 58 40 26 53 35 21 62 44 30 54 36 22 62 44 30 62 44 30 63 45 31 56 38 24 59 41 27 59 41 27 60 42 28 61 43 29 51 33 19 53 35 21 59 41 27 59 41 27 62 44 30 56 38 24 56 38 24 58 40 26 159 72 24 191 90 35 190 89 34 53 35 21 62 44 30 62 44 30 62 44 30 62 44 30 61 43 29 51 33 19 60 42 28
56 38 24 55 37 23 55 37 23 55 37 23 54 36 22 62 44 30 59 41 27 60 42 28 58 40 26 57 39 25 56 38 24 63 45 31 52 34 20 63 45 31 55 37 23 61 43 29 52 34 20 55 37 23 55 37 23 52 34 20 62 44 30 63 45 31 56 38 24 51 33 19 57 39 25 54 36 22 54 36 22 58 40 26 52 34 20 56 38 24 62 44 30 60 42 28 51 33 19 55 37 23 56 38 24 54 36 22 62 44 30 55 37 23 62 44 30 51 33 19 63 45 31 57 39 25 58 40 26 59 41 27 59 41 27 58 40 26 60 42 28 53 35 21 56 38 24 57 39 25 56 38 24 55 37 23 58 40 26 62 44 30 63 45 31 57 39 25 53 35 21 58 40 26 152 48 31 156 52 35 155 51 34 163 59 42 162 58 41 138 47 38 166 62 45 156 52 35 153 49 32 154 50 33 152 48 31 63 45 31 63 45 31 53 35 21 63 45 31 57 39 25 51 33 19 54 36 22 52 34 20 60 42 28 52 34 20 60 42 28 55 37 23 52 34 20 56 38 24 60 42 28 60 42 28 60 42 28 52 34 20 185 84 29 183 82 27 192 91 36 159 72 24 162 75 27 188 87 32 183 82 27 55 37 23 60 42 28 60 42 28 52 34 20 63 45 31 56 38 24 60 42 28 54 36 22 55 37 23 57 39 25 60 42 28 62 44 30 52 34 20 59 41 27 53 35 21 54 36 22 58 40 26 61 43 29 57 39 25 63 45 31 55 37 23 58 40 26 59 41 27 60 42 28 51 33 19 62 44 30 59 41 27 62 44 30 61 43 29 57 39 25 56 38 24 53 35 21 59 41 27 63 45 31
52 34 20 57 39 25 52 34 20 62 44 30 61 43 29 58 40 26 55 37 23 54 36 22 58 40 26 55 37 23 63 45 31 53 35 21 61 43 29 60 42 28 54 36 22 53 35 21 55 37 23 58 40 26 55 37 23 60 42 28 53 35 21 58 40 26 63 45 31 58 40 26 60 42 28 60 42 28 57 39 25 53 35 21 55 37 23 59 41 27 62 44 30 59 41 27 52 34 20 55 37 23 53 35 21 57 39 25 62 44 30 51 33 19 62 44 30 63 45 31 59 41 27 56 38 24 52 34 20 52 34 20 59 41 27 61 43 29 56 38 24 60 42 28 55 37 23 58 40 26 57 39 25 57 39 25 52 34 20 57 39 25 51 33 19 52 34 20 59 41 27 56 38 24 150 46 29 155 51 34 158 54 37 158 54 37 137 47 37 135 44 35 165 61 44 162 58 41 158 54 37 154 50 33 63 45 31 52 34 20 51 33 19 55 37 23 61 43 29 52 34 20 55 37 23 55 37 23 52 34 20 62 44 30 63 45 31 56 38 24 51 33 19 57 39 25 54 36 22 54 36 22 58 40 26 52 34 20 56 38 24 62 44 30 190 89 34 195 94 39 159 71 24 159 71 24 185 84 29 190 89 34 55 37 23 62 44 30 51 33 19 63 45 31 58 40 26 58 40 26 59 41 27 59 41 27 58 40 26 60 42 28 53 35 21 56 38 24 57 39 25 56 38 24 55 37 23 58 40 26 62 44 30 63 45 31 57 39 25 53 35 21 58 40 26 57 39 25 57 39 25 53 35 21 59 41 27 57 39 25 62 44 30 60 42 28 52 34 20 51 33 19 55 37 23 58 40 26 63 45 31 63 45 31
59 41 27 60 42 28 59 41 27 61 43 29 57 39 25 51 33 19 61 43 29 60 42 28 53 35 21 62 44 30 55 37 23 60 42 28 53 35 21 59 41 27 54 36 22 55 37 23 60 42 28 59 41 27 58 40 26 56 38 24 60 42 28 63 45 31 60 42 28 53 35 21 54 36 22 55 37 23 54 36 22 54 36 22 57 39 25 52 34 20 56 38 24 61 43 29 170 109 21 197 122 27 53 35 21 57 39 25 53 35 21 60 42 28 63 45 31 60 42 28 54 36 22 57 39 25 56 38 24 60 42 28 61 43 29 59 41 27 63 45 31 53 35 21 61 43 29 59 41 27 57 39 25 53 35 21 62 44 30 57 39 25 157 53 36 154 50 33 149 45 28 147 43 26 153 49 32 151 47 30 165 61 44 166 62 45 134 43 34 131 40 31 158 54 37 161 57 40 155 51 34 160 56 39 53 35 21 61 43 29 60 42 28 54 36 22 53 35 21 55 37 23 58 40 26 55 37 23 60 42 28 53 35 21 58 40 26 63 45 31 58 40 26 60 42 28 60 42 28 57 39 25 53 35 21 55 37 23 59 41 27 62 44 30 187 86 31 183 82 27 158 70 23 155 67 20 188 87 32 189 88 33 51 33 19 62 44 30 63 45 31 59 41 27 56 38 24 52 34 20 52 34 20 59 41 27 61 43 29 56 38 24 60 42 28 55 37 23 58 40 26 57 39 25 57 39 25 52 34 20 57 39 25 51 33 19 52 34 20 59 41 27 56 38 24 55 37 23 55 37 23 55 37 23 54 36 22 62 44 30 59 41 27 60 42 28 58 40 26 56 38 24 56 38 24 63 45 31 52 34 20 51 33 19
56 38 24 55 37 23 60 42 28 57 39 25 59 41 27 57 39 25 62 44 30 52 34 20 62 44 30 56 38 24 58 40 26 59 41 27 52 34 20 56 38 24 55 37 23 63 45 31 62 44 30 56 38 24 59 41 27 62 44 30 63 45 31 61 43 29 58 40 26 60 42 28 54 36 22 54 36 22 53 35 21 55 37 23 54 36 22 52 34 20 57 39 25 54 36 22 180 118 31 179 118 30 200 125 30 55 37 23 58 40 26 62 44 30 61 43 29 53 35 21 62 44 30 61 43 29 61 43 29 61 43 29 62 44 30 54 36 22 63 45 31 51 33 19 61 43 29 57 39 25 54 36 22 56 38 24 146 42 25 157 53 36 157 53 36 151 47 30 160 56 39 157 53 36 156 52 35 159 55 38 163 59 42 162 58 41 126 36 26 166 62 45 164 60 43 155 51 34 161 57 40 150 46 29 60 42 28 53 35 21 59 41 27 54 36 22 55 37 23 60 42 28 59 41 27 58 40 26 56 38 24 60 42 28 63 45 31 60 42 28 53 35 21 54 36 22 55 37 23 54 36 22 54 36 22 57 39 25 52 34 20 56 38 24 61 43 29 184 83 28 153 65 18 154 67 19 187 86 31 53 35 21 60 42 28 63 45 31 60 42 28 54 36 22 57 39 25 56 38 24 60 42 28 61 43 29 59 41 27 51 33 19 53 35 21 61 43 29 59 41 27 57 39 25 53 35 21 62 44 30 57 39 25 62 44 30 59 41 27 54 36 22 52 34 20 57 39 25 51 33 19 62 44 30 61 43 29 58 40 26 55 37 23 54 36 22 58 40 26 55 37 23 63 45 31 53 35 21 61 43 29 60 42 28
52 34 20 59 41 27 56 38 24 56 38 24 53 35 21 52 34 20 62 44 30 61 43 29 56 38 24 56 38 24 52 34 20 57 39 25 57 39 25 55 37 23 53 35 21 53 35 21 54 36 22 62 44 30 52 34 20 63 45 31 62 44 30 52 34 20 53 35 21 52 34 20 55 37 23 52 34 20 53 35 21 56 38 24 59 41 27 53 35 21 54 36 22 62 44 30 205 130 35 180 119 31 206 131 36 204 129 34 61 43 29 62 44 30 51 33 19 55 37 23 109 64 32 117 72 40 61 43 29 52 34 20 57 39 25 61 43 29 54 36 22 63 45 31 56 38 24 56 38 24 61 43 29 152 48 31 157 53 36 160 56 39 152 48 31 161 57 40 161 57 40 125 35 25 124 33 24 160 56 39 159 55 38 163 59 42 131 41 31 166 62 45 154 50 33 162 58 41 153 49 32 58 40 26 59 41 27 52 34 20 55 37 23 55 37 23 63 45 31 62 44 30 56 38 24 59 41 27 62 44 30 62 44 30 61 43 29 58 40 26 60 42 28 54 36 22 54 36 22 53 35 21 55 37 23 54 36 22 52 34 20 57 39 25 54 36 22 179 78 23 191 90 35 153 65 18 184 83 28 58 40 26 62 44 30 61 43 29 53 35 21 62 44 30 61 43 29 61 43 29 61 43 29 62 44 30 54 36 22 63 45 31 51 33 19 61 43 29 57 39 25 54 36 22 56 38 24 51 33 19 61 43 29 60 42 28 53 35 21 62 44 30 59 41 27 60 42 28 59 41 27 61 43 29 57 39 25 51 33 19 61 43 29 60 42 28 53 35 21 62 44 30 55 37 23 60 42 28 53 35 21 59 41 27
59 41 27 55 37 23 52 34 20 61 43 29 54 36 22 60 42 28 60 42 28 57 39 25 55 37 23 58 40 26 62 44 30 58 40 26 55 37 23 55 37 23 55 37 23 52 34 20 53 35 21 54 36 22 63 45 31 51 33 19 57 39 25 59 41 27 62 44 30 56 38 24 51 33 19 52 34 20 58 40 26 55 37 23 62 44 30 53 35 21 62 44 30 54 36 22 204 129 34 179 118 30 176 115 27 211 136 41 210 135 40 119 74 42 119 74 42 118 73 41 110 65 33 120 75 43 112 67 35 118 73 41 116 71 39 114 69 37 109 64 32 57 39 25 57 39 25 54 36 22 158 54 37 155 51 34 162 58 41 153 49 32 161 57 40 165 61 44 123 33 23 123 32 23 159 55 38 156 52 35 157 53 36 126 35 26 125 35 25 164 60 43 162 58 41 155 51 34 152 48 31 52 34 20 57 39 25 57 39 25 55 37 23 53 35 21 53 35 21 54 36 22 62 44 30 52 34 20 62 44 30 62 44 30 52 34 20 53 35 21 52 34 20 55 37 23 52 34 20 53 35 21 56 38 24 59 41 27 53 35 21 54 36 22 62 44 30 58 40 26 189 88 33 155 68 20 184 83 28 61 43 29 62 44 30 51 33 19 55 37 23 149 45 28 158 54 37 127 37 27 147 43 26 151 47 30 61 43 29 54 36 22 63 45 31 56 38 24 56 38 24 61 43 29 57 39 25 59 41 27 61 43 29 52 34 20 60 42 28 61 43 29 56 38 24 55 37 23 60 42 28 57 39 25 59 41 27 57 39 25 62 44 30 52 34 20 62 44 30 56 38 24 58 40 26 59 41 27 52 34 20 55 37 23
55 37 23 61 43 29 57 39 25 56 38 24 57 39 25 59 41 27 58 40 26 53 35 21 52 34 20 56 38 24 59 41 27 54 36 22 57 39 25 58 40 26 62 44 30 56 38 24 57 39 25 63 45 31 53 35 21 61 43 29 52 34 20 61 43 29 57 39 25 51 33 19 62 44 30 60 42 28 63 45 31 57 39 25 52 34 20 61 43 29 63 45 31 53 35 21 207 132 37 203 128 33 182 120 33 174 112 25 210 135 40 115 70 38 114 69 37 114 69 37 122 77 45 118 73 41 124 79 47 118 73 41 121 76 44 116 71 39 115 70 38 116 71 39 115 70 38 150 46 29 153 49 32 163 59 42 153 49 32 160 56 39 157 53 36 163 59 42 133 43 33 131 41 31 156 52 35 151 47 30 162 58 41 126 35 26 132 41 32 161 57 40 157 53 36 152 48 31 58 40 26 62 44 30 58 40 26 55 37 23 55 37 23 55 37 23 52 34 20 53 35 21 54 36 22 63 45 31 51 33 19 57 39 25 59 41 27 63 45 31 56 38 24 51 33 19 52 34 20 58 40 26 55 37 23 62 44 30 53 35 21 62 44 30 54 36 22 57 39 25 59 41 27 55 37 23 61 43 29 63 45 31 62 44 30 61 43 29 60 42 28 147 43 26 158 54 37 122 31 22 158 54 37 155 51 34 57 39 25 53 35 21 56 38 24 57 39 25 54 36 22 62 44 30 57 39 25 62 44 30 52 34 20 58 40 26 63 45 31 51 33 19 52 34 20 59 41 27 56 38 24 56 38 24 53 35 21 52 34 20 62 44 30 61 43 29 56 38 24 56 38 24 52 34 20 57 39 25 57 39 25 55 37 23
58 40 26 53 35 21 58 40 26 55 37 23 57 39 25 58 40 26 52 34 20 58 40 26 62 44 30 61 43 29 54 36 22 58 40 26 60 42 28 60 42 28 60 42 28 60 42 28 51 33 19 54 36 22 54 36 22 57 39 25 59 41 27 59 41 27 51 33 19 61 43 29 61 43 29 58 40 26 53 35 21 51 33 19 61 43 29 60 42 28 61 43 29 63 45 31 119 74 42 208 133 38 175 113 26 182 121 33 214 139 44 122 77 45 117 72 40 124 79 47 121 76 44 117 72 40 119 74 42 115 70 38 122 77 45 119 74 42 120 75 43 112 67 35 119 74 42 150 46 29 151 47 30 153 49 32 159 55 38 159 55 38 159 55 38 130 40 30 132 42 32 158 54 37 163 59 42 156 52 35 156 52 35 128 38 28 159 55 38 158 54 37 151 47 30 147 43 26 56 38 24 59 41 27 54 36 22 57 39 25 58 40 26 62 44 30 56 38 24 57 39 25 63 45 31 52 34 20 61 43 29 52 34 20 61 43 29 57 39 25 51 33 19 62 44 30 60 42 28 63 45 31 57 39 25 52 34 20 61 43 29 63 45 31 53 35 21 61 43 29 52 34 20 59 41 27 51 33 19 60 42 28 55 37 23 53 35 21 148 44 27 158 54 37 155 51 34 132 42 32 156 52 35 158 54 37 151 47 30 57 39 25 58 40 26 59 41 27 55 37 23 56 38 24 63 45 31 51 33 19 57 39 25 53 35 21 59 41 27 60 42 28 59 41 27 56 38 24 52 34 20 61 43 29 54 36 22 60 42 28 60 42 28 57 39 25 55 37 23 58 40 26 62 44 30 58 40 26 55 37 23 55 37 23
62 44 30 60 42 28 52 34 20 56 38 24 59 41 27 62 44 30 52 34 20 56 38 24 62 44 30 53 35 21 60 42 28 63 45 31 58 40 26 51 33 19 51 33 19 51 33 19 54 36 22 58 40 26 61 43 29 57 39 25 60 42 28 51 33 19 59 41 27 51 33 19 53 35 21 60 42 28 62 44 30 61 43 29 57 39 25 58 40 26 53 35 21 116 71 39 114 69 37 112 67 35 210 135 40 180 118 31 177 116 28 120 75 43 125 80 48 124 79 47 121 76 44 119 74 42 121 76 44 127 82 50 122 77 45 124 79 47 119 74 42 115 70 38 113 68 36 151 47 30 152 48 31 157 53 36 161 57 40 167 63 46 139 48 39 132 42 32 160 56 39 162 58 41 155 51 34 157 53 36 123 33 23 126 36 26 157 53 36 150 46 29 154 50 33 62 44 30 61 43 29 54 36 22 58 40 26 60 42 28 60 42 28 60 42 28 60 42 28 51 33 19 53 35 21 54 36 22 57 39 25 59 41 27 59 41 27 51 33 19 61 43 29 61 43 29 58 40 26 53 35 21 51 33 19 61 43 29 60 42 28 61 43 29 63 45 31 62 44 30 58 40 26 52 34 20 59 41 27 61 43 29 59 41 27 54 36 22 157 53 36 157 53 36 154 50 33 126 36 26 153 49 32 158 54 37 154 50 33 59 41 27 52 34 20 60 42 28 54 36 22 52 34 20 51 33 19 55 37 23 55 37 23 54 36 22 55 37 23 58 40 26 55 37 23 61 43 29 57 39 25 56 38 24 57 39 25 59 41 27 58 40 26 53 35 21 52 34 20 56 38 24 59 41 27 54 36 22 57 39 25 58 40 26
62 44 30 62 44 30 54 36 22 59 41 27 61 43 29 59 41 27 62 44 30 52 34 20 53 35 21 61 43 29 53 35 21 56 38 24 55 37 23 55 37 23 52 34 20 55 37 23 62 44 30 54 36 22 55 37 23 62 44 30 51 33 19 58 40 26 53 35 21 60 42 28 56 38 24 61 43 29 60 42 28 54 36 22 54 36 22 55 37 23 57 39 25 82 50 26 81 50 25 86 55 30 213 138 43 214 139 44 183 121 34 214 139 44 126 81 49 124 79 47 118 73 41 126 81 49 119 74 42 124 79 47 127 82 50 125 80 48 122 77 45 125 80 48 117 72 40 111 66 34 154 50 33 161 57 40 161 57 40 164 60 43 132 41 32 160 56 39 160 56 39 165 61 44 161 57 40 151 47 30 123 32 23 126 36 26 159 55 38 148 44 27 56 38 24 62 44 30 53 35 21 60 42 28 63 45 31 58 40 26 51 33 19 51 33 19 51 33 19 54 36 22 58 40 26 61 43 29 57 39 25 60 42 28 51 33 19 59 41 27 51 33 19 53 35 21 61 43 29 62 44 30 61 43 29 57 39 25 58 40 26 53 35 21 60 42 28 56 38 24 52 34 20 57 39 25 55 37 23 53 35 21 56 38 24 154 50 33 157 53 36 156 52 35 155 51 34 128 37 28 164 60 43 158 54 37 158 54 37 151 47 30 53 35 21 52 34 20 54 36 22 51 33 19 54 36 22 56 38 24 61 43 29 63 45 31 57 39 25 55 37 23 58 40 26 53 35 21 58 40 26 55 37 23 57 39 25 58 40 26 52 34 20 58 40 26 62 44 30 61 43 29 54 36 22 58 40 26 61 43 29 60 42 28
59 41 27 51 33 19 59 41 27 60 42 28 53 35 21 57 39 25 54 36 22 52 34 20 62 44 30 55 37 23 54 36 22 59 41 27 58 40 26 53 35 21 56 38 24 54 36 22 58 40 26 54 36 22 52 34 20 146 42 25 122 32 22 55 37 23 55 37 23 63 45 31 60 42 28 60 42 28 52 34 20 51 33 19 56 38 24 54 36 22 53 35 21 80 48 24 83 52 27 87 55 31 85 54 29 212 137 42 184 123 35 187 125 38 96 64 40 98 67 42 88 57 32 93 62 37 95 64 39 98 67 42 88 57 32 97 66 41 95 64 39 90 59 34 84 52 28 82 51 26 161 57 40 155 51 34 158 54 37 130 40 30 130 40 30 158 54 37 163 59 42 164 60 43 162 58 41 152 48 31 124 33 24 157 53 36 154 50 33 62 44 30 52 34 20 53 35 21 61 43 29 53 35 21 56 38 24 55 37 23 55 37 23 52 34 20 55 37 23 62 44 30 54 36 22 55 37 23 62 44 30 51 33 19 58 40 26 53 35 21 60 42 28 56 38 24 61 43 29 60 42 28 54 36 22 54 36 22 54 36 22 57 39 25 55 37 23 53 35 21 56 38 24 62 44 30 59 41 27 57 39 25 59 41 27 156 52 35 157 53 36 153 49 32 162 58 41 126 36 26 161 57 40 162 58 41 159 55 38 153 49 32 62 44 30 55 37 23 51 33 19 53 35 21 58 40 26 56 38 24 58 40 26 56 38 24 55 37 23 55 37 23 62 44 30 59 41 27 52 34 20 56 38 24 59 41 27 62 44 30 52 34 20 56 38 24 62 44 30 53 35 21 60 42 28 63 45 31 58 40 26 51 33 19
61 43 29 59 41 27 59 41 27 60 42 28 51 33 19 55 37 23 51 33 19 62 44 30 57 39 25 53 35 21 52 34 20 62 44 30 53 35 21 57 39 25 58 40 26 62 44 30 52 34 20 53 35 21 147 43 26 123 33 23 123 33 23 156 52 35 58 40 26 59 41 27 60 42 28 61 43 29 60 42 28 58 40 26 51 33 19 62 44 30 53 35 21 110 65 33 121 76 44 120 75 43 122 77 45 120 75 43 217 142 47 188 126 39 214 139 44 122 77 45 127 82 50 126 81 49 129 84 52 122 77 45 120 75 43 124 79 47 123 78 46 86 54 30 95 63 39 92 60 36 159 55 38 163 59 42 128 37 28 129 39 29 167 63 46 160 56 39 155 51 34 160 56 39 151 47 30 155 51 34 60 42 28 54 36 22 57 39 25 53 35 21 52 34 20 62 44 30 55 37 23 54 36 22 59 41 27 58 40 26 53 35 21 56 38 24 54 36 22 58 40 26 54 36 22 52 34 20 52 34 20 57 39 25 55 37 23 55 37 23 63 45 31 60 42 28 60 42 28 52 34 20 51 33 19 56 38 24 54 36 22 53 35 21 53 35 21 54 36 22 56 38 24 53 35 21 59 41 27 58 40 26 61 43 29 157 53 36 162 58 41 154 50 33 160 56 39 133 42 33 165 61 44 155 51 34 162 58 41 157 53 36 57 39 25 52 34 20 52 34 20 60 42 28 51 33 19 53 35 21 55 37 23 54 36 22 53 35 21 59 41 27 61 43 29 62 44 30 54 36 22 59 41 27 61 43 29 59 41 27 62 44 30 52 34 20 53 35 21 61 43 29 53 35 21 56 38 24 55 37 23 55 37 23
59 41 27 57 39 25 56 38 24 58 40 26 57 39 25 62 44 30 63 45 31 58 40 26 63 45 31 56 38 24 54 36 22 54 36 22 57 39 25 61 43 29 54 36 22 62 44 30 56 38 24 54 36 22 152 48 31 126 36 26 124 33 24 147 43 26 57 39 25 61 43 29 59 41 27 58 40 26 60 42 28 60 42 28 60 42 28 53 35 21 52 34 20 113 68 36 112 67 35 121 76 44 117 72 40 124 79 47 205 130 35 183 122 34 185 124 36 117 72 40 125 80 48 129 84 52 125 80 48 124 79 47 122 77 45 125 80 48 117 72 40 124 79 47 124 79 47 151 47 30 156 52 35 125 34 25 128 38 28 164 60 43 157 53 36 157 53 36 158 54 37 161 57 40 118 73 41 117 72 40 118 73 41 108 63 31 111 66 34 63 45 31 62 44 30 57 39 25 53 35 21 52 34 20 62 44 30 53 35 21 57 39 25 58 40 26 62 44 30 52 34 20 53 35 21 53 35 21 56 38 24 56 38 24 61 43 29 58 40 26 59 41 27 60 42 28 61 43 29 60 42 28 58 40 26 51 33 19 62 44 30 53 35 21 53 35 21 63 45 31 60 42 28 60 42 28 57 39 25 62 44 30 62 44 30 157 53 36 156 52 35 163 59 42 163 59 42 137 47 37 161 57 40 157 53 36 159 55 38 156 52 35 52 34 20 63 45 31 61 43 29 58 40 26 60 42 28 53 35 21 54 36 22 62 44 30 56 38 24 51 33 19 59 41 27 51 33 19 59 41 27 60 42 28 54 36 22 57 39 25 53 35 21 52 34 20 62 44 30 55 37 23 55 37 23 59 41 27 58 40 26 52 34 20
56 38 24 63 45 31 53 35 21 59 41 27 61 43 29 63 45 31 60 42 28 61 43 29 61 43 29 58 40 26 55 37 23 58 40 26 53 35 21 58 40 26 60 42 28 58 40 26 55 37 23 150 46 29 158 54 37 132 41 32 158 54 37 152 48 31 61 43 29 57 39 25 55 37 23 62 44 30 57 39 25 57 39 25 53 35 21 63 45 31 53 35 21 61 43 29 107 62 30 112 67 35 122 77 45 113 68 36 207 132 37 207 132 37 182 120 33 215 140 45 115 70 38 127 82 50 126 81 49 119 74 42 126 81 49 117 72 40 123 78 46 113 68 36 118 73 41 122 77 45 124 79 47 126 36 26 131 40 31 165 61 44 158 54 37 115 70 38 121 76 44 121 76 44 119 74 42 117 72 40 119 74 42 117 72 40 121 76 44 120 75 43 115 70 38 63 45 31 56 38 24 54 36 22 54 36 22 57 39 25 61 43 29 54 36 22 62 44 30 56 38 24 54 36 22 56 38 24 58 40 26 55 37 23 52 34 20 57 39 25 61 43 29 59 41 27 58 40 26 60 42 28 60 42 28 60 42 28 53 35 21 52 34 20 58 40 26 55 37 23 62 44 30 56 38 24 63 45 31 52 34 20 58 40 26 158 54 37 153 49 32 163 59 42 168 64 47 135 45 35 163 59 42 160 56 39 162 58 41 151 47 30 62 44 30 63 45 31 52 34 20 55 37 23 52 34 20 55 37 23 60 42 28 53 35 21 53 35 21 56 38 24 61 43 29 59 41 27 59 41 27 60 42 28 51 33 19 55 37 23 63 45 31 62 44 30 57 39 25 53 35 21 52 34 20 62 44 30 53 35 21 57 39 25
58 40 26 60 42 28 60 42 28 59 41 27 63 45 31 61 43 29 59 41 27 53 35 21 63 45 31 56 38 24 58 40 26 56 38 24 61 43 29 58 40 26 60 42 28 57 39 25 55 37 23 158 54 37 156 52 35 124 34 24 154 50 33 157 53 36 56 38 24 52 34 20 52 34 20 53 35 21 54 36 22 52 34 20 62 44 30 61 43 29 57 39 25 53 35 21 54 36 22 63 45 31 111 66 34 112 67 35 205 130 35 213 138 43 186 124 37 176 115 27 207 132 37 115 70 38 115 70 38 114 69 37 117 72 40 121 76 44 114 69 37 114 69 37 118 73 41 125 80 48 119 74 42 121 76 44 125 80 48 122 77 45 126 81 49 121 76 44 123 78 46 121 76 44 127 82 50 116 71 39 121 76 44 122 77 45 123 78 46 119 74 42 119 74 42 117 72 40 58 40 26 55 37 23 58 40 26 53 35 21 58 40 26 60 42 28 58 40 26 55 37 23 55 37 23 59 41 27 61 43 29 59 41 27 56 38 24 61 43 29 57 39 25 55 37 23 62 44 30 57 39 25 57 39 25 53 35 21 63 45 31 53 35 21 61 43 29 52 34 20 55 37 23 63 45 31 53 35 21 56 38 24 52 34 20 154 50 33 162 58 41 155 51 34 168 64 47 138 48 38 160 56 39 167 63 46 156 52 35 159 55 38 52 34 20 58 40 26 61 43 29 63 45 31 55 37 23 58 40 26 62 44 30 55 37 23 52 34 20 59 41 27 59 41 27 58 40 26 56 38 24 58 40 26 57 39 25 62 44 30 63 45 31 58 40 26 63 45 31 56 38 24 54 36 22 54 36 22 57 39 25 61 43 29
56 38 24 62 44 30 58 40 26 63 45 31 62 44 30 57 39 25 58 40 26 55 37 23 57 39 25 58 40 26 58 40 26 53 35 21 56 38 24 63 45 31 58 40 26 54 36 22 157 53 36 161 57 40 131 41 31 126 35 26 162 58 41 150 46 29 62 44 30 54 36 22 62 44 30 51 33 19 52 34 20 61 43 29 56 38 24 52 34 20 55 37 23 53 35 21 63 45 31 56 38 24 52 34 20 62 44 30 109 64 32 212 137 42 205 130 35 181 119 32 180 119 31 213 138 43 114 69 37 116 71 39 120 75 43 117 72 40 121 76 44 125 80 48 124 79 47 121 76 44 121 76 44 123 78 46 126 81 49 124 79 47 119 74 42 125 80 48 92 60 36 94 63 38 95 64 39 95 63 39 93 61 37 95 64 39 92 61 36 89 58 33 82 50 26 89 58 33 56 38 24 58 40 26 56 38 24 62 44 30 58 40 26 60 42 28 57 39 25 54 36 22 61 43 29 55 37 23 53 35 21 55 37 23 61 43 29 56 38 24 52 34 20 52 34 20 53 35 21 54 36 22 52 34 20 62 44 30 61 43 29 57 39 25 53 35 21 54 36 22 63 45 31 55 37 23 54 36 22 57 39 25 154 50 33 160 56 39 153 49 32 158 54 37 159 55 38 129 38 29 158 54 37 160 56 39 162 58 41 152 48 31 146 42 25 56 38 24 61 43 29 55 37 23 57 39 25 60 42 28 57 39 25 61 43 29 56 38 24 59 41 27 57 39 25 63 45 31 53 35 21 58 40 26 61 43 29 63 45 31 60 42 28 61 43 29 61 43 29 58 40 26 55 37 23 58 40 26 53 35 21 58 40 26
52 34 20 56 38 24 62 44 30 52 34 20 56 38 24 52 34 20 60 42 28 58 40 26 58 40 26 61 43 29 56 38 24 54 36 22 53 35 21 60 42 28 54 36 22 51 33 19 152 48 31 154 50 33 125 35 25 136 45 36 153 49 32 155 51 34 56 38 24 58 40 26 60 42 28 51 33 19 60 42 28 52 34 20 59 41 27 57 39 25 51 33 19 63 45 31 57 39 25 63 45 31 55 37 23 58 40 26 51 33 19 198 123 28 210 135 40 183 122 34 184 122 35 209 134 39 117 72 40 120 75 43 118 73 41 84 53 28 89 58 33 93 61 37 91 60 35 90 58 34 91 60 35 98 66 42 91 59 35 98 67 42 95 63 39 91 60 35 91 59 35 91 60 35 97 66 41 92 61 36 96 65 40 95 63 39 118 73 41 118 73 41 113 68 36 113 68 36 58 40 26 58 40 26 53 35 21 56 38 24 63 45 31 58 40 26 54 36 22 62 44 30 61 43 29 59 41 27 53 35 21 62 44 30 55 37 23 62 44 30 54 36 22 62 44 30 51 33 19 52 34 20 61 43 29 56 38 24 52 34 20 55 37 23 53 35 21 63 45 31 56 38 24 52 34 20 62 44 30 53 35 21 62 44 30 150 46 29 159 55 38 161 57 40 156 52 35 131 41 31 163 59 42 164 60 43 157 53 36 156 52 35 62 44 30 60 42 28 56 38 24 55 37 23 57 39 25 59 41 27 57 39 25 53 35 21 58 40 26 56 38 24 58 40 26 60 42 28 60 42 28 59 41 27 63 45 31 61 43 29 59 41 27 53 35 21 63 45 31 56 38 24 58 40 26 56 38 24 62 44 30 58 40 26
54 36 22 62 44 30 52 34 20 54 36 22 57 39 25 53 35 21 59 41 27 58 40 26 51 33 19 59 41 27 52 34 20 56 38 24 62 44 30 54 36 22 53 35 21 60 42 28 158 54 37 165 61 44 126 35 26 156 52 35 158 54 37 58 40 26 54 36 22 56 38 24 63 45 31 59 41 27 60 42 28 55 37 23 59 41 27 61 43 29 62 44 30 58 40 26 61 43 29 60 42 28 63 45 31 53 35 21 52 34 20 62 44 30 199 124 29 209 134 39 182 121 33 182 120 33 207 132 37 88 56 32 88 57 32 94 62 38 90 59 34 91 60 35 88 56 32 89 57 33 87 56 31 128 83 51 125 80 48 124 79 47 120 75 43 128 83 51 117 72 40 117 72 40 120 75 43 126 81 49 114 69 37 117 72 40 111 66 34 118 73 41 115 70 38 58 40 26 61 43 29 56 38 24 54 36 22 53 35 21 60 42 28 54 36 22 51 33 19 55 37 23 53 35 21 52 34 20 63 45 31 53 35 21 60 42 28 56 38 24 58 40 26 60 42 28 52 34 20 60 42 28 52 34 20 59 41 27 57 39 25 63 45 31 63 45 31 57 39 25 63 45 31 55 37 23 58 40 26 51 33 19 52 34 20 158 54 37 162 58 41 165 61 44 163 59 42 135 44 35 165 61 44 160 56 39 153 49 32 154 50 33 192 152 56 56 38 24 54 36 22 55 37 23 61 43 29 54 36 22 61 43 29 58 40 26 55 37 23 54 36 22 56 38 24 62 44 30 58 40 26 63 45 31 63 45 31 58 40 26 58 40 26 55 37 23 57 39 25 58 40 26 58 40 26 53 35 21 56 38 24 63 45 31
61 43 29 53 35 21 53 35 21 62 44 30 59 41 27 60 42 28 58 40 26 54 36 22 62 44 30 62 44 30 59 41 27 53 35 21 54 36 22 54 36 22 53 35 21 147 43 26 162 58 41 157 53 36 127 36 27 159 55 38 159 55 38 62 44 30 52 34 20 62 44 30 59 41 27 57 39 25 63 45 31 61 43 29 59 41 27 61 43 29 59 41 27 59 41 27 54 36 22 56 38 24 54 36 22 52 34 20 52 34 20 55 37 23 57 39 25 199 124 29 201 126 31 179 118 30 207 132 37 122 77 45 115 70 38 117 72 40 120 75 43 115 70 38 115 70 38 117 72 40 123 78 46 119 74 42 122 77 45 118 73 41 123 78 46 123 78 46 118 73 41 118 73 41 124 79 47 114 69 37 115 70 38 116 71 39 111 66 34 115 70 38 58 40 26 51 33 19 59 41 27 52 34 20 56 38 24 62 44 30 54 36 22 53 35 21 60 42 28 58 40 26 62 44 30 51 33 19 52 34 20 58 40 26 58 40 26 54 36 22 56 38 24 63 45 31 60 42 28 60 42 28 55 37 23 59 41 27 61 43 29 62 44 30 58 40 26 61 43 29 60 42 28 63 45 31 52 34 20 52 34 20 62 44 30 149 45 28 160 56 39 164 60 43 166 62 45 135 44 35 163 59 42 160 56 39 162 58 41 195 155 59 193 153 57 53 35 21 53 35 21 63 45 31 62 44 30 58 40 26 57 39 25 54 36 22 62 44 30 51 33 19 52 34 20 56 38 24 62 44 30 52 34 20 56 38 24 52 34 20 60 42 28 58 40 26 58 40 26 61 43 29 56 38 24 54 36 22 53 35 21 60 42 28
54 36 22 63 45 31 56 38 24 52 34 20 62 44 30 58 40 26 55 37 23 53 35 21 60 42 28 62 44 30 55 37 23 54 36 22 55 37 23 58 40 26 57 39 25 157 53 36 156 52 35 127 36 27 130 39 30 165 61 44 155 51 34 60 42 28 61 43 29 58 40 26 53 35 21 59 41 27 63 45 31 57 39 25 60 42 28 60 42 28 58 40 26 59 41 27 61 43 29 55 37 23 52 34 20 55 37 23 58 40 26 55 37 23 55 37 23 54 36 22 207 132 37 178 117 29 172 111 23 118 73 41 112 67 35 118 73 41 112 67 35 123 78 46 117 72 40 116 71 39 125 80 48 119 74 42 115 70 38 118 73 41 117 72 40 118 73 41 114 69 37 121 76 44 113 68 36 111 66 34 120 75 43 115 70 38 60 42 28 58 40 26 54 36 22 62 44 30 62 44 30 59 41 27 53 35 21 54 36 22 54 36 22 53 35 21 52 34 20 60 42 28 52 34 20 52 34 20 56 38 24 60 42 28 62 44 30 52 34 20 62 44 30 59 41 27 57 39 25 63 45 31 61 43 29 59 41 27 61 43 29 59 41 27 59 41 27 54 36 22 56 38 24 54 36 22 52 34 20 52 34 20 55 37 23 154 50 33 152 48 31 154 50 33 164 60 43 134 43 34 166 62 45 157 53 36 195 155 59 197 157 61 190 150 54 186 146 50 53 35 21 58 40 26 54 36 22 57 39 25 53 35 21 58 40 26 59 41 27 54 36 22 54 36 22 62 44 30 53 35 21 54 36 22 57 39 25 53 35 21 59 41 27 58 40 26 51 33 19 59 41 27 52 34 20 56 38 24 62 44 30 54 36 22
61 43 29 62 44 30 58 40 26 51 33 19 58 40 26 57 39 25 55 37 23 58 40 26 54 36 22 58 40 26 54 36 22 56 38 24 63 45 31 62 44 30 57 39 25 154 50 33 155 51 34 129 38 29 127 36 27 155 51 34 153 49 32 61 43 29 58 40 26 62 44 30 55 37 23 53 35 21 55 37 23 59 41 27 60 42 28 56 38 24 53 35 21 55 37 23 56 38 24 52 34 20 56 38 24 60 42 28 53 35 21 58 40 26 57 39 25 60 42 28 62 44 30 206 131 36 169 107 20 52 34 20 116 71 39 108 63 31 118 73 41 115 70 38 120 75 43 118 73 41 115 70 38 112 67 35 111 66 34 122 77 45 117 72 40 121 76 44 117 72 40 111 66 34 107 62 30 56 38 24 52 34 20 62 44 30 58 40 26 55 37 23 53 35 21 60 42 28 62 44 30 55 37 23 54 36 22 55 37 23 58 40 26 57 39 25 59 41 27 53 35 21 51 33 19 54 36 22 62 44 30 57 39 25 60 42 28 61 43 29 58 40 26 53 35 21 59 41 27 63 45 31 57 39 25 60 42 28 60 42 28 58 40 26 59 41 27 61 43 29 55 37 23 52 34 20 55 37 23 58 40 26 55 37 23 151 47 30 153 49 32 161 57 40 163 59 42 129 38 29 163 59 42 165 138 50 170 144 55 192 152 56 200 160 64 191 151 55 187 147 51 62 44 30 56 38 24 53 35 21 55 37 23 55 37 23 56 38 24 52 34 20 61 43 29 53 35 21 53 35 21 62 44 30 58 40 26 60 42 28 58 40 26 54 36 22 62 44 30 62 44 30 59 41 27 53 35 21 54 36 22 54 36 22
56 38 24 52 34 20 53 35 21 57 39 25 59 41 27 58 40 26 56 38 24 57 39 25 61 43 29 54 36 22 57 39 25 55 37 23 55 37 23 55 37 23 151 47 30 152 48 31 156 52 35 129 39 29 165 61 44 153 49 32 154 50 33 57 39 25 59 41 27 52 34 20 54 36 22 53 35 21 58 40 26 61 43 29 55 37 23 59 41 27 61 43 29 58 40 26 51 33 19 58 40 26 63 45 31 51 33 19 62 44 30 59 41 27 60 42 28 63 45 31 53 35 21 58 40 26 62 44 30 61 43 29 51 33 19 58 40 26 58 40 26 56 38 24 109 64 32 110 65 33 107 62 30 116 71 39 115 70 38 115 70 38 60 42 28 58 40 26 55 37 23 62 44 30 62 44 30 58 40 26 51 33 19 58 40 26 57 39 25 55 37 23 58 40 26 54 36 22 58 40 26 54 36 22 56 38 24 63 45 31 62 44 30 57 39 25 55 37 23 51 33 19 53 35 21 51 33 19 53 35 21 56 38 24 61 43 29 58 40 26 62 44 30 55 37 23 53 35 21 55 37 23 59 41 27 60 42 28 56 38 24 53 35 21 55 37 23 56 38 24 52 34 20 56 38 24 60 42 28 53 35 21 58 40 26 151 47 30 158 54 37 162 58 41 162 58 41 126 35 26 154 50 33 172 145 57 163 137 48 201 161 65 197 157 61 199 159 63 194 154 58 55 37 23 52 34 20 51 33 19 63 45 31 58 40 26 62 44 30 60 42 28 54 36 22 51 33 19 56 38 24 52 34 20 62 44 30 58 40 26 55 37 23 53 35 21 60 42 28 63 45 31 55 37 23 54 36 22 55 37 23 58 40 26
58 40 26 54 36 22 57 39 25 60 42 28 60 42 28 54 36 22 61 43 29 52 34 20 55 37 23 58 40 26 59 41 27 59 41 27 53 35 21 57 39 25 148 44 27 164 60 43 130 40 30 131 40 31 163 59 42 158 54 37 57 39 25 56 38 24 60 42 28 56 38 24 62 44 30 56 38 24 61 43 29 53 35 21 54 36 22 55 37 23 59 41 27 63 45 31 59 41 27 53 35 21 61 43 29 53 35 21 63 45 31 61 43 29 52 34 20 57 39 25 63 45 31 60 42 28 63 45 31 51 33 19 57 39 25 60 42 28 51 33 19 62 44 30 53 35 21 51 33 19 57 39 25 56 38 24 61 43 29 58 40 26 57 39 25 55 37 23 60 42 28 56 38 24 52 34 20 53 35 21 57 39 25 59 41 27 58 40 26 56 38 24 57 39 25 61 43 29 54 36 22 57 39 25 55 37 23 55 37 23 55 37 23 56 38 24 51 33 19 52 34 20 53 35 21 60 42 28 52 34 20 60 42 28 58 40 26 59 41 27 52 34 20 54 36 22 53 35 21 58 40 26 61 43 29 55 37 23 59 41 27 61 43 29 58 40 26 51 33 19 58 40 26 63 45 31 51 33 19 62 44 30 59 41 27 60 42 28 159 55 38 152 48 31 159 55 38 133 43 33 202 162 66 193 153 57 171 145 56 201 161 65 198 158 62 194 154 58 191 151 55 185 145 49 60 42 28 59 41 27 59 41 27 60 42 28 58 40 26 55 37 23 62 44 30 62 44 30 58 40 26 51 33 19 58 40 26 57 39 25 55 37 23 58 40 26 54 36 22 58 40 26 54 36 22 56 38 24 63 45 31 62 44 30
56 38 24 56 38 24 61 43 29 62 44 30 53 35 21 53 35 21 56 38 24 55 37 23 59 41 27 51 33 19 52 34 20 52 34 20 59 41 27 52 34 20 159 55 38 160 56 39 137 47 37 130 39 30 160 56 39 155 51 34 53 35 21 57 39 25 58 40 26 60 42 28 54 36 22 61 43 29 52 34 20 60 42 28 61 43 29 61 43 29 62 44 30 60 42 28 55 37 23 59 41 27 57 39 25 54 36 22 61 43 29 52 34 20 61 43 29 55 37 23 59 41 27 52 34 20 51 33 19 56 38 24 62 44 30 58 40 26 57 39 25 52 34 20 51 33 19 55 37 23 52 34 20 51 33 19 55 37 23 55 37 23 55 37 23 59 41 27 63 45 31 58 40 26 54 36 22 57 39 25 60 42 28 60 42 28 54 36 22 61 43 29 52 34 20 55 37 23 58 40 26 59 41 27 59 41 27 53 35 21 57 39 25 51 33 19 62 44 30 55 37 23 55 37 23 59 41 27 59 41 27 57 39 25 56 38 24 60 42 28 56 38 24 62 44 30 56 38 24 61 43 29 53 35 21 54 36 22 55 37 23 59 41 27 63 45 31 59 41 27 53 35 21 61 43 29 53 35 21 63 45 31 61 43 29 51 33 19 153 49 32 161 57 40 160 56 39 132 42 32 192 152 56 199 159 63 173 147 58 165 138 50 204 164 68 194 154 58 190 150 54 192 152 56 56 38 24 61 43 29 58 40 26 57 39 25 55 37 23 60 42 28 56 38 24 52 34 20 52 34 20 57 39 25 59 41 27 58 40 26 56 38 24 57 39 25 61 43 29 54 36 22 57 39 25 55 37 23 55 37 23 55 37 23
55 37 23 62 44 30 52 34 20 63 45 31 57 39 25 59 41 27 56 38 24 59 41 27 55 37 23 56 38 24 62 44 30 61 43 29 52 34 20 60 42 28 157 53 36 160 56 39 136 46 36 161 57 40 158 54 37 159 55 38 54 36 22 60 42 28 57 39 25 52 34 20 62 44 30 63 45 31 55 37 23 55 37 23 62 44 30 61 43 29 61 43 29 57 39 25 58 40 26 61 43 29 57 39 25 62 44 30 53 35 21 53 35 21 60 42 28 57 39 25 54 36 22 52 34 20 55 37 23 52 34 20 53 35 21 52 34 20 63 45 31 51 33 19 52 34 20 61 43 29 53 35 21 52 34 20 53 35 21 56 38 24 57 39 25 57 39 25 52 34 20 56 38 24 56 38 24 61 43 29 62 44 30 53 35 21 53 35 21 56 38 24 55 37 23 59 41 27 51 33 19 52 34 20 52 34 20 59 41 27 52 34 20 61 43 29 57 39 25 62 44 30 54 36 22 58 40 26 57 39 25 53 35 21 57 39 25 58 40 26 60 42 28 54 36 22 61 43 29 52 34 20 60 42 28 61 43 29 61 43 29 62 44 30 60 42 28 55 37 23 60 42 28 57 39 25 54 36 22 61 43 29 52 34 20 61 43 29 56 38 24 155 51 34 150 46 29 189 149 53 196 156 60 204 164 68 172 146 57 171 144 56 196 156 60 193 153 57 194 154 58 189 149 53 51 33 19 55 37 23 55 37 23 55 37 23 59 41 27 63 45 31 58 40 26 54 36 22 57 39 25 60 42 28 60 42 28 55 37 23 61 43 29 52 34 20 55 37 23 58 40 26 59 41 27 59 41 27 54 36 22 57 39 25
62 44 30 54 36 22 61 43 29 61 43 29 51 33 19 57 39 25 60 42 28 59 41 27 60 42 28 60 42 28 63 45 31 53 35 21 59 41 27 60 42 28 163 59 42 159 55 38 130 39 30 160 56 39 160 56 39 63 45 31 62 44 30 54 36 22 62 44 30 62 44 30 62 44 30 62 44 30 62 44 30 52 34 20 61 43 29 62 44 30 59 41 27 56 38 24 53 35 21 61 43 29 62 44 30 54 36 22 57 39 25 52 34 20 55 37 23 56 38 24 53 35 21 54 36 22 53 35 21 60 42 28 59 41 27 62 44 30 51 33 19 62 44 30 58 40 26 55 37 23 61 43 29 63 45 31 56 38 24 56 38 24 52 34 20 58 40 26 57 39 25 55 37 23 62 44 30 52 34 20 63 45 31 57 39 25 59 41 27 56 38 24 59 41 27 55 37 23 56 38 24 62 44 30 61 43 29 52 34 20 60 42 28 58 40 26 56 38 24 61 43 29 56 38 24 57 39 25 63 45 31 54 36 22 60 42 28 57 39 25 52 34 20 62 44 30 63 45 31 55 37 23 55 37 23 62 44 30 61 43 29 61 43 29 57 39 25 58 40 26 61 43 29 57 39 25 62 44 30 53 35 21 53 35 21 60 42 28 57 39 25 148 44 27 148 44 27 192 152 56 192 152 56 195 155 59 196 156 60 165 139 50 195 155 59 195 155 59 202 162 66 191 151 55 186 146 50 53 35 21 56 38 24 57 39 25 57 39 25 52 34 20 56 38 24 56 38 24 61 43 29 62 44 30 53 35 21 53 35 21 56 38 24 55 37 23 59 41 27 51 33 19 52 34 20 52 34 20 59 41 27 52 34 20
55 37 23 59 41 27 54 36 22 55 37 23 58 40 26 61 43 29 62 44 30 52 34 20 58 40 26 53 35 21 54 36 22 59 41 27 62 44 30 152 48 31 163 59 42 127 36 27 131 41 31 161 57 40 157 53 36 52 34 20 63 45 31 59 41 27 61 43 29 60 42 28 57 39 25 56 38 24 54 36 22 59 41 27 63 45 31 61 43 29 54 36 22 58 40 26 53 35 21 51 33 19 54 36 22 61 43 29 56 38 24 53 35 21 58 40 26 54 36 22 53 35 21 55 37 23 54 36 22 53 35 21 60 42 28 51 33 19 60 42 28 55 37 23 57 39 25 58 40 26 60 42 28 56 38 24 55 37 23 59 41 27 53 35 21 59 41 27 54 36 22 62 44 30 54 36 22 61 43 29 61 43 29 51 33 19 57 39 25 60 42 28 59 41 27 60 42 28 60 42 28 63 45 31 53 35 21 59 41 27 60 42 28 63 45 31 56 38 24 55 37 23 57 39 25 61 43 29 63 45 31 62 44 30 54 36 22 62 44 30 62 44 30 62 44 30 62 44 30 62 44 30 52 34 20 60 42 28 62 44 30 59 41 27 56 38 24 53 35 21 61 43 29 62 44 30 54 36 22 57 39 25 52 34 20 55 37 23 56 38 24 53 35 21 54 36 22 189 149 53 199 159 63 201 161 65 206 166 70 166 139 51 176 150 61 202 162 66 197 157 61 200 160 64 198 158 62 56 38 24 56 38 24 52 34 20 58 40 26 57 39 25 55 37 23 62 44 30 52 34 20 63 45 31 57 39 25 59 41 27 56 38 24 59 41 27 55 37 23 56 38 24 62 44 30 61 43 29 52 34 20 60 42 28
57 39 25 59 41 27 59 41 27 58 40 26 61 43 29 53 35 21 56 38 24 56 38 24 55 37 23 55 37 23 58 40 26 51 33 19 51 33 19 152 48 31 152 48 31 130 40 30 129 39 29 157 53 36 149 45 28 59 41 27 56 38 24 61 43 29 59 41 27 52 34 20 51 33 19 55 37 23 58 40 26 63 45 31 62 44 30 52 34 20 62 44 30 57 39 25 52 34 20 55 37 23 52 34 20 60 42 28 51 33 19 60 42 28 55 37 23 52 34 20 56 38 24 60 42 28 60 42 28 59 41 27 52 34 20 58 40 26 53 35 21 59 41 27 55 37 23 58 40 26 55 37 23 54 36 22 54 36 22 60 42 28 61 43 29 53 35 21 63 45 31 55 37 23 59 41 27 54 36 22 55 37 23 58 40 26 61 43 29 62 44 30 52 34 20 58 40 26 53 35 21 54 36 22 59 41 27 61 43 29 57 39 25 63 45 31 54 36 22 57 39 25 59 41 27 60 42 28 52 34 20 63 45 31 59 41 27 62 44 30 60 42 28 57 39 25 56 38 24 54 36 22 59 41 27 63 45 31 61 43 29 54 36 22 58 40 26 53 35 21 51 33 19 54 36 22 61 43 29 56 38 24 53 35 21 58 40 26 54 36 22 53 35 21 55 37 23 189 149 53 192 152 56 202 162 66 195 155 59 174 148 59 170 144 55 201 161 65 201 161 65 201 161 65 192 152 56 55 37 23 59 41 27 53 35 21 59 41 27 54 36 22 62 44 30 54 36 22 61 43 29 61 43 29 51 33 19 57 39 25 60 42 28 59 41 27 60 42 28 60 42 28 63 45 31 53 35 21 59 41 27 60 42 28
51 33 19 52 34 20 59 41 27 61 43 29 56 38 24 59 41 27 54 36 22 57 39 25 57 39 25 58 40 26 52 34 20 57 39 25 51 33 19 158 54 37 158 54 37 127 37 27 156 52 35 154 50 33 56 38 24 53 35 21 61 43 29 58 40 26 59 41 27 59 41 27 57 39 25 57 39 25 63 45 31 52 34 20 62 44 30 55 37 23 62 44 30 53 35 21 55 37 23 55 37 23 51 33 19 61 43 29 62 44 30 56 38 24 52 34 20 58 40 26 54 36 22 54 36 22 58 40 26 52 34 20 56 38 24 62 44 30 61 43 29 51 33 19 55 37 23 55 37 23 53 35 21 62 44 30 55 37 23 62 44 30 52 34 20 63 45 31 57 39 25 57 39 25 59 41 27 59 41 27 58 40 26 61 43 29 53 35 21 56 38 24 56 38 24 55 37 23 55 37 23 58 40 26 63 45 31 51 33 19 57 39 25 52 34 20 58 40 26 57 39 25 57 39 25 54 36 22 59 41 27 56 38 24 61 43 29 59 41 27 52 34 20 51 33 19 55 37 23 58 40 26 63 45 31 62 44 30 52 34 20 62 44 30 57 39 25 52 34 20 55 37 23 52 34 20 60 42 28 51 33 19 60 42 28 55 37 23 52 34 20 56 38 24 60 42 28 194 154 58 197 157 61 193 153 57 201 161 65 197 157 61 174 148 59 199 159 63 201 161 65 196 156 60 192 152 56 188 148 52 60 42 28 61 43 29 53 35 21 63 45 31 56 38 24 59 41 27 54 36 22 55 37 23 57 39 25 60 42 28 62 44 30 52 34 20 58 40 26 53 35 21 54 36 22 59 41 27 61 43 29 57 39 25
57 39 25 60 42 28 62 44 30 59 41 27 63 45 31 52 34 20 60 42 28 59 41 27 57 39 25 54 36 22 63 45 31 57 39 25 61 43 29 154 50 33 153 49 32 123 33 23 157 53 36 147 43 26 62 44 30 61 43 29 57 39 25 55 37 23 54 36 22 59 41 27 55 37 23 63 45 31 53 35 21 61 43 29 60 42 28 54 36 22 54 36 22 55 37 23 58 40 26 55 37 23 59 41 27 53 35 21 58 40 26 52 34 20 59 41 27 60 42 28 60 42 28 56 38 24 52 34 20 55 37 23 60 42 28 51 33 19 60 42 28 52 34 20 55 37 23 52 34 20 57 39 25 62 44 30 52 34 20 62 44 30 63 45 31 58 40 26 55 37 23 51 33 19 52 34 20 59 41 27 61 43 29 56 38 24 193 153 57 188 148 52 192 152 56 191 151 55 191 151 55 52 34 20 57 39 25 51 33 19 63 45 31 58 40 26 55 37 23 55 37 23 56 38 24 56 38 24 53 35 21 61 43 29 58 40 26 59 41 27 59 41 27 57 39 25 57 39 25 63 45 31 52 34 20 62 44 30 55 37 23 62 44 30 53 35 21 55 37 23 55 37 23 51 33 19 61 43 29 62 44 30 56 38 24 52 34 20 58 40 26 54 36 22 54 36 22 58 40 26 189 149 53 196 156 60 205 165 69 205 165 69 166 140 51 170 143 55 199 159 63 195 155 59 201 161 65 190 150 54 62 44 30 52 34 20 63 45 31 57 39 25 57 39 25 59 41 27 59 41 27 58 40 26 61 43 29 53 35 21 56 38 24 56 38 24 55 37 23 55 37 23 58 40 26 63 45 31 51 33 19 57 39 25
62 44 30 62 44 30 62 44 30 54 36 22 62 44 30 63 45 31 61 43 29 57 39 25 55 37 23 56 38 24 63 45 31 60 42 28 59 41 27 148 44 27 131 40 31 129 38 29 157 53 36 59 41 27 60 42 28 57 39 25 51 33 19 61 43 29 61 43 29 54 36 22 62 44 30 54 36 22 59 41 27 53 35 21 59 41 27 55 37 23 56 38 24 60 42 28 58 40 26 57 39 25 55 37 23 60 42 28 51 33 19 60 42 28 53 35 21 54 36 22 55 37 23 53 35 21 54 36 22 58 40 26 53 35 21 56 38 24 61 43 29 54 36 22 51 33 19 53 35 21 58 40 26 54 36 22 61 43 29 63 45 31 59 41 27 54 36 22 56 38 24 57 39 25 60 42 28 61 43 29 59 41 27 166 140 51 157 131 42 196 156 60 195 155 59 194 154 58 190 150 54 198 158 62 191 151 55 61 43 29 59 41 27 54 36 22 53 35 21 58 40 26 52 34 20 62 44 30 61 43 29 58 40 26 55 37 23 54 36 22 59 41 27 55 37 23 63 45 31 53 35 21 61 43 29 60 42 28 54 36 22 54 36 22 55 37 23 58 40 26 55 37 23 59 41 27 53 35 21 58 40 26 51 33 19 59 41 27 60 42 28 60 42 28 56 38 24 52 34 20 190 150 54 199 159 63 205 165 69 203 163 67 166 140 51 170 143 55 196 156 60 199 159 63 202 162 66 188 148 52 158 54 37 159 55 38 154 50 33 151 47 30 147 43 26 147 43 26 154 50 33 61 43 29 56 38 24 59 41 27 54 36 22 58 40 26 57 39 25 58 40 26 52 34 20 57 39 25 51 33 19 51 33 19
62 44 30 52 34 20 57 39 25 60 42 28 54 36 22 63 45 31 57 39 25 56 38 24 61 43 29 56 38 24 58 40 26 60 42 28 52 34 20 155 51 34 129 38 29 123 32 23 149 45 28 59 41 27 56 38 24 59 41 27 57 39 25 63 45 31 52 34 20 62 44 30 55 37 23 57 39 25 58 40 26 52 34 20 56 38 24 56 38 24 63 45 31 61 43 29 55 37 23 58 40 26 62 44 30 51 33 19 62 44 30 59 41 27 60 42 28 53 35 21 54 36 22 53 35 21 56 38 24 55 37 23 52 34 20 57 39 25 54 36 22 62 44 30 61 43 29 53 35 21 56 38 24 59 41 27 62 44 30 61 43 29 52 34 20 62 44 30 62 44 30 62 44 30 62 44 30 62 44 30 54 36 22 197 157 61 169 142 54 168 141 53 195 155 59 193 153 57 194 154 58 200 160 64 197 157 61 195 155 59 187 147 51 63 45 31 60 42 28 60 42 28 59 41 27 60 42 28 57 39 25 51 33 19 61 43 29 61 43 29 54 36 22 62 44 30 54 36 22 59 41 27 53 35 21 59 41 27 55 37 23 56 38 24 60 42 28 58 40 26 57 39 25 55 37 23 60 42 28 51 33 19 60 42 28 53 35 21 54 36 22 55 37 23 53 35 21 54 36 22 192 152 56 191 151 55 197 157 61 204 164 68 199 159 63 166 139 51 197 157 61 200 160 64 194 154 58 161 57 40 163 59 42 160 56 39 154 50 33 156 52 35 156 52 35 159 55 38 159 55 38 156 52 35 159 55 38 147 43 26 60 42 28 59 41 27 57 39 25 54 36 22 63 45 31 57 39 25 62 44 30 59 41 27
54 36 22 60 42 28 58 40 26 57 39 25 53 35 21 57 39 25 58 40 26 54 36 22 62 44 30 57 39 25 61 43 29 52 34 20 59 41 27 52 34 20 117 26 17 146 42 25 59 41 27 55 37 23 56 38 24 53 35 21 53 35 21 62 44 30 61 43 29 56 38 24 56 38 24 52 34 20 57 39 25 57 39 25 56 38 24 53 35 21 52 34 20 53 35 21 61 43 29 52 34 20 51 33 19 63 45 31 52 34 20 53 35 21 51 33 19 55 37 23 52 34 20 54 36 22 57 39 25 60 42 28 53 35 21 53 35 21 62 44 30 57 39 25 61 43 29 58 40 26 57 39 25 61 43 29 61 43 29 62 44 30 55 37 23 55 37 23 63 45 31 62 44 30 52 34 20 57 39 25 60 42 28 189 149 53 200 160 64 165 139 50 165 139 50 201 161 65 196 156 60 198 158 62 199 159 63 190 150 54 197 157 61 197 157 61 56 38 24 55 37 23 59 41 27 56 38 24 59 41 27 57 39 25 63 45 31 52 34 20 62 44 30 55 37 23 57 39 25 58 40 26 52 34 20 56 38 24 56 38 24 63 45 31 61 43 29 55 37 23 58 40 26 62 44 30 51 33 19 62 44 30 59 41 27 60 42 28 53 35 21 54 36 22 147 43 26 152 48 31 152 48 31 151 47 30 197 157 61 196 156 60 206 166 70 175 149 60 167 140 52 198 158 62 162 58 41 166 62 45 164 60 43 155 51 34 165 61 44 164 60 43 163 59 42 163 59 42 162 58 41 153 49 32 130 40 30 130 39 30 126 35 26 57 39 25 55 37 23 56 38 24 63 45 31 60 42 28 59 41 27 53 35 21
62 44 30 56 38 24 60 42 28 56 38 24 57 39 25 59 41 27 59 41 27 55 37 23 55 37 23 62 44 30 51 33 19 57 39 25 53 35 21 59 41 27 59 41 27 58 40 26 55 37 23 52 34 20 61 43 29 54 36 22 60 42 28 60 42 28 57 39 25 54 36 22 58 40 26 63 45 31 59 41 27 55 37 23 55 37 23 55 37 23 51 33 19 52 34 20 55 37 23 51 33 19 52 34 20 57 39 25 58 40 26 62 44 30 56 38 24 51 33 19 52 34 20 59 41 27 55 37 23 61 43 29 52 34 20 61 43 29 54 36 22 57 39 25 59 41 27 55 37 23 60 42 28 62 44 30 61 43 29 61 43 29 60 42 28 52 34 20 61 43 29 54 36 22 60 42 28 58 40 26 57 39 25 188 148 52 194 154 58 196 156 60 164 138 49 172 146 57 198 158 62 202 162 66 192 152 56 199 159 63 191 151 55 189 149 53 187 147 51 192 152 56 55 37 23 56 38 24 53 35 21 53 35 21 62 44 30 61 43 29 56 38 24 56 38 24 52 34 20 57 39 25 57 39 25 55 37 23 53 35 21 52 34 20 53 35 21 61 43 29 52 34 20 51 33 19 63 45 31 52 34 20 53 35 21 52 34 20 150 46 29 148 44 27 152 48 31 156 52 35 160 56 39 155 51 34 156 52 35 165 61 44 162 58 41 166 62 45 163 59 42 162 58 41 167 63 46 167 63 46 138 47 38 130 39 30 129 38 29 136 46 36 134 44 34 124 33 24 128 37 28 130 40 30 122 32 22 130 39 30 122 32 22 56 38 24 61 43 29 56 38 24 58 40 26 60 42 28 52 34 20 61 43 29
54 36 22 51 33 19 59 41 27 58 40 26 60 42 28 52 34 20 60 42 28 53 35 21 52 34 20 51 33 19 56 38 24 55 37 23 55 37 23 55 37 23 57 39 25 54 36 22 61 43 29 57 39 25 56 38 24 58 40 26 59 41 27 57 39 25 53 35 21 52 34 20 56 38 24 60 42 28 55 37 23 57 39 25 58 40 26 61 43 29 56 38 24 57 39 25 51 33 19 53 35 21 62 44 30 51 33 19 60 42 28 57 39 25 51 33 19 63 45 31 60 42 28 63 45 31 57 39 25 51 33 19 61 43 29 63 45 31 53 35 21 61 43 29 53 35 21 59 41 27 63 45 31 59 41 27 55 37 23 54 36 22 53 35 21 61 43 29 56 38 24 62 44 30 56 38 24 60 42 28 56 38 24 192 152 56 195 155 59 198 158 62 195 155 59 166 140 51 174 148 59 193 153 57 200 160 64 195 155 59 200 160 64 199 159 63 196 156 60 191 151 55 186 146 50 61 43 29 54 36 22 60 42 28 60 42 28 57 39 25 54 36 22 58 40 26 63 45 31 59 41 27 55 37 23 55 37 23 55 37 23 51 33 19 52 34 20 55 37 23 51 33 19 52 34 20 57 39 25 58 40 26 62 44 30 152 48 31 149 45 28 151 47 30 159 55 38 157 53 36 164 60 43 126 35 26 135 45 35 129 38 29 132 42 32 135 45 35 131 41 31 136 46 36 138 48 38 137 46 37 136 46 36 135 44 35 126 36 26 135 44 35 157 53 36 161 57 40 159 55 38 156 52 35 151 47 30 153 49 32 57 39 25 54 36 22 62 44 30 57 39 25 61 43 29 52 34 20 59 41 27 52 34 20
55 37 23 62 44 30 58 40 26 61 43 29 56 38 24 53 35 21 51 33 19 53 35 21 51 33 19 55 37 23 57 39 25 62 44 30 63 45 31 56 38 24 54 36 22 58 40 26 54 36 22 58 40 26 55 37 23 57 39 25 58 40 26 51 33 19 58 40 26 62 44 30 62 44 30 55 37 23 58 40 26 60 42 28 59 41 27 59 41 27 60 42 28 52 34 20 54 36 22 54 36 22 56 38 24 58 40 26 58 40 26 51 33 19 61 43 29 62 44 30 58 40 26 53 35 21 63 45 31 60 42 28 59 41 27 62 44 30 51 33 19 63 45 31 58 40 26 51 33 19 58 40 26 61 43 29 59 41 27 55 37 23 61 43 29 58 40 26 53 35 21 54 36 22 52 34 20 59 41 27 57 39 25 193 153 57 188 148 52 198 158 62 193 153 57 193 153 57 163 137 48 169 142 54 199 159 63 198 158 62 198 158 62 199 159 63 195 155 59 200 160 64 194 154 58 191 151 55 58 40 26 59 41 27 57 39 25 53 35 21 52 34 20 56 38 24 60 42 28 55 37 23 57 39 25 58 40 26 61 43 29 56 38 24 57 39 25 51 33 19 53 35 21 62 44 30 51 33 19 60 42 28 122 32 22 118 28 18 131 41 31 130 40 30 134 43 34 129 39 29 124 34 24 134 44 34 137 46 37 128 38 28 136 46 36 158 54 37 165 61 44 168 64 47 164 60 43 159 55 38 158 54 37 157 53 36 164 60 43 158 54 37 163 59 42 156 52 35 158 54 37 152 48 31 152 48 31 59 41 27 59 41 27 55 37 23 55 37 23 62 44 30 51 33 19 57 39 25 53 35 21 59 41 27
53 35 21 58 40 26 61 43 29 60 42 28 57 39 25 62 44 30 54 36 22 51 33 19 53 35 21 59 41 27 57 39 25 58 40 26 55 37 23 54 36 22 55 37 23 62 44 30 60 42 28 53 35 21 55 37 23 58 40 26 62 44 30 52 34 20 56 38 24 51 33 19 54 36 22 60 42 28 62 44 30 58 40 26 63 45 31 51 33 19 52 34 20 55 37 23 58 40 26 61 43 29 57 39 25 60 42 28 51 33 19 60 42 28 52 34 20 53 35 21 60 42 28 62 44 30 60 42 28 57 39 25 58 40 26 53 35 21 60 42 28 56 38 24 52 34 20 56 38 24 55 37 23 53 35 21 56 38 24 60 42 28 59 41 27 55 37 23 53 35 21 55 37 23 62 44 30 58 40 26 61 43 29 56 38 24 188 148 52 189 149 53 193 153 57 192 152 56 197 157 61 170 144 55 176 149 61 207 167 71 200 160 64 197 157 61 200 160 64 195 155 59 197 157 61 192 152 56 192 152 56 58 40 26 51 33 19 58 40 26 62 44 30 61 43 29 55 37 23 58 40 26 60 42 28 60 42 28 59 41 27 60 42 28 52 34 20 54 36 22 54 36 22 56 38 24 58 40 26 58 40 26 116 26 16 128 37 28 130 40 30 157 53 36 153 49 32 164 60 43 162 58 41 162 58 41 164 60 43 154 50 33 166 62 45 161 57 40 155 51 34 161 57 40 163 59 42 161 57 40 156 52 35 161 57 40 157 53 36 151 47 30 152 48 31 147 43 26 153 49 32 57 39 25 60 42 28 52 34 20 60 42 28 53 35 21 52 34 20 51 33 19 56 38 24 55 37 23 55 37 23 55 37 23
59 41 27 117 72 40 108 63 31 117 72 40 116 71 39 112 67 35 52 34 20 52 34 20 60 42 28 52 34 20 53 35 21 54 36 22 54 36 22 53 35 21 59 41 27 62 44 30 62 44 30 54 36 22 58 40 26 60 42 28 59 41 27 62 44 30 53 35 21 53 35 21 61 43 29 52 34 20 56 38 24 55 37 23 55 37 23 53 35 21 56 38 24 62 44 30 53 35 21 55 37 23 61 43 29 52 34 20 59 41 27 54 36 22 60 42 28 55 37 23 60 42 28 60 42 28 54 36 22 55 37 23 55 37 23 58 40 26 55 37 23 52 34 20 55 37 23 61 43 29 59 41 27 58 40 26 60 42 28 60 42 28 57 39 25 63 45 31 59 41 27 53 35 21 58 40 26 61 43 29 60 42 28 57 39 25 195 155 59 191 151 55 190 150 54 194 154 58 201 161 65 200 160 64 172 146 57 170 143 55 198 158 62 199 159 63 206 166 70 203 163 67 194 154 58 194 154 58 195 155 59 196 156 60 52 34 20 56 38 24 63 45 31 54 36 22 60 42 28 62 44 30 58 40 26 51 33 19 51 33 19 52 34 20 55 37 23 58 40 26 61 43 29 57 39 25 60 42 28 51 33 19 60 42 28 147 43 26 149 45 28 157 53 36 160 56 39 159 55 38 156 52 35 158 54 37 153 49 32 160 56 39 157 53 36 191 151 55 197 157 61 165 139 50 193 153 57 194 154 58 157 53 36 155 51 34 150 46 29 53 35 21 55 37 23 62 44 30 58 40 26 61 43 29 56 38 24 53 35 21 52 34 20 53 35 21 51 33 19 54 36 22 57 39 25 62 44 30 63 45 31 56 38 24
123 78 46 117 72 40 114 69 37 119 74 42 118 73 41 113 68 36 111 66 34 120 75 43 115 70 38 116 71 39 53 35 21 54 36 22 62 44 30 56 38 24 52 34 20 59 41 27 51 33 19 58 40 26 59 41 27 53 35 21 57 39 25 54 36 22 53 35 21 62 44 30 54 36 22 54 36 22 59 41 27 58 40 26 53 35 21 57 39 25 54 36 22 58 40 26 53 35 21 51 33 19 52 34 20 58 40 26 55 37 23 55 37 23 62 44 30 59 41 27 60 42 28 51 33 19 52 34 20 57 39 25 55 37 23 52 34 20 52 34 20 54 36 22 56 38 24 54 36 22 59 41 27 59 41 27 61 43 29 59 41 27 61 43 29 63 45 31 57 39 25 59 41 27 62 44 30 52 34 20 62 44 30 60 42 28 56 38 24 187 147 51 190 150 54 200 160 64 193 153 57 196 156 60 198 158 62 168 142 53 168 141 53 174 148 59 206 166 70 206 166 70 196 156 60 199 159 63 199 159 63 195 155 59 196 156 60 53 35 21 53 35 21 61 43 29 52 34 20 56 38 24 55 37 23 55 37 23 53 35 21 56 38 24 62 44 30 53 35 21 55 37 23 61 43 29 52 34 20 59 41 27 54 36 22 60 42 28 55 37 23 61 43 29 154 50 33 149 45 28 150 46 29 151 47 30 153 49 32 150 46 29 188 148 52 193 153 57 200 160 64 168 142 53 166 140 51 197 157 61 195 155 59 57 39 25 63 45 31 59 41 27 53 35 21 58 40 26 61 43 29 60 42 28 57 39 25 62 44 30 55 37 23 51 33 19 53 35 21 59 41 27 57 39 25 114 69 37 113 68 36 113 68 36
123 78 46 122 77 45 120 75 43 124 79 47 117 72 40 126 81 49 114 69 37 114 69 37 114 69 37 110 65 33 110 65 33 60 42 28 53 35 21 54 36 22 56 38 24 61 43 29 58 40 26 58 40 26 60 42 28 52 34 20 56 38 24 52 34 20 62 44 30 56 38 24 52 34 20 51 33 19 62 44 30 54 36 22 57 39 25 58 40 26 62 44 30 51 33 19 53 35 21 53 35 21 57 39 25 57 39 25 61 43 29 57 39 25 58 40 26 60 42 28 61 43 29 61 43 29 59 41 27 52 34 20 62 44 30 52 34 20 53 35 21 63 45 31 60 42 28 61 43 29 58 40 26 62 44 30 61 43 29 59 41 27 55 37 23 60 42 28 59 41 27 63 45 31 56 38 24 54 36 22 58 40 26 58 40 26 52 34 20 51 33 19 198 158 62 196 156 60 200 160 64 195 155 59 197 157 61 207 167 71 171 145 56 167 141 52 174 148 59 196 156 60 202 162 66 201 161 65 194 154 58 195 155 59 190 150 54 52 34 20 62 44 30 54 36 22 54 36 22 59 41 27 58 40 26 53 35 21 57 39 25 54 36 22 58 40 26 53 35 21 51 33 19 52 34 20 58 40 26 55 37 23 55 37 23 63 45 31 59 41 27 60 42 28 51 33 19 52 34 20 57 39 25 55 37 23 52 34 20 52 34 20 187 147 51 192 152 56 191 151 55 167 141 52 166 140 51 198 158 62 194 154 58 61 43 29 63 45 31 57 39 25 59 41 27 62 44 30 52 34 20 62 44 30 60 42 28 56 38 24 52 34 20 52 34 20 116 71 39 109 64 32 112 67 35 115 70 38 116 71 39 116 71 39
128 83 51 120 75 43 128 83 51 121 76 44 97 66 41 88 57 32 93 61 37 94 62 38 93 62 37 83 52 27 85 54 29 63 45 31 56 38 24 53 35 21 58 40 26 58 40 26 57 39 25 55 37 23 58 40 26 58 40 26 62 44 30 63 45 31 58 40 26 62 44 30 56 38 24 54 36 22 55 37 23 58 40 26 61 43 29 54 36 22 61 43 29 55 37 23 54 36 22 56 38 24 58 40 26 56 38 24 52 34 20 57 39 25 60 42 28 59 41 27 58 40 26 61 43 29 61 43 29 60 42 28 52 34 20 51 33 19 58 40 26 55 37 23 63 45 31 57 39 25 63 45 31 51 33 19 57 39 25 59 41 27 52 34 20 60 42 28 51 33 19 60 42 28 58 40 26 56 38 24 60 42 28 53 35 21 62 44 30 52 34 20 186 146 50 191 151 55 190 150 54 195 155 59 202 162 66 197 157 61 198 158 62 171 144 56 176 149 61 173 146 58 202 162 66 203 163 67 193 153 57 195 155 59 189 149 53 197 157 61 56 38 24 52 34 20 51 33 19 62 44 30 54 36 22 57 39 25 58 40 26 62 44 30 51 33 19 53 35 21 53 35 21 57 39 25 57 39 25 61 43 29 57 39 25 58 40 26 60 42 28 61 43 29 61 43 29 59 41 27 52 34 20 62 44 30 52 34 20 53 35 21 63 45 31 194 154 58 197 157 61 195 155 59 168 142 53 197 157 61 193 153 57 55 37 23 60 42 28 59 41 27 63 45 31 56 38 24 54 36 22 58 40 26 58 40 26 52 34 20 51 33 19 119 74 42 117 72 40 121 76 44 115 70 38 117 72 40 127 82 50 122 77 45
89 58 33 89 58 33 93 61 37 98 66 42 91 59 35 88 56 32 89 58 33 93 62 37 115 70 38 115 70 38 117 72 40 58 40 26 62 44 30 56 38 24 58 40 26 56 38 24 63 45 31 53 35 21 59 41 27 61 43 29 63 45 31 59 41 27 60 42 28 60 42 28 58 40 26 56 38 24 58 40 26 53 35 21 58 40 26 59 41 27 57 39 25 55 37 23 56 38 24 60 42 28 62 44 30 58 40 26 55 37 23 60 42 28 57 39 25 55 37 23 51 33 19 57 39 25 57 39 25 52 34 20 62 44 30 53 35 21 62 44 30 52 34 20 56 38 24 63 45 31 53 35 21 55 37 23 52 34 20 56 38 24 61 43 29 52 34 20 51 33 19 62 44 30 54 36 22 62 44 30 55 37 23 62 44 30 53 35 21 59 41 27 61 43 29 159 55 38 122 32 22 197 157 61 203 163 67 198 158 62 196 156 60 203 163 67 203 163 67 171 145 56 169 143 54 202 162 66 200 160 64 203 163 67 201 161 65 194 154 58 196 156 60 56 38 24 54 36 22 55 37 23 58 40 26 61 43 29 54 36 22 61 43 29 55 37 23 54 36 22 56 38 24 58 40 26 56 38 24 52 34 20 57 39 25 60 42 28 59 41 27 58 40 26 61 43 29 61 43 29 60 42 28 52 34 20 51 33 19 58 40 26 55 37 23 63 45 31 191 151 55 198 158 62 156 130 41 191 151 55 59 41 27 52 34 20 60 42 28 51 33 19 60 42 28 58 40 26 56 38 24 60 42 28 53 35 21 62 44 30 108 63 31 111 66 34 115 70 38 84 52 28 88 56 32 95 64 39 89 58 33 90 59 34
121 76 44 124 79 47 127 82 50 122 77 45 123 78 46 125 80 48 122 77 45 116 71 39 114 69 37 115 70 38 60 42 28 58 40 26 53 35 21 58 40 26 55 37 23 58 40 26 61 43 29 61 43 29 60 42 28 63 45 31 61 43 29 59 41 27 53 35 21 63 45 31 56 38 24 59 41 27 56 38 24 61 43 29 57 39 25 60 42 28 57 39 25 55 37 23 61 43 29 56 38 24 52 34 20 54 36 22 61 43 29 56 38 24 53 35 21 53 35 21 54 36 22 54 36 22 52 34 20 61 43 29 60 42 28 57 39 25 54 36 22 55 37 23 63 45 31 54 36 22 53 35 21 57 39 25 61 43 29 62 44 30 52 34 20 54 36 22 53 35 21 52 34 20 52 34 20 56 38 24 61 43 29 55 37 23 53 35 21 55 37 23 61 43 29 152 48 31 126 35 26 129 39 29 197 157 61 202 162 66 198 158 62 201 161 65 200 160 64 207 167 71 167 141 52 173 146 58 204 164 68 204 164 68 199 159 63 198 158 62 195 155 59 58 40 26 55 37 23 58 40 26 53 35 21 58 40 26 59 41 27 57 39 25 55 37 23 56 38 24 60 42 28 62 44 30 58 40 26 55 37 23 60 42 28 57 39 25 55 37 23 63 45 31 57 39 25 57 39 25 52 34 20 62 44 30 53 35 21 62 44 30 52 34 20 56 38 24 63 45 31 186 146 50 159 132 44 155 129 40 56 38 24 61 43 29 52 34 20 51 33 19 62 44 30 54 36 22 62 44 30 55 37 23 62 44 30 53 35 21 86 54 30 90 59 34 93 62 37 87 55 31 92 61 36 97 66 41 91 60 35 119 74 42
123 78 46 125 80 48 121 76 44 115 70 38 117 72 40 119 74 42 115 70 38 112 67 35 111 66 34 62 44 30 54 36 22 61 43 29 57 39 25 54 36 22 54 36 22 56 38 24 63 45 31 58 40 26 63 45 31 62 44 30 57 39 25 58 40 26 56 38 24 58 40 26 59 41 27 59 41 27 52 34 20 55 37 23 62 44 30 58 40 26 55 37 23 63 45 31 61 43 29 58 40 26 53 35 21 61 43 29 54 36 22 63 45 31 55 37 23 62 44 30 63 45 31 51 33 19 60 42 28 56 38 24 52 34 20 56 38 24 53 35 21 63 45 31 55 37 23 52 34 20 61 43 29 53 35 21 63 45 31 53 35 21 57 39 25 57 39 25 62 44 30 55 37 23 57 39 25 61 43 29 56 38 24 59 41 27 61 43 29 59 41 27 55 37 23 153 49 32 128 37 28 130 40 30 156 52 35 191 151 55 198 158 62 197 157 61 201 161 65 204 164 68 204 164 68 173 146 58 175 149 60 202 162 66 199 159 63 191 151 55 199 159 63 190 150 54 58 40 26 56 38 24 61 43 29 57 39 25 60 42 28 57 39 25 55 37 23 61 43 29 56 38 24 52 34 20 54 36 22 61 43 29 56 38 24 53 35 21 53 35 21 54 36 22 54 36 22 52 34 20 61 43 29 60 42 28 57 39 25 54 36 22 55 37 23 63 45 31 54 36 22 53 35 21 57 39 25 61 43 29 62 44 30 52 34 20 54 36 22 53 35 21 52 34 20 52 34 20 56 38 24 61 43 29 55 37 23 53 35 21 112 67 35 119 74 42 114 69 37 118 73 41 122 77 45 121 76 44 125 80 48 120 75 43
121 76 44 119 74 42 117 72 40 120 75 43 114 69 37 113 68 36 53 35 21 54 36 22 52 34 20 62 44 30 58 40 26 57 39 25 53 35 21 62 44 30 52 34 20 53 35 21 57 39 25 62 44 30 63 45 31 55 37 23 51 33 19 60 42 28 59 41 27 59 41 27 61 43 29 56 38 24 53 35 21 53 35 21 60 42 28 55 37 23 52 34 20 55 37 23 52 34 20 63 45 31 62 44 30 53 35 21 60 42 28 57 39 25 58 40 26 60 42 28 63 45 31 60 42 28 52 34 20 60 42 28 58 40 26 52 34 20 63 45 31 56 38 24 62 44 30 55 37 23 58 40 26 52 34 20 53 35 21 60 42 28 60 42 28 60 42 28 58 40 26 59 41 27 61 43 29 57 39 25 52 34 20 55 37 23 58 40 26 56 38 24 54 36 22 153 49 32 163 59 42 126 35 26 162 58 41 194 154 58 192 152 56 194 154 58 197 157 61 205 165 69 201 161 65 205 165 69 174 147 59 168 142 53 198 158 62 194 154 58 194 154 58 193 153 57 59 41 27 53 35 21 55 37 23 62 44 30 58 40 26 55 37 23 63 45 31 61 43 29 58 40 26 53 35 21 61 43 29 54 36 22 63 45 31 55 37 23 62 44 30 63 45 31 51 33 19 60 42 28 56 38 24 52 34 20 56 38 24 53 35 21 63 45 31 55 37 23 52 34 20 62 44 30 53 35 21 63 45 31 53 35 21 57 39 25 57 39 25 62 44 30 55 37 23 57 39 25 61 43 29 56 38 24 59 41 27 62 44 30 59 41 27 111 66 34 112 67 35 116 71 39 119 74 42 118 73 41 113 68 36 118 73 41
116 71 39 118 73 41 55 37 23 55 37 23 57 39 25 52 34 20 52 34 20 54 36 22 58 40 26 54 36 22 56 38 24 52 34 20 58 40 26 59 41 27 55 37 23 55 37 23 62 44 30 52 34 20 53 35 21 57 39 25 54 36 22 60 42 28 59 41 27 51 33 19 59 41 27 51 33 19 56 38 24 62 44 30 54 36 22 53 35 21 60 42 28 58 40 26 61 43 29 63 45 31 52 34 20 59 41 27 59 41 27 54 36 22 56 38 24 62 44 30 59 41 27 60 42 28 55 37 23 60 42 28 62 44 30 62 44 30 57 39 25 60 42 28 60 42 28 63 45 31 53 35 21 53 35 21 62 44 30 51 33 19 58 40 26 60 42 28 61 43 29 60 42 28 59 41 27 58 40 26 61 43 29 56 38 24 56 38 24 53 35 21 53 35 21 149 45 28 163 59 42 131 40 31 158 54 37 152 48 31 198 158 62 189 149 53 192 152 56 197 157 61 203 163 67 192 152 56 196 156 60 162 135 47 170 144 55 197 157 61 196 156 60 196 156 60 56 38 24 53 35 21 53 35 21 60 42 28 54 36 22 52 34 20 55 37 23 52 34 20 51 33 19 62 44 30 53 35 21 60 42 28 57 39 25 58 40 26 60 42 28 63 45 31 60 42 28 52 34 20 60 42 28 58 40 26 51 33 19 63 45 31 57 39 25 62 44 30 55 37 23 58 40 26 52 34 20 53 35 21 60 42 28 60 42 28 60 42 28 58 40 26 59 41 27 61 43 29 57 39 25 52 34 20 55 37 23 58 40 26 56 38 24 54 36 22 55 37 23 62 44 30 54 36 22 117 72 40 113 68 36 110 65 33
56 38 24 60 42 28 53 35 21 58 40 26 51 33 19 62 44 30 55 37 23 54 36 22 62 44 30 55 37 23 52 34 20 55 37 23 55 37 23 56 38 24 53 35 21 61 43 29 53 35 21 52 34 20 62 44 30 59 41 27 61 43 29 59 41 27 54 36 22 62 44 30 61 43 29 59 41 27 53 35 21 54 36 22 55 37 23 53 35 21 51 33 19 60 42 28 52 34 20 52 34 20 57 39 25 61 43 29 62 44 30 52 34 20 62 44 30 58 40 26 56 38 24 51 33 19 61 43 29 60 42 28 61 43 29 58 40 26 59 41 27 53 35 21 56 38 24 54 36 22 53 35 21 53 35 21 54 36 22 56 38 24 51 33 19 52 34 20 60 42 28 60 42 28 63 45 31 55 37 23 55 37 23 57 39 25 52 34 20 52 34 20 54 36 22 154 50 33 155 51 34 129 39 29 126 35 26 159 55 38 155 51 34 189 149 53 192 152 56 200 160 64 191 151 55 193 153 57 196 156 60 193 153 57 169 142 54 167 140 52 188 148 52 194 154 58 51 33 19 56 38 24 62 44 30 54 36 22 53 35 21 60 42 28 58 40 26 61 43 29 63 45 31 52 34 20 58 40 26 59 41 27 54 36 22 56 38 24 62 44 30 59 41 27 60 42 28 55 37 23 59 41 27 62 44 30 62 44 30 58 40 26 60 42 28 60 42 28 63 45 31 53 35 21 53 35 21 62 44 30 51 33 19 58 40 26 60 42 28 61 43 29 60 42 28 59 41 27 58 40 26 61 43 29 56 38 24 56 38 24 53 35 21 53 35 21 52 34 20 62 44 30 58 40 26 57 39 25 53 35 21 62 44 30
53 35 21 51 33 19 59 41 27 51 33 19 60 42 28 57 39 25 61 43 29 58 40 26 54 36 22 51 33 19 51 33 19 51 33 19 58 40 26 63 45 31 60 42 28 53 35 21 62 44 30 56 38 24 52 34 20 62 44 30 59 41 27 56 38 24 52 34 20 60 42 28 62 44 30 55 37 23 55 37 23 56 38 24 58 40 26 56 38 24 58 40 26 53 35 21 51 33 19 55 37 23 62 44 30 58 40 26 60 42 28 61 43 29 58 40 26 53 35 21 59 41 27 51 33 19 58 40 26 60 42 28 59 41 27 57 39 25 59 41 27 61 43 29 56 38 24 53 35 21 55 37 23 57 39 25 55 37 23 54 36 22 54 36 22 60 42 28 61 43 29 56 38 24 60 42 28 53 35 21 58 40 26 51 33 19 62 44 30 55 37 23 54 36 22 158 54 37 156 52 35 126 35 26 129 38 29 157 53 36 154 50 33 53 35 21 195 155 59 188 148 52 189 149 53 200 160 64 197 157 61 199 159 63 197 157 61 161 134 46 168 141 53 196 156 60 59 41 27 53 35 21 54 36 22 55 37 23 53 35 21 51 33 19 60 42 28 52 34 20 52 34 20 57 39 25 60 42 28 62 44 30 52 34 20 62 44 30 58 40 26 56 38 24 51 33 19 61 43 29 60 42 28 61 43 29 58 40 26 59 41 27 53 35 21 56 38 24 54 36 22 53 35 21 53 35 21 54 36 22 57 39 25 51 33 19 52 34 20 60 42 28 60 42 28 63 45 31 55 37 23 55 37 23 57 39 25 52 34 20 52 34 20 54 36 22 58 40 26 54 36 22 56 38 24 53 35 21 58 40 26 59 41 27
