P3
128 128
255
43 16 0 43 16 0 43 16 0 43 16 0 43 16 0 43 16 0 43 16 0 43 16 0 43 16 0 43 16 0 43 16 0 43 16 0 43 16 0 43 16 0 43 16 0 43 16 0 43 16 0 43 16 0 43 16 0 43 16 0 43 16 0 43 16 0 43 16 0 43 16 0 43 16 0 43 16 0 43 16 0 43 16 0 43 16 0 43 16 0 43 16 0 43 16 0 43 16 0 43 16 0 43 16 0 43 16 0 43 16 0 43 16 0 43 16 0 43 16 0 43 16 0 43 16 0 43 16 0 43 16 0 43 16 0 43 16 0 43 16 0 43 16 0 43 16 0 43 16 0 43 16 0 43 16 0 43 16 0 43 16 0 43 16 0 43 16 0 43 16 0 43 16 0 43 16 0 43 16 0 43 16 0 43 16 0 43 16 0 43 16 0 43 16 0 43 16 0 43 16 0 43 16 0 43 16 0 43 16 0 43 16 0 43 16 0 43 16 0 43 16 0 43 16 0 43 16 0 43 16 0 43 16 0 43 16 0 43 16 0 43 16 0 43 16 0 43 16 0 43 16 0 43 16 0 43 16 0 43 16 0 43 16 0 43 16 0 43 16 0 43 16 0 43 16 0 43 16 0 43 16 0 43 16 0 43 16 0 43 16 0 43 16 0 43 16 0 43 16 0 43 16 0 43 16 0 43 16 0 43 16 0 43 16 0 43 16 0 43 16 0 43 16 0 43 16 0 43 16 0 43 16 0 43 16 0 43 16 0 43 16 0 43 16 0 43 16 0 43 16 0 43 16 0 43 16 0 43 16 0 43 16 0 43 16 0 43 16 0 43 16 0 43 16 0 43 16 0 43 16 0 43 16 0
43 16 0 43 16 0 43 16 0 43 16 0 43 16 0 43 16 0 43 16 0 43 16 0 43 16 0 43 16 0 43 16 0 43 16 0 43 16 0 43 16 0 43 16 0 43 16 0 43 16 0 43 16 0 43 16 0 43 16 0 43 16 0 43 16 0 43 16 0 43 16 0 43 16 0 43 16 0 43 16 0 43 16 0 43 16 0 43 16 0 43 16 0 43 16 0 43 16 0 43 16 0 43 16 0 43 16 0 43 16 0 43 16 0 43 16 0 43 16 0 43 16 0 43 16 0 43 16 0 43 16 0 43 16 0 43 16 0 43 16 0 43 16 0 43 16 0 43 16 0 43 16 0 43 16 0 43 16 0 43 16 0 43 16 0 43 16 0 43 16 0 43 16 0 43 16 0 43 16 0 43 16 0 43 16 0 43 16 0 43 16 0 43 16 0 43 16 0 43 16 0 43 16 0 43 16 0 43 16 0 43 16 0 43 16 0 43 16 0 43 16 0 43 16 0 43 16 0 43 16 0 43 16 0 43 16 0 43 16 0 43 16 0 43 16 0 43 16 0 43 16 0 43 16 0 43 16 0 43 16 0 43 16 0 43 16 0 43 16 0 43 16 0 43 16 0 43 16 0 43 16 0 43 16 0 43 16 0 43 16 0 43 16 0 43 16 0 43 16 0 43 16 0 43 16 0 43 16 0 43 16 0 43 16 0 43 16 0 43 16 0 43 16 0 43 16 0 43 16 0 43 16 0 43 16 0 43 16 0 43 16 0 43 16 0 43 16 0 43 16 0 43 16 0 43 16 0 43 16 0 43 16 0 43 16 0 43 16 0 43 16 0 43 16 0 43 16 0 43 16 0 43 16 0
68 41 25 63 36 20 75 48 32 74 47 31 76 49 33 69 42 26 79 52 36 70 43 27 66 39 23 77 50 34 65 38 22 64 37 21 73 46 30 68 41 25 59 32 16 62 35 19 61 34 18 63 36 20 62 35 19 60 33 17 70 43 27 70 43 27 64 37 21 75 48 32 75 48 32 71 44 28 78 51 35 72 45 29 69 42 26 77 50 34 76 49 33 76 49 33 75 48 32 62 35 19 67 40 24 66 39 23 60 33 17 63 36 20 55 28 12 59 32 16 55 28 12 60 33 17 56 29 13 64 37 21 58 31 15 66 39 23 62 35 19 67 40 24 75 48 32 72 45 29 74 47 31 61 34 18 69 42 26 63 36 20 65 38 22 66 39 23 54 27 11 59 32 16 54 27 11 46 19 3 51 24 8 56 29 13 48 21 5 50 23 7 65 38 22 66 39 23 62 35 19 66 39 23 65 38 22 70 43 27 74 47 31 75 48 32 66 39 23 68 41 25 72 45 29 72 45 29 57 30 14 64 37 21 57 30 14 55 28 12 63 36 20 65 38 22 53 26 10 67 40 24 59 32 16 62 35 19 62 35 19 75 48 32 73 46 30 77 50 34 80 53 37 77 50 34 82 55 39 70 43 27 73 46 30 76 49 33 71 44 28 75 48 32 66 39 23 62 35 19 65 38 22 63 36 20 69 42 26 65 38 22 66 39 23 65 38 22 65 38 22 60 33 17 62 35 19 65 38 22 65 38 22 76 49 33 79 52 36 72 45 29 78 51 35 74 47 31 64 37 21 75 48 32 71 44 28 64 37 21 63 36 20 56 29 13 56 29 13 56 29 13 59 32 16 51 24 8 55 28 12 55 28 12
65 38 22 64 37 21 64 37 21 65 38 22 67 40 24 75 48 32 81 54 38 78 51 35 80 53 37 71 44 28 67 40 24 70 43 27 61 34 18 66 39 23 61 34 18 63 36 20 58 31 15 66 39 23 58 31 15 66 39 23 69 42 26 74 47 31 77 50 34 67 40 24 73 46 30 80 53 37 76 49 33 73 46 30 71 44 28 75 48 32 70 43 27 76 49 33 70 43 27 62 35 19 60 33 17 63 36 20 54 27 11 60 33 17 54 27 11 64 37 21 58 31 15 58 31 15 65 38 22 69 42 26 60 33 17 70 43 27 72 45 29 68 41 25 70 43 27 63 36 20 68 41 25 73 46 30 71 44 28 60 33 17 63 36 20 58 31 15 57 30 14 59 32 16 55 28 12 49 22 6 59 32 16 59 32 16 51 24 8 50 23 7 53 26 10 63 36 20 67 40 24 61 34 18 64 37 21 65 38 22 65 38 22 74 47 31 73 46 30 74 47 31 61 34 18 60 33 17 69 42 26 68 41 25 57 30 14 62 35 19 53 26 10 61 34 18 53 26 10 54 27 11 62 35 19 71 44 28 69 42 26 69 42 26 69 42 26 79 52 36 80 53 37 76 49 33 77 50 34 76 49 33 78 51 35 79 52 36 69 42 26 77 50 34 66 39 23 71 44 28 67 40 24 71 44 28 65 38 22 58 31 15 69 42 26 66 39 23 69 42 26 63 36 20 63 36 20 74 47 31 67 40 24 77 50 34 68 41 25 75 48 32 75 48 32 77 50 34 66 39 23 64 37 21 64 37 21 71 44 28 60 33 17 62 35 19 58 31 15 53 26 10 56 29 13 56 29 13 49 22 6 57 30 14
62 35 19 70 43 27 65 38 22 67 40 24 73 46 30 79 52 36 68 41 25 73 46 30 68 41 25 78 51 35 64 37 21 64 37 21 69 42 26 63 36 20 63 36 20 70 43 27 59 32 16 60 33 17 61 34 18 68 41 25 71 44 28 63 36 20 74 47 31 75 48 32 78 51 35 82 55 39 83 56 40 81 54 38 82 55 39 72 45 29 77 50 34 68 41 25 63 36 20 67 40 24 63 36 20 55 28 12 66 39 23 58 31 15 59 32 16 55 28 12 55 28 12 66 39 23 57 30 14 63 36 20 66 39 23 72 45 29 66 39 23 66 39 23 71 44 28 70 43 27 61 34 18 65 38 22 63 36 20 59 32 16 67 40 24 59 32 16 51 24 8 53 26 10 53 26 10 55 28 12 51 24 8 58 31 15 50 23 7 53 26 10 64 37 21 65 38 22 62 35 19 71 44 28 65 38 22 65 38 22 70 43 27 73 46 30 71 44 28 74 47 31 61 34 18 66 39 23 66 39 23 57 30 14 67 40 24 60 33 17 59 32 16 65 38 22 56 29 13 55 28 12 68 41 25 60 33 17 67 40 24 71 44 28 66 39 23 79 52 36 75 48 32 82 55 39 72 45 29 71 44 28 75 48 32 75 48 32 72 45 29 73 46 30 70 43 27 68 41 25 61 34 18 58 31 15 67 40 24 57 30 14 64 37 21 59 32 16 65 38 22 60 33 17 62 35 19 65 38 22 75 48 32 73 46 30 67 40 24 70 43 27 80 53 37 73 46 30 71 44 28 76 49 33 74 47 31 68 41 25 56 29 13 57 30 14 55 28 12 61 34 18 59 32 16 62 35 19 55 28 12 59 32 16
71 44 28 63 36 20 68 41 25 67 40 24 68 41 25 81 54 38 78 51 35 73 46 30 69 42 26 74 47 31 71 44 28 62 35 19 63 36 20 59 32 16 60 33 17 60 33 17 67 40 24 64 37 21 67 40 24 71 44 28 68 41 25 63 36 20 75 48 32 71 44 28 78 51 35 71 44 28 75 48 32 80 53 37 81 54 38 80 53 37 79 52 36 65 38 22 69 42 26 67 40 24 65 38 22 55 28 12 61 34 18 62 35 19 59 32 16 63 36 20 54 27 11 57 30 14 61 34 18 58 31 15 71 44 28 63 36 20 68 41 25 67 40 24 64 37 21 74 47 31 62 35 19 72 45 29 62 35 19 62 35 19 62 35 19 57 30 14 58 31 15 56 29 13 61 34 18 50 23 7 53 26 10 52 25 9 56 29 13 50 23 7 61 34 18 55 28 12 67 40 24 67 40 24 66 39 23 70 43 27 62 35 19 66 39 23 64 37 21 61 34 18 71 44 28 62 35 19 70 43 27 59 32 16 65 38 22 65 38 22 63 36 20 60 33 17 59 32 16 63 36 20 59 32 16 57 30 14 73 46 30 74 47 31 66 39 23 71 44 28 68 41 25 82 55 39 83 56 40 83 56 40 80 53 37 70 43 27 72 45 29 68 41 25 69 42 26 71 44 28 63 36 20 63 36 20 57 30 14 64 37 21 66 39 23 66 39 23 62 35 19 62 35 19 65 38 22 73 46 30 65 38 22 72 45 29 68 41 25 68 41 25 70 43 27 77 50 34 66 39 23 74 47 31 74 47 31 67 40 24 64 37 21 55 28 12 60 33 17 57 30 14 55 28 12 57 30 14 61 34 18 55 28 12
70 43 27 65 38 22 63 36 20 70 43 27 73 46 30 78 51 35 77 50 34 67 40 24 69 42 26 65 38 22 67 40 24 69 42 26 68 41 25 70 43 27 58 31 15 57 30 14 56 29 13 57 30 14 60 33 17 62 35 19 73 46 30 72 45 29 74 47 31 78 51 35 80 53 37 77 50 34 77 50 34 69 42 26 70 43 27 71 44 28 66 39 23 74 47 31 70 43 27 64 37 21 64 37 21 67 40 24 63 36 20 53 26 10 60 33 17 56 29 13 61 34 18 63 36 20 60 33 17 65 38 22 71 44 28 71 44 28 67 40 24 62 35 19 62 35 19 67 40 24 62 35 19 69 42 26 64 37 21 58 31 15 61 34 18 55 28 12 54 27 11 50 23 7 59 32 16 52 25 9 56 29 13 58 31 15 55 28 12 59 32 16 52 25 9 59 32 16 62 35 19 68 41 25 70 43 27 61 34 18 66 39 23 71 44 28 74 47 31 71 44 28 65 38 22 69 42 26 67 40 24 68 41 25 59 32 16 60 33 17 52 25 9 53 26 10 63 36 20 61 34 18 68 41 25 59 32 16 62 35 19 68 41 25 68 41 25 72 45 29 70 43 27 77 50 34 80 53 37 74 47 31 79 52 36 68 41 25 69 42 26 69 42 26 66 39 23 68 41 25 71 44 28 62 35 19 64 37 21 60 33 17 68 41 25 64 37 21 62 35 19 68 41 25 69 42 26 71 44 28 69 42 26 77 50 34 74 47 31 71 44 28 73 46 30 79 52 36 73 46 30 70 43 27 70 43 27 72 45 29 63 36 20 63 36 20 62 35 19 53 26 10 61 34 18 53 26 10 53 26 10 50 23 7
63 36 20 68 41 25 64 37 21 70 43 27 70 43 27 69 42 26 74 47 31 71 44 28 70 43 27 78 51 35 65 38 22 71 44 28 63 36 20 69 42 26 62 35 19 69 42 26 63 36 20 68 41 25 66 39 23 65 38 22 66 39 23 63 36 20 73 46 30 73 46 30 67 40 24 79 52 36 75 48 32 70 43 27 69 42 26 82 55 39 67 40 24 70 43 27 68 41 25 64 37 21 68 41 25 65 38 22 66 39 23 64 37 21 65 38 22 64 37 21 53 26 10 57 30 14 55 28 12 64 37 21 58 31 15 70 43 27 63 36 20 61 34 18 74 47 31 65 38 22 62 35 19 73 46 30 67 40 24 65 38 22 58 31 15 63 36 20 62 35 19 57 30 14 54 27 11 47 20 4 53 26 10 54 27 11 52 25 9 61 34 18 53 26 10 54 27 11 60 33 17 67 40 24 71 44 28 68 41 25 69 42 26 71 44 28 63 36 20 69 42 26 65 38 22 69 42 26 57 30 14 62 35 19 54 27 11 58 31 15 63 36 20 56 29 13 66 39 23 60 33 17 68 41 25 62 35 19 72 45 29 69 42 26 71 44 28 75 48 32 73 46 30 69 42 26 72 45 29 74 47 31 75 48 32 80 53 37 76 49 33 69 42 26 73 46 30 69 42 26 61 34 18 58 31 15 58 31 15 66 39 23 59 32 16 59 32 16 66 39 23 63 36 20 73 46 30 71 44 28 66 39 23 76 49 33 72 45 29 68 41 25 68 41 25 77 50 34 69 42 26 63 36 20 66 39 23 67 40 24 58 31 15 60 33 17 51 24 8 60 33 17 50 23 7 50 23 7 62 35 19 55 28 12
68 41 25 71 44 28 68 41 25 71 44 28 74 47 31 77 50 34 78 51 35 68 41 25 77 50 34 69 42 26 71 44 28 63 36 20 64 37 21 65 38 22 61 34 18 70 43 27 59 32 16 66 39 23 63 36 20 65 38 22 72 45 29 72 45 29 65 38 22 74 47 31 67 40 24 82 55 39 76 49 33 79 52 36 78 51 35 73 46 30 71 44 28 73 46 30 69 42 26 60 33 17 59 32 16 58 31 15 55 28 12 55 28 12 59 32 16 55 28 12 65 38 22 56 29 13 65 38 22 63 36 20 63 36 20 70 43 27 67 40 24 61 34 18 75 48 32 67 40 24 65 38 22 62 35 19 69 42 26 61 34 18 67 40 24 52 25 9 54 27 11 52 25 9 47 20 4 58 31 15 56 29 13 60 33 17 60 33 17 55 28 12 54 27 11 62 35 19 58 31 15 70 43 27 63 36 20 74 47 31 67 40 24 64 37 21 66 39 23 67 40 24 68 41 25 72 45 29 61 34 18 68 41 25 58 31 15 55 28 12 59 32 16 54 27 11 54 27 11 60 33 17 69 42 26 67 40 24 61 34 18 72 45 29 75 48 32 74 47 31 69 42 26 76 49 33 75 48 32 71 44 28 82 55 39 74 47 31 68 41 25 76 49 33 73 46 30 69 42 26 60 33 17 71 44 28 67 40 24 63 36 20 59 32 16 58 31 15 69 42 26 70 43 27 63 36 20 75 48 32 75 48 32 77 50 34 78 51 35 80 53 37 69 42 26 66 39 23 72 45 29 71 44 28 74 47 31 60 33 17 68 41 25 58 31 15 54 27 11 56 29 13 55 28 12 57 30 14 59 32 16 56 29 13
69 42 26 64 37 21 75 48 32 70 43 27 68 41 25 69 42 26 78 51 35 68 41 25 75 48 32 73 46 30 74 47 31 72 45 29 67 40 24 59 32 16 69 42 26 61 34 18 57 30 14 58 31 15 57 30 14 58 31 15 73 46 30 66 39 23 74 47 31 75 48 32 74 47 31 76 49 33 70 43 27 80 53 37 75 48 32 75 48 32 68 41 25 78 51 35 72 45 29 65 38 22 61 34 18 61 34 18 62 35 19 53 26 10 54 27 11 54 27 11 53 26 10 61 34 18 63 36 20 58 31 15 65 38 22 63 36 20 73 46 30 67 40 24 72 45 29 65 38 22 66 39 23 67 40 24 62 35 19 65 38 22 60 33 17 59 32 16 57 30 14 54 27 11 59 32 16 49 22 6 52 25 9 51 24 8 49 22 6 50 23 7 59 32 16 58 31 15 68 41 25 67 40 24 60 33 17 71 44 28 67 40 24 71 44 28 65 38 22 64 37 21 62 35 19 58 31 15 57 30 14 66 39 23 65 38 22 55 28 12 53 26 10 61 34 18 61 34 18 62 35 19 57 30 14 58 31 15 61 34 18 75 48 32 75 48 32 75 48 32 71 44 28 71 44 28 71 44 28 71 44 28 74 47 31 76 49 33 79 52 36 76 49 33 65 38 22 72 45 29 67 40 24 57 30 14 60 33 17 57 30 14 68 41 25 68 41 25 59 32 16 60 33 17 69 42 26 69 42 26 75 48 32 76 49 33 73 46 30 71 44 28 68 41 25 68 41 25 77 50 34 76 49 33 69 42 26 69 42 26 58 31 15 62 35 19 65 38 22 53 26 10 50 23 7 56 29 13 53 26 10 58 31 15
69 42 26 70 43 27 73 46 30 78 51 35 73 46 30 80 53 37 78 51 35 78 51 35 69 42 26 78 51 35 77 50 34 72 45 29 61 34 18 62 35 19 65 38 22 59 32 16 70 43 27 63 36 20 58 31 15 66 39 23 64 37 21 70 43 27 67 40 24 71 44 28 76 49 33 73 46 30 83 56 40 80 53 37 72 45 29 79 52 36 79 52 36 77 50 34 68 41 25 63 36 20 63 36 20 56 29 13 63 36 20 62 35 19 57 30 14 53 26 10 63 36 20 65 38 22 57 30 14 60 33 17 59 32 16 72 45 29 63 36 20 74 47 31 69 42 26 69 42 26 62 35 19 72 45 29 59 32 16 62 35 19 68 41 25 65 38 22 63 36 20 49 22 6 58 31 15 48 21 5 59 32 16 59 32 16 59 32 16 50 23 7 58 31 15 66 39 23 58 31 15 58 31 15 69 42 26 64 37 21 73 46 30 69 42 26 73 46 30 63 36 20 69 42 26 61 34 18 62 35 19 66 39 23 55 28 12 61 34 18 63 36 20 55 28 12 55 28 12 67 40 24 59 32 16 59 32 16 63 36 20 73 46 30 65 38 22 73 46 30 79 52 36 76 49 33 72 45 29 83 56 40 79 52 36 67 40 24 77 50 34 65 38 22 72 45 29 73 46 30 70 43 27 68 41 25 56 29 13 58 31 15 63 36 20 59 32 16 66 39 23 65 38 22 67 40 24 65 38 22 71 44 28 75 48 32 68 41 25 70 43 27 74 47 31 77 50 34 67 40 24 71 44 28 63 36 20 67 40 24 68 41 25 59 32 16 57 30 14 53 26 10 62 35 19 51 24 8 54 27 11 58 31 15
62 35 19 68 41 25 66 39 23 68 41 25 68 41 25 77 50 34 76 49 33 68 41 25 77 50 34 66 39 23 76 49 33 64 37 21 60 33 17 68 41 25 63 36 20 60 33 17 57 30 14 69 42 26 68 41 25 60 33 17 73 46 30 72 45 29 65 38 22 66 39 23 71 44 28 77 50 34 71 44 28 83 56 40 76 49 33 72 45 29 76 49 33 64 37 21 65 38 22 60 33 17 68 41 25 64 37 21 63 36 20 56 29 13 59 32 16 62 35 19 59 32 16 61 34 18 59 32 16 63 36 20 69 42 26 64 37 21 74 47 31 69 42 26 65 38 22 62 35 19 73 46 30 65 38 22 60 33 17 56 29 13 66 39 23 55 28 12 58 31 15 50 23 7 59 32 16 47 20 4 51 24 8 53 26 10 61 34 18 50 23 7 57 30 14 66 39 23 67 40 24 60 33 17 63 36 20 65 38 22 63 36 20 65 38 22 73 46 30 68 41 25 61 34 18 64 37 21 69 42 26 68 41 25 54 27 11 58 31 15 60 33 17 56 29 13 65 38 22 66 39 23 55 28 12 70 43 27 68 41 25 63 36 20 65 38 22 78 51 35 73 46 30 74 47 31 77 50 34 71 44 28 71 44 28 68 41 25 69 42 26 66 39 23 63 36 20 65 38 22 64 37 21 57 30 14 60 33 17 56 29 13 59 32 16 70 43 27 69 42 26 65 38 22 64 37 21 70 43 27 76 49 33 67 40 24 72 45 29 78 51 35 69 42 26 79 52 36 77 50 34 67 40 24 69 42 26 59 32 16 68 41 25 66 39 23 55 28 12 53 26 10 49 22 6 59 32 16 56 29 13 58 31 15
66 39 23 72 45 29 70 43 27 74 47 31 76 49 33 77 50 34 77 50 34 69 42 26 68 41 25 68 41 25 71 44 28 66 39 23 69 42 26 66 39 23 70 43 27 65 38 22 67 40 24 69 42 26 65 38 22 60 33 17 61 34 18 64 37 21 68 41 25 69 42 26 73 46 30 81 54 38 82 55 39 77 50 34 72 45 29 68 41 25 74 47 31 77 50 34 72 45 29 69 42 26 71 44 28 59 32 16 55 28 12 61 34 18 60 33 17 60 33 17 54 27 11 62 35 19 65 38 22 63 36 20 60 33 17 69 42 26 68 41 25 73 46 30 70 43 27 70 43 27 71 44 28 67 40 24 68 41 25 59 32 16 64 37 21 53 26 10 56 29 13 50 23 7 55 28 12 47 20 4 51 24 8 49 22 6 52 25 9 56 29 13 54 27 11 57 30 14 69 42 26 69 42 26 63 36 20 68 41 25 65 38 22 73 46 30 70 43 27 65 38 22 67 40 24 69 42 26 61 34 18 61 34 18 65 38 22 64 37 21 63 36 20 63 36 20 55 28 12 63 36 20 64 37 21 65 38 22 60 33 17 70 43 27 65 38 22 72 45 29 75 48 32 78 51 35 82 55 39 82 55 39 77 50 34 80 53 37 66 39 23 77 50 34 68 41 25 66 39 23 69 42 26 71 44 28 64 37 21 64 37 21 69 42 26 57 30 14 70 43 27 67 40 24 70 43 27 73 46 30 69 42 26 70 43 27 69 42 26 73 46 30 71 44 28 79 52 36 72 45 29 73 46 30 60 33 17 65 38 22 67 40 24 66 39 23 61 34 18 57 30 14 54 27 11 55 28 12 52 25 9 63 36 20
70 43 27 61 34 18 73 46 30 73 46 30 69 42 26 72 45 29 77 50 34 80 53 37 73 46 30 65 38 22 70 43 27 65 38 22 63 36 20 67 40 24 66 39 23 58 31 15 63 36 20 65 38 22 66 39 23 64 37 21 64 37 21 74 47 31 70 43 27 70 43 27 80 53 37 70 43 27 80 53 37 77 50 34 72 45 29 71 44 28 67 40 24 69 42 26 71 44 28 72 45 29 59 32 16 59 32 16 57 30 14 64 37 21 60 33 17 61 34 18 64 37 21 56 29 13 59 32 16 68 41 25 65 38 22 69 42 26 73 46 30 63 36 20 74 47 31 71 44 28 62 35 19 71 44 28 60 33 17 61 34 18 58 31 15 55 28 12 60 33 17 50 23 7 59 32 16 47 20 4 57 30 14 54 27 11 48 21 5 60 33 17 62 35 19 63 36 20 58 31 15 65 38 22 68 41 25 66 39 23 64 37 21 73 46 30 65 38 22 71 44 28 72 45 29 72 45 29 63 36 20 60 33 17 60 33 17 57 30 14 65 38 22 62 35 19 59 32 16 63 36 20 69 42 26 65 38 22 66 39 23 73 46 30 67 40 24 76 49 33 76 49 33 80 53 37 71 44 28 76 49 33 80 53 37 76 49 33 68 41 25 73 46 30 72 45 29 71 44 28 68 41 25 61 34 18 69 42 26 61 34 18 69 42 26 57 30 14 67 40 24 71 44 28 74 47 31 72 45 29 70 43 27 77 50 34 68 41 25 69 42 26 69 42 26 67 40 24 71 44 28 73 46 30 71 44 28 67 40 24 63 36 20 56 29 13 55 28 12 58 31 15 60 33 17 57 30 14 53 26 10 61 34 18
61 34 18 64 37 21 64 37 21 67 40 24 70 43 27 80 53 37 80 53 37 77 50 34 77 50 34 73 46 30 66 39 23 71 44 28 61 34 18 70 43 27 61 34 18 69 42 26 58 31 15 65 38 22 68 41 25 63 36 20 65 38 22 68 41 25 77 50 34 73 46 30 73 46 30 76 49 33 74 47 31 79 52 36 72 45 29 74 47 31 66 39 23 73 46 30 72 45 29 63 36 20 61 34 18 56 29 13 57 30 14 53 26 10 64 37 21 63 36 20 52 25 9 58 31 15 59 32 16 59 32 16 69 42 26 69 42 26 64 37 21 67 40 24 73 46 30 66 39 23 61 34 18 66 39 23 66 39 23 57 30 14 58 31 15 65 38 22 56 29 13 60 33 17 58 31 15 57 30 14 52 25 9 58 31 15 59 32 16 60 33 17 55 28 12 54 27 11 59 32 16 65 38 22 61 34 18 65 38 22 71 44 28 65 38 22 70 43 27 70 43 27 64 37 21 59 32 16 61 34 18 56 29 13 64 37 21 66 39 23 61 34 18 64 37 21 59 32 16 66 39 23 58 31 15 61 34 18 71 44 28 63 36 20 75 48 32 67 40 24 77 50 34 80 53 37 75 48 32 75 48 32 69 42 26 68 41 25 79 52 36 73 46 30 62 35 19 65 38 22 72 45 29 62 35 19 65 38 22 57 30 14 58 31 15 67 40 24 62 35 19 60 33 17 70 43 27 68 41 25 70 43 27 69 42 26 77 50 34 69 42 26 67 40 24 75 48 32 70 43 27 68 41 25 64 37 21 65 38 22 68 41 25 53 26 10 57 30 14 58 31 15 57 30 14 61 34 18 61 34 18 53 26 10
69 42 26 74 47 31 69 42 26 75 48 32 72 45 29 76 49 33 72 45 29 69 42 26 67 40 24 73 46 30 73 46 30 70 43 27 61 34 18 60 33 17 70 43 27 70 43 27 68 41 25 64 37 21 63 36 20 64 37 21 70 43 27 74 47 31 73 46 30 73 46 30 81 54 38 81 54 38 80 53 37 80 53 37 73 46 30 70 43 27 73 46 30 74 47 31 66 39 23 65 38 22 61 34 18 67 40 24 61 34 18 61 34 18 54 27 11 56 29 13 65 38 22 57 30 14 60 33 17 57 30 14 58 31 15 62 35 19 67 40 24 69 42 26 63 36 20 64 37 21 73 46 30 69 42 26 68 41 25 63 36 20 66 39 23 62 35 19 52 25 9 60 33 17 56 29 13 57 30 14 51 24 8 58 31 15 60 33 17 52 25 9 54 27 11 56 29 13 70 43 27 65 38 22 67 40 24 65 38 22 64 37 21 70 43 27 68 41 25 63 36 20 65 38 22 67 40 24 58 31 15 68 41 25 67 40 24 55 28 12 61 34 18 55 28 12 56 29 13 64 37 21 59 32 16 61 34 18 70 43 27 71 44 28 67 40 24 67 40 24 69 42 26 75 48 32 74 47 31 83 56 40 80 53 37 75 48 32 71 44 28 77 50 34 73 46 30 68 41 25 59 32 16 59 32 16 63 36 20 62 35 19 58 31 15 62 35 19 69 42 26 67 40 24 66 39 23 67 40 24 75 48 32 68 41 25 68 41 25 78 51 35 70 43 27 76 49 33 71 44 28 68 41 25 74 47 31 62 35 19 66 39 23 66 39 23 64 37 21 56 29 13 61 34 18 53 26 10 58 31 15 63 36 20
59 32 16 68 41 25 70 43 27 75 48 32 76 49 33 78 51 35 75 48 32 77 50 34 67 40 24 65 38 22 68 41 25 70 43 27 65 38 22 62 35 19 64 37 21 64 37 21 66 39 23 58 31 15 61 34 18 70 43 27 66 39 23 72 45 29 74 47 31 66 39 23 73 46 30 80 53 37 70 43 27 75 48 32 76 49 33 80 53 37 69 42 26 74 47 31 70 43 27 66 39 23 60 33 17 56 29 13 55 28 12 60 33 17 56 29 13 56 29 13 57 30 14 53 26 10 60 33 17 66 39 23 65 38 22 72 45 29 62 35 19 70 43 27 75 48 32 70 43 27 63 36 20 71 44 28 65 38 22 62 35 19 55 28 12 64 37 21 53 26 10 60 33 17 50 23 7 56 29 13 53 26 10 59 32 16 54 27 11 58 31 15 65 38 22 56 29 13 65 38 22 66 39 23 66 39 23 70 43 27 67 40 24 67 40 24 63 36 20 72 45 29 71 44 28 68 41 25 64 37 21 58 31 15 54 27 11 55 28 12 53 26 10 66 39 23 53 26 10 61 34 18 68 41 25 66 39 23 60 33 17 65 38 22 76 49 33 73 46 30 81 54 38 69 42 26 76 49 33 73 46 30 74 47 31 81 54 38 78 51 35 76 49 33 67 40 24 63 36 20 63 36 20 68 41 25 59 32 16 61 34 18 65 38 22 65 38 22 68 41 25 71 44 28 61 34 18 72 45 29 69 42 26 78 51 35 71 44 28 70 43 27 77 50 34 67 40 24 66 39 23 73 46 30 70 43 27 60 33 17 63 36 20 57 30 14 52 25 9 55 28 12 56 29 13 51 24 8 56 29 13 61 34 18
66 39 23 69 42 26 76 49 33 68 41 25 71 44 28 72 45 29 73 46 30 79 52 36 66 39 23 68 41 25 69 42 26 74 47 31 61 34 18 63 36 20 63 36 20 65 38 22 62 35 19 69 42 26 59 32 16 58 31 15 74 47 31 62 35 19 64 37 21 67 40 24 71 44 28 78 51 35 72 45 29 77 50 34 78 51 35 72 45 29 68 41 25 70 43 27 62 35 19 69 42 26 61 34 18 65 38 22 55 28 12 59 32 16 65 38 22 63 36 20 54 27 11 57 30 14 59 32 16 59 32 16 63 36 20 67 40 24 71 44 28 68 41 25 64 37 21 62 35 19 64 37 21 69 42 26 67 40 24 62 35 19 61 34 18 58 31 15 56 29 13 50 23 7 61 34 18 50 23 7 52 25 9 60 33 17 51 24 8 50 23 7 55 28 12 58 31 15 59 32 16 66 39 23 66 39 23 74 47 31 65 38 22 67 40 24 72 45 29 65 38 22 64 37 21 71 44 28 64 37 21 65 38 22 58 31 15 64 37 21 58 31 15 55 28 12 57 30 14 65 38 22 68 41 25 65 38 22 67 40 24 74 47 31 74 47 31 68 41 25 69 42 26 78 51 35 70 43 27 70 43 27 73 46 30 68 41 25 72 45 29 72 45 29 65 38 22 74 47 31 67 40 24 67 40 24 61 34 18 68 41 25 57 30 14 57 30 14 65 38 22 60 33 17 63 36 20 71 44 28 69 42 26 71 44 28 78 51 35 69 42 26 68 41 25 77 50 34 73 46 30 67 40 24 74 47 31 60 33 17 56 29 13 65 38 22 56 29 13 55 28 12 53 26 10 54 27 11 50 23 7 50 23 7
65 38 22 74 47 31 75 48 32 65 38 22 68 41 25 69 42 26 69 42 26 72 45 29 72 45 29 70 43 27 74 47 31 74 47 31 66 39 23 69 42 26 68 41 25 68 41 25 57 30 14 58 31 15 63 36 20 70 43 27 62 35 19 68 41 25 73 46 30 73 46 30 78 51 35 71 44 28 75 48 32 76 49 33 78 51 35 78 51 35 79 52 36 76 49 33 71 44 28 64 37 21 63 36 20 62 35 19 63 36 20 62 35 19 63 36 20 62 35 19 59 32 16 65 38 22 67 40 24 56 29 13 69 42 26 65 38 22 74 47 31 73 46 30 68 41 25 74 47 31 70 43 27 68 41 25 65 38 22 57 30 14 59 32 16 61 34 18 50 23 7 56 29 13 58 31 15 51 24 8 53 26 10 51 24 8 60 33 17 63 36 20 59 32 16 55 28 12 69 42 26 61 34 18 71 44 28 73 46 30 62 35 19 69 42 26 72 45 29 74 47 31 63 36 20 67 40 24 68 41 25 61 34 18 56 29 13 63 36 20 57 30 14 63 36 20 61 34 18 61 34 18 66 39 23 64 37 21 67 40 24 65 38 22 65 38 22 70 43 27 81 54 38 73 46 30 82 55 39 80 53 37 69 42 26 69 42 26 69 42 26 75 48 32 67 40 24 71 44 28 68 41 25 64 37 21 56 29 13 69 42 26 67 40 24 64 37 21 66 39 23 64 37 21 71 44 28 74 47 31 77 50 34 77 50 34 73 46 30 73 46 30 78 51 35 75 48 32 71 44 28 76 49 33 60 33 17 69 42 26 69 42 26 59 32 16 65 38 22 51 24 8 58 31 15 58 31 15 52 25 9 62 35 19
69 42 26 73 46 30 75 48 32 73 46 30 75 48 32 72 45 29 72 45 29 75 48 32 78 51 35 75 48 32 66 39 23 63 36 20 65 38 22 71 44 28 71 44 28 64 37 21 68 41 25 57 30 14 63 36 20 58 31 15 69 42 26 70 43 27 66 39 23 69 42 26 75 48 32 80 53 37 80 53 37 74 47 31 75 48 32 81 54 38 73 46 30 76 49 33 76 49 33 64 37 21 70 43 27 58 31 15 58 31 15 59 32 16 59 32 16 65 38 22 59 32 16 66 39 23 67 40 24 58 31 15 70 43 27 68 41 25 66 39 23 73 46 30 65 38 22 72 45 29 66 39 23 69 42 26 60 33 17 67 40 24 60 33 17 63 36 20 60 33 17 49 22 6 50 23 7 49 22 6 54 27 11 56 29 13 58 31 15 61 34 18 60 33 17 60 33 17 67 40 24 69 42 26 70 43 27 71 44 28 66 39 23 75 48 32 71 44 28 63 36 20 67 40 24 60 33 17 64 37 21 67 40 24 68 41 25 58 31 15 61 34 18 62 35 19 64 37 21 61 34 18 66 39 23 70 43 27 66 39 23 62 35 19 66 39 23 75 48 32 74 47 31 75 48 32 75 48 32 71 44 28 78 51 35 69 42 26 72 45 29 67 40 24 74 47 31 66 39 23 64 37 21 67 40 24 61 34 18 67 40 24 61 34 18 58 31 15 70 43 27 72 45 29 64 37 21 76 49 33 76 49 33 76 49 33 78 51 35 76 49 33 74 47 31 69 42 26 68 41 25 76 49 33 69 42 26 71 44 28 60 33 17 66 39 23 52 25 9 63 36 20 56 29 13 62 35 19 54 27 11 50 23 7
68 41 25 70 43 27 72 45 29 73 46 30 74 47 31 70 43 27 75 48 32 73 46 30 80 53 37 73 46 30 68 41 25 62 35 19 66 39 23 62 35 19 66 39 23 59 32 16 60 33 17 63 36 20 65 38 22 60 33 17 61 34 18 65 38 22 67 40 24 67 40 24 77 50 34 76 49 33 73 46 30 75 48 32 75 48 32 81 54 38 78 51 35 67 40 24 73 46 30 66 39 23 64 37 21 61 34 18 55 28 12 53 26 10 60 33 17 60 33 17 65 38 22 57 30 14 55 28 12 67 40 24 64 37 21 71 44 28 68 41 25 70 43 27 63 36 20 73 46 30 68 41 25 61 34 18 58 31 15 60 33 17 56 29 13 60 33 17 62 35 19 50 23 7 58 31 15 54 27 11 48 21 5 59 32 16 53 26 10 54 27 11 63 36 20 55 28 12 62 35 19 64 37 21 63 36 20 61 34 18 73 46 30 66 39 23 65 38 22 61 34 18 66 39 23 67 40 24 63 36 20 65 38 22 64 37 21 63 36 20 64 37 21 56 29 13 63 36 20 67 40 24 58 31 15 64 37 21 73 46 30 68 41 25 75 48 32 71 44 28 81 54 38 82 55 39 75 48 32 77 50 34 69 42 26 77 50 34 78 51 35 71 44 28 63 36 20 67 40 24 71 44 28 70 43 27 66 39 23 61 34 18 62 35 19 64 37 21 68 41 25 63 36 20 74 47 31 73 46 30 75 48 32 73 46 30 70 43 27 79 52 36 73 46 30 70 43 27 75 48 32 73 46 30 62 35 19 69 42 26 63 36 20 57 30 14 54 27 11 58 31 15 51 24 8 51 24 8 57 30 14 62 35 19
60 33 17 74 47 31 71 44 28 66 39 23 71 44 28 71 44 28 73 46 30 71 44 28 69 42 26 68 41 25 77 50 34 66 39 23 63 36 20 61 34 18 70 43 27 59 32 16 58 31 15 63 36 20 63 36 20 69 42 26 67 40 24 72 45 29 76 49 33 76 49 33 77 50 34 82 55 39 70 43 27 75 48 32 72 45 29 80 53 37 79 52 36 76 49 33 70 43 27 70 43 27 66 39 23 61 34 18 64 37 21 62 35 19 59 32 16 54 27 11 54 27 11 57 30 14 57 30 14 64 37 21 64 37 21 63 36 20 66 39 23 72 45 29 68 41 25 65 38 22 70 43 27 66 39 23 62 35 19 56 29 13 54 27 11 53 26 10 63 36 20 49 22 6 51 24 8 54 27 11 51 24 8 54 27 11 54 27 11 62 35 19 56 29 13 60 33 17 66 39 23 58 31 15 66 39 23 67 40 24 63 36 20 74 47 31 64 37 21 71 44 28 61 34 18 62 35 19 69 42 26 62 35 19 57 30 14 60 33 17 61 34 18 55 28 12 59 32 16 66 39 23 68 41 25 63 36 20 71 44 28 65 38 22 68 41 25 67 40 24 70 43 27 76 49 33 76 49 33 76 49 33 72 45 29 80 53 37 71 44 28 77 50 34 66 39 23 73 46 30 70 43 27 61 34 18 60 33 17 66 39 23 65 38 22 63 36 20 69 42 26 64 37 21 73 46 30 75 48 32 69 42 26 77 50 34 76 49 33 71 44 28 69 42 26 79 52 36 74 47 31 74 47 31 72 45 29 71 44 28 62 35 19 60 33 17 65 38 22 56 29 13 57 30 14 49 22 6 60 33 17 63 36 20
71 44 28 65 38 22 66 39 23 77 50 34 77 50 34 71 44 28 79 52 36 76 49 33 72 45 29 75 48 32 75 48 32 62 35 19 70 43 27 64 37 21 57 30 14 59 32 16 69 42 26 59 32 16 71 44 28 60 33 17 71 44 28 67 40 24 77 50 34 73 46 30 81 54 38 75 48 32 80 53 37 77 50 34 82 55 39 77 50 34 67 40 24 65 38 22 67 40 24 61 34 18 67 40 24 55 28 12 58 31 15 53 26 10 56 29 13 64 37 21 62 35 19 59 32 16 56 29 13 66 39 23 71 44 28 62 35 19 68 41 25 74 47 31 66 39 23 68 41 25 64 37 21 73 46 30 65 38 22 66 39 23 63 36 20 64 37 21 57 30 14 58 31 15 60 33 17 48 21 5 52 25 9 57 30 14 53 26 10 62 35 19 53 26 10 58 31 15 69 42 26 71 44 28 68 41 25 70 43 27 62 35 19 72 45 29 71 44 28 66 39 23 65 38 22 62 35 19 58 31 15 59 32 16 64 37 21 63 36 20 64 37 21 54 27 11 57 30 14 67 40 24 58 31 15 62 35 19 61 34 18 69 42 26 67 40 24 73 46 30 72 45 29 69 42 26 81 54 38 83 56 40 69 42 26 80 53 37 79 52 36 69 42 26 72 45 29 62 35 19 69 42 26 69 42 26 59 32 16 62 35 19 60 33 17 58 31 15 66 39 23 69 42 26 62 35 19 74 47 31 65 38 22 73 46 30 66 39 23 68 41 25 72 45 29 75 48 32 65 38 22 63 36 20 70 43 27 65 38 22 57 30 14 67 40 24 55 28 12 58 31 15 58 31 15 54 27 11 59 32 16 54 27 11
64 37 21 65 38 22 67 40 24 72 45 29 75 48 32 80 53 37 78 51 35 78 51 35 67 40 24 79 52 36 67 40 24 66 39 23 70 43 27 69 42 26 71 44 28 58 31 15 65 38 22 60 33 17 63 36 20 60 33 17 60 33 17 62 35 19 71 44 28 70 43 27 79 52 36 80 53 37 73 46 30 72 45 29 80 53 37 74 47 31 76 49 33 69 42 26 70 43 27 60 33 17 70 43 27 58 31 15 55 28 12 61 34 18 64 37 21 63 36 20 55 28 12 54 27 11 65 38 22 65 38 22 65 38 22 63 36 20 63 36 20 63 36 20 75 48 32 64 37 21 68 41 25 66 39 23 58 31 15 64 37 21 64 37 21 62 35 19 52 25 9 62 35 19 55 28 12 48 21 5 51 24 8 57 30 14 58 31 15 54 27 11 65 38 22 55 28 12 65 38 22 60 33 17 63 36 20 63 36 20 67 40 24 71 44 28 73 46 30 74 47 31 66 39 23 62 35 19 68 41 25 62 35 19 62 35 19 64 37 21 55 28 12 53 26 10 60 33 17 65 38 22 65 38 22 70 43 27 71 44 28 64 37 21 71 44 28 67 40 24 78 51 35 72 45 29 80 53 37 76 49 33 72 45 29 71 44 28 73 46 30 66 39 23 75 48 32 61 34 18 59 32 16 67 40 24 67 40 24 67 40 24 69 42 26 61 34 18 68 41 25 69 42 26 65 38 22 68 41 25 76 49 33 70 43 27 68 41 25 70 43 27 74 47 31 78 51 35 70 43 27 72 45 29 73 46 30 59 32 16 68 41 25 59 32 16 53 26 10 63 36 20 54 27 11 61 34 18 55 28 12 53 26 10
69 42 26 65 38 22 70 43 27 75 48 32 66 39 23 78 51 35 69 42 26 69 42 26 69 42 26 65 38 22 74 47 31 66 39 23 60 33 17 61 34 18 60 33 17 60 33 17 60 33 17 57 30 14 68 41 25 59 32 16 66 39 23 63 36 20 65 38 22 79 52 36 76 49 33 76 49 33 71 44 28 76 49 33 71 44 28 72 45 29 72 45 29 73 46 30 74 47 31 61 34 18 66 39 23 67 40 24 64 37 21 60 33 17 59 32 16 56 29 13 61 34 18 56 29 13 56 29 13 64 37 21 70 43 27 69 42 26 68 41 25 62 35 19 68 41 25 66 39 23 63 36 20 72 45 29 65 38 22 66 39 23 63 36 20 61 34 18 63 36 20 57 30 14 54 27 11 58 31 15 52 25 9 51 24 8 55 28 12 55 28 12 65 38 22 54 27 11 58 31 15 61 34 18 70 43 27 64 37 21 67 40 24 63 36 20 67 40 24 64 37 21 70 43 27 65 38 22 67 40 24 56 29 13 56 29 13 55 28 12 53 26 10 65 38 22 60 33 17 65 38 22 62 35 19 66 39 23 66 39 23 63 36 20 73 46 30 70 43 27 74 47 31 69 42 26 76 49 33 70 43 27 69 42 26 70 43 27 74 47 31 73 46 30 66 39 23 63 36 20 63 36 20 65 38 22 63 36 20 58 31 15 67 40 24 68 41 25 70 43 27 67 40 24 73 46 30 77 50 34 68 41 25 76 49 33 67 40 24 76 49 33 67 40 24 76 49 33 66 39 23 76 49 33 63 36 20 60 33 17 67 40 24 57 30 14 64 37 21 53 26 10 49 22 6 51 24 8 49 22 6 58 31 15
64 37 21 74 47 31 68 41 25 75 48 32 74 47 31 72 45 29 81 54 38 77 50 34 76 49 33 68 41 25 76 49 33 75 48 32 60 33 17 67 40 24 66 39 23 58 31 15 67 40 24 70 43 27 60 33 17 65 38 22 73 46 30 65 38 22 66 39 23 72 45 29 78 51 35 76 49 33 79 52 36 79 52 36 75 48 32 76 49 33 75 48 32 71 44 28 69 42 26 72 45 29 70 43 27 66 39 23 54 27 11 59 32 16 61 34 18 60 33 17 57 30 14 58 31 15 58 31 15 60 33 17 69 42 26 68 41 25 65 38 22 64 37 21 62 35 19 70 43 27 67 40 24 68 41 25 59 32 16 62 35 19 55 28 12 59 32 16 62 35 19 56 29 13 51 24 8 48 21 5 52 25 9 58 31 15 52 25 9 52 25 9 61 34 18 55 28 12 58 31 15 69 42 26 63 36 20 70 43 27 76 49 33 63 36 20 75 48 32 70 43 27 66 39 23 71 44 28 68 41 25 59 32 16 66 39 23 60 33 17 56 29 13 63 36 20 60 33 17 60 33 17 62 35 19 69 42 26 68 41 25 70 43 27 64 37 21 70 43 27 73 46 30 73 46 30 77 50 34 80 53 37 78 51 35 70 43 27 74 47 31 76 49 33 62 35 19 70 43 27 60 33 17 68 41 25 56 29 13 56 29 13 58 31 15 65 38 22 64 37 21 67 40 24 69 42 26 76 49 33 75 48 32 77 50 34 74 47 31 77 50 34 73 46 30 75 48 32 65 38 22 69 42 26 68 41 25 60 33 17 64 37 21 60 33 17 64 37 21 52 25 9 61 34 18 56 29 13 57 30 14 50 23 7
69 42 26 66 39 23 66 39 23 65 38 22 75 48 32 71 44 28 68 41 25 71 44 28 74 47 31 71 44 28 73 46 30 66 39 23 73 46 30 61 34 18 66 39 23 65 38 22 63 36 20 68 41 25 70 43 27 72 45 29 70 43 27 68 41 25 68 41 25 74 47 31 76 49 33 70 43 27 80 53 37 70 43 27 74 47 31 79 52 36 70 43 27 68 41 25 64 37 21 63 36 20 65 38 22 61 34 18 60 33 17 56 29 13 62 35 19 61 34 18 65 38 22 53 26 10 60 33 17 64 37 21 64 37 21 59 32 16 72 45 29 65 38 22 66 39 23 68 41 25 71 44 28 62 35 19 59 32 16 57 30 14 62 35 19 55 28 12 53 26 10 54 27 11 58 31 15 48 21 5 48 21 5 56 29 13 59 32 16 55 28 12 62 35 19 67 40 24 62 35 19 67 40 24 64 37 21 70 43 27 62 35 19 73 46 30 75 48 32 69 42 26 62 35 19 60 33 17 68 41 25 60 33 17 65 38 22 61 34 18 65 38 22 54 27 11 65 38 22 62 35 19 57 30 14 65 38 22 73 46 30 75 48 32 65 38 22 76 49 33 78 51 35 69 42 26 76 49 33 78 51 35 79 52 36 71 44 28 76 49 33 71 44 28 72 45 29 74 47 31 61 34 18 61 34 18 66 39 23 65 38 22 68 41 25 59 32 16 66 39 23 64 37 21 74 47 31 75 48 32 78 51 35 75 48 32 68 41 25 68 41 25 80 53 37 68 41 25 68 41 25 73 46 30 71 44 28 69 42 26 66 39 23 63 36 20 56 29 13 63 36 20 58 31 15 60 33 17 60 33 17 52 25 9
62 35 19 71 44 28 66 39 23 68 41 25 71 44 28 73 46 30 80 53 37 76 49 33 79 52 36 67 40 24 75 48 32 63 36 20 69 42 26 59 32 16 66 39 23 66 39 23 58 31 15 65 38 22 68 41 25 64 37 21 68 41 25 70 43 27 76 49 33 72 45 29 76 49 33 82 55 39 75 48 32 76 49 33 70 43 27 75 48 32 68 41 25 68 41 25 69 42 26 70 43 27 71 44 28 64 37 21 56 29 13 58 31 15 55 28 12 64 37 21 61 34 18 57 30 14 61 34 18 63 36 20 64 37 21 63 36 20 68 41 25 73 46 30 75 48 32 64 37 21 71 44 28 73 46 30 61 34 18 63 36 20 63 36 20 55 28 12 53 26 10 60 33 17 60 33 17 49 22 6 57 30 14 51 24 8 51 24 8 51 24 8 53 26 10 58 31 15 64 37 21 60 33 17 64 37 21 73 46 30 71 44 28 72 45 29 76 49 33 62 35 19 61 34 18 68 41 25 65 38 22 62 35 19 56 29 13 65 38 22 64 37 21 52 25 9 62 35 19 55 28 12 57 30 14 69 42 26 61 34 18 63 36 20 65 38 22 78 51 35 79 52 36 71 44 28 80 53 37 71 44 28 79 52 36 69 42 26 78 51 35 78 51 35 67 40 24 69 42 26 65 38 22 67 40 24 59 32 16 68 41 25 62 35 19 57 30 14 72 45 29 65 38 22 63 36 20 76 49 33 78 51 35 79 52 36 71 44 28 78 51 35 68 41 25 67 40 24 77 50 34 67 40 24 64 37 21 63 36 20 57 30 14 53 26 10 53 26 10 55 28 12 61 34 18 57 30 14 62 35 19 61 34 18
68 41 25 65 38 22 76 49 33 71 44 28 68 41 25 71 44 28 80 53 37 76 49 33 79 52 36 68 41 25 67 40 24 74 47 31 64 37 21 62 35 19 58 31 15 57 30 14 69 42 26 60 33 17 66 39 23 68 41 25 67 40 24 67 40 24 64 37 21 75 48 32 77 50 34 76 49 33 82 55 39 70 43 27 69 42 26 73 46 30 67 40 24 66 39 23 75 48 32 71 44 28 70 43 27 68 41 25 63 36 20 58 31 15 57 30 14 59 32 16 65 38 22 65 38 22 64 37 21 57 30 14 66 39 23 67 40 24 61 34 18 73 46 30 75 48 32 70 43 27 62 35 19 73 46 30 69 42 26 65 38 22 61 34 18 65 38 22 63 36 20 61 34 18 53 26 10 57 30 14 60 33 17 57 30 14 51 24 8 59 32 16 57 30 14 63 36 20 61 34 18 62 35 19 74 47 31 64 37 21 71 44 28 75 48 32 75 48 32 67 40 24 74 47 31 63 36 20 62 35 19 65 38 22 58 31 15 66 39 23 65 38 22 63 36 20 66 39 23 58 31 15 66 39 23 64 37 21 66 39 23 69 42 26 67 40 24 79 52 36 72 45 29 71 44 28 76 49 33 70 43 27 80 53 37 72 45 29 76 49 33 66 39 23 67 40 24 63 36 20 61 34 18 62 35 19 68 41 25 59 32 16 63 36 20 63 36 20 64 37 21 60 33 17 73 46 30 69 42 26 68 41 25 74 47 31 73 46 30 69 42 26 68 41 25 77 50 34 72 45 29 63 36 20 62 35 19 60 33 17 69 42 26 64 37 21 62 35 19 56 29 13 54 27 11 59 32 16 55 28 12 52 25 9
68 41 25 71 44 28 64 37 21 67 40 24 73 46 30 71 44 28 72 45 29 75 48 32 66 39 23 77 50 34 65 38 22 64 37 21 69 42 26 68 41 25 63 36 20 69 42 26 69 42 26 65 38 22 59 32 16 70 43 27 65 38 22 76 49 33 75 48 32 79 52 36 78 51 35 71 44 28 82 55 39 78 51 35 78 51 35 81 54 38 73 46 30 71 44 28 65 38 22 73 46 30 69 42 26 56 29 13 66 39 23 53 26 10 52 25 9 59 32 16 61 34 18 55 28 12 62 35 19 58 31 15 63 36 20 60 33 17 65 38 22 74 47 31 63 36 20 69 42 26 62 35 19 71 44 28 68 41 25 63 36 20 60 33 17 65 38 22 52 25 9 56 29 13 58 31 15 50 23 7 58 31 15 55 28 12 53 26 10 57 30 14 64 37 21 57 30 14 66 39 23 63 36 20 62 35 19 69 42 26 63 36 20 64 37 21 69 42 26 67 40 24 73 46 30 68 41 25 67 40 24 62 35 19 67 40 24 56 29 13 55 28 12 59 32 16 66 39 23 58 31 15 55 28 12 63 36 20 70 43 27 65 38 22 72 45 29 72 45 29 68 41 25 76 49 33 78 51 35 71 44 28 70 43 27 81 54 38 69 42 26 71 44 28 62 35 19 73 46 30 65 38 22 63 36 20 61 34 18 66 39 23 67 40 24 67 40 24 67 40 24 60 33 17 67 40 24 63 36 20 68 41 25 67 40 24 75 48 32 80 53 37 73 46 30 75 48 32 70 43 27 71 44 28 68 41 25 68 41 25 60 33 17 55 28 12 62 35 19 59 32 16 59 32 16 50 23 7 56 29 13 52 25 9
69 42 26 66 39 23 63 36 20 73 46 30 76 49 33 79 52 36 76 49 33 75 48 32 71 44 28 76 49 33 63 36 20 75 48 32 70 43 27 69 42 26 59 32 16 62 35 19 58 31 15 69 42 26 63 36 20 71 44 28 62 35 19 72 45 29 73 46 30 71 44 28 71 44 28 70 43 27 81 54 38 78 51 35 79 52 36 69 42 26 71 44 28 75 48 32 65 38 22 66 39 23 60 33 17 56 29 13 60 33 17 64 37 21 64 37 21 64 37 21 66 39 23 56 29 13 65 38 22 60 33 17 63 36 20 66 39 23 68 41 25 70 43 27 75 48 32 75 48 32 61 34 18 70 43 27 69 42 26 66 39 23 58 31 15 58 31 15 59 32 16 58 31 15 47 20 4 57 30 14 58 31 15 49 22 6 54 27 11 53 26 10 52 25 9 58 31 15 62 35 19 62 35 19 68 41 25 66 39 23 68 41 25 74 47 31 63 36 20 67 40 24 72 45 29 70 43 27 70 43 27 67 40 24 54 27 11 65 38 22 52 25 9 58 31 15 65 38 22 66 39 23 59 32 16 67 40 24 67 40 24 76 49 33 66 39 23 74 47 31 79 52 36 77 50 34 70 43 27 74 47 31 77 50 34 70 43 27 72 45 29 76 49 33 67 40 24 67 40 24 58 31 15 62 35 19 65 38 22 67 40 24 65 38 22 66 39 23 63 36 20 60 33 17 66 39 23 77 50 34 75 48 32 68 41 25 75 48 32 75 48 32 78 51 35 77 50 34 66 39 23 68 41 25 64 37 21 59 32 16 62 35 19 58 31 15 52 25 9 50 23 7 57 30 14 55 28 12 54 27 11 50 23 7
68 41 25 69 42 26 63 36 20 76 49 33 77 50 34 79 52 36 79 52 36 68 41 25 68 41 25 76 49 33 64 37 21 66 39 23 64 37 21 61 34 18 60 33 17 64 37 21 61 34 18 64 37 21 57 30 14 72 45 29 74 47 31 64 37 21 72 45 29 79 52 36 77 50 34 82 55 39 80 53 37 82 55 39 69 42 26 79 52 36 79 52 36 74 47 31 75 48 32 72 45 29 63 36 20 63 36 20 57 30 14 59 32 16 62 35 19 58 31 15 53 26 10 64 37 21 61 34 18 68 41 25 67 40 24 70 43 27 63 36 20 70 43 27 62 35 19 68 41 25 66 39 23 64 37 21 60 33 17 59 32 16 66 39 23 54 27 11 56 29 13 61 34 18 53 26 10 58 31 15 46 19 3 48 21 5 61 34 18 55 28 12 55 28 12 61 34 18 63 36 20 60 33 17 62 35 19 66 39 23 74 47 31 63 36 20 70 43 27 66 39 23 66 39 23 66 39 23 61 34 18 59 32 16 65 38 22 61 34 18 57 30 14 56 29 13 65 38 22 62 35 19 62 35 19 65 38 22 61 34 18 67 40 24 76 49 33 72 45 29 70 43 27 78 51 35 79 52 36 73 46 30 80 53 37 75 48 32 67 40 24 66 39 23 72 45 29 67 40 24 63 36 20 61 34 18 68 41 25 60 33 17 66 39 23 62 35 19 65 38 22 65 38 22 68 41 25 76 49 33 66 39 23 70 43 27 74 47 31 80 53 37 80 53 37 72 45 29 72 45 29 66 39 23 70 43 27 60 33 17 68 41 25 64 37 21 65 38 22 52 25 9 53 26 10 50 23 7 59 32 16 62 35 19
60 33 17 66 39 23 75 48 32 78 51 35 79 52 36 78 51 35 71 44 28 72 45 29 69 42 26 69 42 26 64 37 21 67 40 24 63 36 20 61 34 18 63 36 20 60 33 17 61 34 18 60 33 17 66 39 23 58 31 15 71 44 28 75 48 32 65 38 22 79 52 36 73 46 30 79 52 36 75 48 32 80 53 37 77 50 34 68 41 25 71 44 28 77 50 34 73 46 30 65 38 22 70 43 27 67 40 24 56 29 13 54 27 11 54 27 11 53 26 10 56 29 13 66 39 23 59 32 16 62 35 19 60 33 17 67 40 24 65 38 22 70 43 27 73 46 30 73 46 30 61 34 18 65 38 22 68 41 25 56 29 13 56 29 13 63 36 20 56 29 13 56 29 13 60 33 17 58 31 15 49 22 6 50 23 7 51 24 8 62 35 19 62 35 19 66 39 23 65 38 22 62 35 19 68 41 25 64 37 21 76 49 33 73 46 30 73 46 30 73 46 30 61 34 18 66 39 23 59 32 16 62 35 19 63 36 20 66 39 23 56 29 13 64 37 21 66 39 23 67 40 24 63 36 20 58 31 15 71 44 28 65 38 22 64 37 21 80 53 37 70 43 27 80 53 37 77 50 34 77 50 34 77 50 34 77 50 34 74 47 31 76 49 33 64 37 21 64 37 21 66 39 23 63 36 20 64 37 21 68 41 25 67 40 24 61 34 18 61 34 18 73 46 30 73 46 30 66 39 23 66 39 23 70 43 27 68 41 25 79 52 36 70 43 27 72 45 29 71 44 28 64 37 21 60 33 17 71 44 28 65 38 22 59 32 16 65 38 22 62 35 19 57 30 14 51 24 8 53 26 10 59 32 16
68 41 25 63 36 20 71 44 28 68 41 25 67 40 24 76 49 33 69 42 26 81 54 38 77 50 34 76 49 33 70 43 27 74 47 31 66 39 23 60 33 17 69 42 26 69 42 26 58 31 15 64 37 21 59 32 16 59 32 16 68 41 25 68 41 25 71 44 28 66 39 23 69 42 26 71 44 28 79 52 36 77 50 34 76 49 33 69 42 26 73 46 30 76 49 33 71 44 28 66 39 23 64 37 21 61 34 18 61 34 18 58 31 15 58 31 15 57 30 14 56 29 13 58 31 15 67 40 24 65 38 22 58 31 15 63 36 20 73 46 30 63 36 20 63 36 20 68 41 25 62 35 19 68 41 25 60 33 17 69 42 26 66 39 23 60 33 17 60 33 17 56 29 13 54 27 11 53 26 10 56 29 13 53 26 10 60 33 17 59 32 16 56 29 13 56 29 13 61 34 18 62 35 19 71 44 28 73 46 30 65 38 22 68 41 25 72 45 29 62 35 19 73 46 30 64 37 21 68 41 25 65 38 22 61 34 18 63 36 20 58 31 15 65 38 22 61 34 18 56 29 13 66 39 23 66 39 23 65 38 22 69 42 26 64 37 21 74 47 31 77 50 34 71 44 28 75 48 32 73 46 30 75 48 32 69 42 26 79 52 36 64 37 21 66 39 23 61 34 18 65 38 22 66 39 23 70 43 27 60 33 17 59 32 16 67 40 24 68 41 25 64 37 21 64 37 21 67 40 24 68 41 25 69 42 26 75 48 32 73 46 30 72 45 29 79 52 36 71 44 28 70 43 27 65 38 22 68 41 25 69 42 26 61 34 18 61 34 18 63 36 20 52 25 9 58 31 15 52 25 9 58 31 15
61 34 18 72 45 29 68 41 25 68 41 25 72 45 29 73 46 30 72 45 29 70 43 27 70 43 27 76 49 33 74 47 31 68 41 25 61 34 18 63 36 20 69 42 26 60 33 17 64 37 21 69 42 26 57 30 14 59 32 16 68 41 25 73 46 30 73 46 30 79 52 36 80 53 37 78 51 35 73 46 30 74 47 31 70 43 27 81 54 38 80 53 37 66 39 23 64 37 21 63 36 20 69 42 26 67 40 24 64 37 21 64 37 21 57 30 14 54 27 11 65 38 22 54 27 11 64 37 21 61 34 18 64 37 21 73 46 30 64 37 21 62 35 19 68 41 25 72 45 29 68 41 25 67 40 24 63 36 20 64 37 21 57 30 14 64 37 21 54 27 11 60 33 17 60 33 17 47 20 4 51 24 8 58 31 15 57 30 14 52 25 9 54 27 11 66 39 23 66 39 23 65 38 22 63 36 20 68 41 25 72 45 29 76 49 33 75 48 32 72 45 29 73 46 30 63 36 20 69 42 26 57 30 14 55 28 12 54 27 11 55 28 12 54 27 11 53 26 10 56 29 13 61 34 18 66 39 23 71 44 28 67 40 24 73 46 30 76 49 33 74 47 31 74 47 31 78 51 35 76 49 33 80 53 37 74 47 31 66 39 23 73 46 30 74 47 31 64 37 21 64 37 21 58 31 15 67 40 24 69 42 26 62 35 19 63 36 20 64 37 21 65 38 22 67 40 24 71 44 28 76 49 33 79 52 36 73 46 30 77 50 34 74 47 31 77 50 34 72 45 29 62 35 19 63 36 20 67 40 24 58 31 15 57 30 14 52 25 9 61 34 18 50 23 7 56 29 13 61 34 18 58 31 15
70 43 27 71 44 28 71 44 28 78 51 35 75 48 32 75 48 32 76 49 33 70 43 27 73 46 30 67 40 24 64 37 21 68 41 25 74 47 31 66 39 23 67 40 24 57 30 14 63 36 20 61 34 18 71 44 28 58 31 15 73 46 30 63 36 20 72 45 29 77 50 34 67 40 24 78 51 35 72 45 29 74 47 31 70 43 27 75 48 32 78 51 35 71 44 28 71 44 28 69 42 26 66 39 23 59 32 16 64 37 21 61 34 18 57 30 14 61 34 18 52 25 9 63 36 20 57 30 14 64 37 21 60 33 17 72 45 29 63 36 20 65 38 22 69 42 26 68 41 25 71 44 28 66 39 23 67 40 24 66 39 23 63 36 20 65 38 22 51 24 8 50 23 7 56 29 13 58 31 15 52 25 9 59 32 16 61 34 18 52 25 9 56 29 13 60 33 17 58 31 15 66 39 23 63 36 20 70 43 27 66 39 23 71 44 28 75 48 32 71 44 28 72 45 29 60 33 17 64 37 21 59 32 16 54 27 11 61 34 18 59 32 16 62 35 19 64 37 21 55 28 12 62 35 19 60 33 17 71 44 28 63 36 20 65 38 22 79 52 36 71 44 28 70 43 27 81 54 38 74 47 31 75 48 32 79 52 36 79 52 36 72 45 29 68 41 25 61 34 18 66 39 23 62 35 19 60 33 17 67 40 24 68 41 25 69 42 26 63 36 20 60 33 17 66 39 23 71 44 28 65 38 22 74 47 31 73 46 30 77 50 34 70 43 27 72 45 29 68 41 25 63 36 20 61 34 18 70 43 27 62 35 19 67 40 24 59 32 16 52 25 9 55 28 12 57 30 14 53 26 10 56 29 13
67 40 24 72 45 29 72 45 29 77 50 34 79 52 36 72 45 29 74 47 31 80 53 37 68 41 25 74 47 31 68 41 25 64 37 21 64 37 21 68 41 25 64 37 21 66 39 23 69 42 26 69 42 26 67 40 24 64 37 21 73 46 30 73 46 30 77 50 34 73 46 30 77 50 34 69 42 26 76 49 33 74 47 31 82 55 39 69 42 26 76 49 33 66 39 23 63 36 20 73 46 30 61 34 18 58 31 15 59 32 16 54 27 11 63 36 20 54 27 11 52 25 9 67 40 24 56 29 13 57 30 14 67 40 24 65 38 22 73 46 30 66 39 23 66 39 23 66 39 23 72 45 29 67 40 24 65 38 22 61 34 18 67 40 24 54 27 11 54 27 11 62 35 19 52 25 9 46 19 3 49 22 6 49 22 6 60 33 17 55 28 12 59 32 16 65 38 22 58 31 15 60 33 17 71 44 28 68 41 25 67 40 24 65 38 22 76 49 33 62 35 19 72 45 29 63 36 20 58 31 15 60 33 17 67 40 24 65 38 22 63 36 20 64 37 21 58 31 15 61 34 18 59 32 16 63 36 20 63 36 20 75 48 32 70 43 27 68 41 25 78 51 35 74 47 31 74 47 31 82 55 39 78 51 35 73 46 30 69 42 26 72 45 29 66 39 23 65 38 22 72 45 29 57 30 14 61 34 18 62 35 19 67 40 24 67 40 24 69 42 26 66 39 23 74 47 31 67 40 24 65 38 22 70 43 27 71 44 28 72 45 29 77 50 34 77 50 34 77 50 34 69 42 26 64 37 21 66 39 23 64 37 21 62 35 19 59 32 16 52 25 9 53 26 10 55 28 12 54 27 11 57 30 14
68 41 25 74 47 31 63 36 20 76 49 33 77 50 34 80 53 37 78 51 35 70 43 27 69 42 26 72 45 29 74 47 31 62 35 19 71 44 28 66 39 23 59 32 16 60 33 17 62 35 19 68 41 25 59 32 16 69 42 26 66 39 23 64 37 21 65 38 22 67 40 24 70 43 27 70 43 27 70 43 27 70 43 27 82 55 39 72 45 29 68 41 25 73 46 30 66 39 23 73 46 30 59 32 16 58 31 15 55 28 12 61 34 18 62 35 19 58 31 15 56 29 13 58 31 15 64 37 21 65 38 22 68 41 25 66 39 23 66 39 23 74 47 31 66 39 23 73 46 30 61 34 18 60 33 17 59 32 16 66 39 23 55 28 12 53 26 10 53 26 10 52 25 9 47 20 4 48 21 5 53 26 10 55 28 12 48 21 5 56 29 13 61 34 18 58 31 15 69 42 26 58 31 15 72 45 29 68 41 25 72 45 29 66 39 23 69 42 26 72 45 29 69 42 26 61 34 18 66 39 23 61 34 18 60 33 17 62 35 19 59 32 16 57 30 14 54 27 11 61 34 18 63 36 20 62 35 19 60 33 17 67 40 24 77 50 34 70 43 27 78 51 35 76 49 33 81 54 38 72 45 29 77 50 34 78 51 35 72 45 29 67 40 24 76 49 33 64 37 21 63 36 20 61 34 18 65 38 22 66 39 23 64 37 21 62 35 19 62 35 19 68 41 25 68 41 25 64 37 21 77 50 34 74 47 31 70 43 27 80 53 37 71 44 28 69 42 26 74 47 31 71 44 28 61 34 18 71 44 28 63 36 20 66 39 23 52 25 9 55 28 12 61 34 18 57 30 14 59 32 16 52 25 9
64 37 21 62 35 19 64 37 21 67 40 24 69 42 26 76 49 33 76 49 33 67 40 24 69 42 26 75 48 32 74 47 31 66 39 23 71 44 28 69 42 26 63 36 20 69 42 26 66 39 23 65 38 22 67 40 24 63 36 20 69 42 26 63 36 20 68 41 25 71 44 28 71 44 28 79 52 36 73 46 30 82 55 39 82 55 39 75 48 32 79 52 36 73 46 30 75 48 32 60 33 17 63 36 20 67 40 24 54 27 11 64 37 21 52 25 9 61 34 18 56 29 13 60 33 17 57 30 14 57 30 14 64 37 21 73 46 30 72 45 29 71 44 28 69 42 26 70 43 27 68 41 25 65 38 22 62 35 19 64 37 21 60 33 17 56 29 13 56 29 13 59 32 16 47 20 4 46 19 3 47 20 4 48 21 5 52 25 9 58 31 15 55 28 12 56 29 13 57 30 14 68 41 25 61 34 18 65 38 22 69 42 26 68 41 25 72 45 29 70 43 27 70 43 27 66 39 23 60 33 17 62 35 19 56 29 13 63 36 20 58 31 15 60 33 17 62 35 19 64 37 21 59 32 16 58 31 15 70 43 27 63 36 20 72 45 29 74 47 31 82 55 39 69 42 26 79 52 36 72 45 29 76 49 33 80 53 37 71 44 28 71 44 28 71 44 28 72 45 29 59 32 16 63 36 20 68 41 25 58 31 15 60 33 17 57 30 14 68 41 25 67 40 24 73 46 30 64 37 21 68 41 25 71 44 28 79 52 36 79 52 36 78 51 35 68 41 25 74 47 31 74 47 31 71 44 28 70 43 27 64 37 21 61 34 18 54 27 11 57 30 14 62 35 19 55 28 12 62 35 19 58 31 15
66 39 23 71 44 28 73 46 30 78 51 35 74 47 31 81 54 38 75 48 32 81 54 38 79 52 36 68 41 25 68 41 25 75 48 32 72 45 29 68 41 25 62 35 19 59 32 16 56 29 13 64 37 21 61 34 18 66 39 23 65 38 22 67 40 24 75 48 32 74 47 31 72 45 29 72 45 29 80 53 37 82 55 39 78 51 35 69 42 26 67 40 24 64 37 21 66 39 23 64 37 21 62 35 19 57 30 14 59 32 16 64 37 21 62 35 19 56 29 13 56 29 13 61 34 18 58 31 15 62 35 19 71 44 28 72 45 29 69 42 26 63 36 20 64 37 21 73 46 30 70 43 27 70 43 27 66 39 23 66 39 23 56 29 13 58 31 15 51 24 8 49 22 6 49 22 6 54 27 11 58 31 15 49 22 6 53 26 10 53 26 10 62 35 19 57 30 14 63 36 20 60 33 17 61 34 18 71 44 28 67 40 24 72 45 29 68 41 25 64 37 21 69 42 26 64 37 21 59 32 16 62 35 19 64 37 21 63 36 20 54 27 11 63 36 20 59 32 16 67 40 24 67 40 24 63 36 20 72 45 29 69 42 26 77 50 34 71 44 28 77 50 34 79 52 36 74 47 31 74 47 31 73 46 30 73 46 30 70 43 27 64 37 21 71 44 28 65 38 22 63 36 20 61 34 18 65 38 22 67 40 24 67 40 24 58 31 15 70 43 27 72 45 29 65 38 22 72 45 29 68 41 25 78 51 35 67 40 24 77 50 34 78 51 35 70 43 27 76 49 33 64 37 21 65 38 22 65 38 22 69 42 26 64 37 21 62 35 19 60 33 17 51 24 8 58 31 15 49 22 6 51 24 8
60 33 17 70 43 27 63 36 20 75 48 32 70 43 27 70 43 27 75 48 32 77 50 34 73 46 30 71 44 28 75 48 32 69 42 26 72 45 29 67 40 24 59 32 16 61 34 18 59 32 16 64 37 21 58 31 15 64 37 21 65 38 22 64 37 21 70 43 27 78 51 35 73 46 30 74 47 31 72 45 29 74 47 31 74 47 31 74 47 31 78 51 35 70 43 27 63 36 20 60 33 17 70 43 27 68 41 25 57 30 14 66 39 23 53 26 10 62 35 19 55 28 12 63 36 20 61 34 18 66 39 23 70 43 27 68 41 25 69 42 26 65 38 22 64 37 21 62 35 19 70 43 27 60 33 17 67 40 24 64 37 21 60 33 17 59 32 16 60 33 17 54 27 11 49 22 6 57 30 14 53 26 10 55 28 12 60 33 17 61 34 18 52 25 9 59 32 16 62 35 19 69 42 26 72 45 29 65 38 22 68 41 25 65 38 22 65 38 22 63 36 20 65 38 22 71 44 28 65 38 22 65 38 22 67 40 24 66 39 23 66 39 23 63 36 20 66 39 23 54 27 11 65 38 22 62 35 19 70 43 27 74 47 31 64 37 21 78 51 35 71 44 28 76 49 33 81 54 38 72 45 29 80 53 37 74 47 31 68 41 25 75 48 32 71 44 28 73 46 30 68 41 25 65 38 22 69 42 26 57 30 14 62 35 19 63 36 20 62 35 19 73 46 30 72 45 29 64 37 21 64 37 21 78 51 35 71 44 28 74 47 31 71 44 28 71 44 28 70 43 27 76 49 33 71 44 28 72 45 29 56 29 13 57 30 14 64 37 21 57 30 14 54 27 11 59 32 16 53 26 10 58 31 15
59 32 16 66 39 23 76 49 33 70 43 27 67 40 24 79 52 36 80 53 37 79 52 36 72 45 29 74 47 31 70 43 27 65 38 22 67 40 24 62 35 19 57 30 14 70 43 27 57 30 14 56 29 13 70 43 27 66 39 23 65 38 22 74 47 31 71 44 28 70 43 27 72 45 29 74 47 31 78 51 35 77 50 34 81 54 38 72 45 29 70 43 27 78 51 35 73 46 30 61 34 18 63 36 20 68 41 25 61 34 18 58 31 15 52 25 9 52 25 9 56 29 13 60 33 17 64 37 21 61 34 18 63 36 20 71 44 28 72 45 29 63 36 20 75 48 32 68 41 25 66 39 23 68 41 25 60 33 17 67 40 24 63 36 20 60 33 17 54 27 11 54 27 11 48 21 5 49 22 6 57 30 14 56 29 13 53 26 10 60 33 17 52 25 9 60 33 17 68 41 25 60 33 17 68 41 25 67 40 24 62 35 19 74 47 31 73 46 30 70 43 27 69 42 26 63 36 20 64 37 21 63 36 20 60 33 17 64 37 21 59 32 16 65 38 22 65 38 22 58 31 15 60 33 17 62 35 19 62 35 19 66 39 23 74 47 31 78 51 35 77 50 34 71 44 28 75 48 32 74 47 31 80 53 37 77 50 34 70 43 27 75 48 32 71 44 28 69 42 26 64 37 21 63 36 20 64 37 21 57 30 14 65 38 22 61 34 18 65 38 22 66 39 23 71 44 28 73 46 30 77 50 34 72 45 29 68 41 25 78 51 35 69 42 26 68 41 25 67 40 24 74 47 31 72 45 29 63 36 20 67 40 24 66 39 23 64 37 21 52 25 9 60 33 17 62 35 19 60 33 17 50 23 7
43 16 0 43 16 0 43 16 0 43 16 0 43 16 0 43 16 0 43 16 0 43 16 0 43 16 0 43 16 0 43 16 0 43 16 0 43 16 0 43 16 0 43 16 0 43 16 0 43 16 0 43 16 0 43 16 0 43 16 0 43 16 0 43 16 0 43 16 0 43 16 0 43 16 0 43 16 0 43 16 0 43 16 0 43 16 0 43 16 0 43 16 0 43 16 0 43 16 0 43 16 0 43 16 0 43 16 0 43 16 0 43 16 0 43 16 0 43 16 0 43 16 0 43 16 0 43 16 0 43 16 0 43 16 0 43 16 0 43 16 0 43 16 0 43 16 0 43 16 0 43 16 0 43 16 0 43 16 0 43 16 0 43 16 0 43 16 0 43 16 0 43 16 0 43 16 0 43 16 0 43 16 0 43 16 0 43 16 0 43 16 0 43 16 0 43 16 0 43 16 0 43 16 0 43 16 0 43 16 0 43 16 0 43 16 0 43 16 0 43 16 0 43 16 0 43 16 0 43 16 0 43 16 0 43 16 0 43 16 0 43 16 0 43 16 0 43 16 0 43 16 0 43 16 0 43 16 0 43 16 0 43 16 0 43 16 0 43 16 0 43 16 0 43 16 0 43 16 0 43 16 0 43 16 0 43 16 0 43 16 0 43 16 0 43 16 0 43 16 0 43 16 0 43 16 0 43 16 0 43 16 0 43 16 0 43 16 0 43 16 0 43 16 0 43 16 0 43 16 0 43 16 0 43 16 0 43 16 0 43 16 0 43 16 0 43 16 0 43 16 0 43 16 0 43 16 0 43 16 0 43 16 0 43 16 0 43 16 0 43 16 0 43 16 0 43 16 0 43 16 0 43 16 0
43 16 0 43 16 0 43 16 0 43 16 0 43 16 0 43 16 0 43 16 0 43 16 0 43 16 0 43 16 0 43 16 0 43 16 0 43 16 0 43 16 0 43 16 0 43 16 0 43 16 0 43 16 0 43 16 0 43 16 0 43 16 0 43 16 0 43 16 0 43 16 0 43 16 0 43 16 0 43 16 0 43 16 0 43 16 0 43 16 0 43 16 0 43 16 0 43 16 0 43 16 0 43 16 0 43 16 0 43 16 0 43 16 0 43 16 0 43 16 0 43 16 0 43 16 0 43 16 0 43 16 0 43 16 0 43 16 0 43 16 0 43 16 0 43 16 0 43 16 0 43 16 0 43 16 0 43 16 0 43 16 0 43 16 0 43 16 0 43 16 0 43 16 0 43 16 0 43 16 0 43 16 0 43 16 0 43 16 0 43 16 0 43 16 0 43 16 0 43 16 0 43 16 0 43 16 0 43 16 0 43 16 0 43 16 0 43 16 0 43 16 0 43 16 0 43 16 0 43 16 0 43 16 0 43 16 0 43 16 0 43 16 0 43 16 0 43 16 0 43 16 0 43 16 0 43 16 0 43 16 0 43 16 0 43 16 0 43 16 0 43 16 0 43 16 0 43 16 0 43 16 0 43 16 0 43 16 0 43 16 0 43 16 0 43 16 0 43 16 0 43 16 0 43 16 0 43 16 0 43 16 0 43 16 0 43 16 0 43 16 0 43 16 0 43 16 0 43 16 0 43 16 0 43 16 0 43 16 0 43 16 0 43 16 0 43 16 0 43 16 0 43 16 0 43 16 0 43 16 0 43 16 0 43 16 0 43 16 0 43 16 0 43 16 0 43 16 0 43 16 0 43 16 0
68 41 25 66 39 23 64 37 21 74 47 31 67 40 24 68 41 25 68 41 25 67 40 24 63 36 20 55 28 12 56 29 13 58 31 15 65 38 22 62 35 19 71 44 28 68 41 25 65 38 22 71 44 28 81 54 38 74 47 31 83 56 40 82 55 39 77 50 34 75 48 32 68 41 25 72 45 29 73 46 30 66 39 23 69 42 26 66 39 23 65 38 22 56 29 13 56 29 13 64 37 21 68 41 25 68 41 25 59 32 16 71 44 28 63 36 20 69 42 26 75 48 32 66 39 23 69 42 26 74 47 31 69 42 26 74 47 31 65 38 22 64 37 21 63 36 20 65 38 22 51 24 8 49 22 6 52 25 9 57 30 14 56 29 13 60 33 17 53 26 10 54 27 11 59 32 16 56 29 13 68 41 25 59 32 16 61 34 18 71 44 28 66 39 23 66 39 23 68 41 25 60 33 17 65 38 22 58 31 15 60 33 17 60 33 17 64 37 21 54 27 11 51 24 8 52 25 9 53 26 10 54 27 11 59 32 16 68 41 25 70 43 27 70 43 27 70 43 27 76 49 33 73 46 30 74 47 31 73 46 30 75 48 32 74 47 31 69 42 26 67 40 24 72 45 29 64 37 21 60 33 17 65 38 22 60 33 17 67 40 24 61 34 18 58 31 15 61 34 18 62 35 19 62 35 19 67 40 24 75 48 32 67 40 24 68 41 25 74 47 31 82 55 39 71 44 28 72 45 29 71 44 28 73 46 30 69 42 26 73 46 30 60 33 17 56 29 13 59 32 16 57 30 14 54 27 11 62 35 19 63 36 20 56 29 13 64 37 21 65 38 22 69 42 26 71 44 28 68 41 25 61 34 18
76 49 33 69 42 26 77 50 34 67 40 24 61 34 18 73 46 30 71 44 28 57 30 14 68 41 25 59 32 16 56 29 13 57 30 14 60 33 17 59 32 16 63 36 20 66 39 23 72 45 29 75 48 32 79 52 36 70 43 27 76 49 33 84 57 41 72 45 29 82 55 39 74 47 31 69 42 26 72 45 29 65 38 22 62 35 19 66 39 23 61 34 18 64 37 21 58 31 15 66 39 23 57 30 14 56 29 13 70 43 27 65 38 22 68 41 25 75 48 32 77 50 34 74 47 31 65 38 22 75 48 32 65 38 22 75 48 32 66 39 23 71 44 28 67 40 24 62 35 19 53 26 10 60 33 17 59 32 16 48 21 5 48 21 5 51 24 8 51 24 8 62 35 19 58 31 15 57 30 14 58 31 15 67 40 24 60 33 17 64 37 21 74 47 31 63 36 20 71 44 28 71 44 28 68 41 25 57 30 14 59 32 16 61 34 18 55 28 12 62 35 19 55 28 12 60 33 17 57 30 14 52 25 9 64 37 21 67 40 24 69 42 26 61 34 18 70 43 27 69 42 26 70 43 27 70 43 27 73 46 30 75 48 32 79 52 36 75 48 32 72 45 29 75 48 32 63 36 20 60 33 17 66 39 23 64 37 21 68 41 25 60 33 17 63 36 20 66 39 23 70 43 27 67 40 24 65 38 22 70 43 27 76 49 33 68 41 25 72 45 29 81 54 38 69 42 26 79 52 36 78 51 35 73 46 30 62 35 19 69 42 26 62 35 19 69 42 26 63 36 20 55 28 12 57 30 14 64 37 21 62 35 19 65 38 22 63 36 20 66 39 23 65 38 22 70 43 27 61 34 18 66 39 23
67 40 24 68 41 25 77 50 34 65 38 22 68 41 25 70 43 27 63 36 20 66 39 23 63 36 20 65 38 22 55 28 12 56 29 13 70 43 27 60 33 17 67 40 24 66 39 23 67 40 24 73 46 30 76 49 33 82 55 39 71 44 28 78 51 35 79 52 36 79 52 36 80 53 37 77 50 34 76 49 33 65 38 22 69 42 26 65 38 22 66 39 23 65 38 22 61 34 18 65 38 22 62 35 19 65 38 22 60 33 17 65 38 22 69 42 26 69 42 26 73 46 30 74 47 31 64 37 21 66 39 23 74 47 31 62 35 19 60 33 17 67 40 24 59 32 16 58 31 15 59 32 16 53 26 10 61 34 18 52 25 9 58 31 15 58 31 15 59 32 16 63 36 20 56 29 13 61 34 18 56 29 13 69 42 26 68 41 25 64 37 21 68 41 25 68 41 25 64 37 21 59 32 16 69 42 26 63 36 20 57 30 14 57 30 14 54 27 11 61 34 18 60 33 17 62 35 19 60 33 17 63 36 20 55 28 12 67 40 24 66 39 23 71 44 28 64 37 21 66 39 23 72 45 29 68 41 25 79 52 36 71 44 28 76 49 33 73 46 30 65 38 22 72 45 29 68 41 25 59 32 16 70 43 27 65 38 22 63 36 20 65 38 22 67 40 24 63 36 20 69 42 26 70 43 27 74 47 31 75 48 32 67 40 24 76 49 33 79 52 36 70 43 27 69 42 26 70 43 27 76 49 33 69 42 26 71 44 28 71 44 28 65 38 22 61 34 18 62 35 19 52 25 9 58 31 15 61 34 18 64 37 21 61 34 18 64 37 21 58 31 15 68 41 25 67 40 24 62 35 19 72 45 29
66 39 23 67 40 24 72 45 29 75 48 32 69 42 26 67 40 24 62 35 19 67 40 24 60 33 17 55 28 12 56 29 13 60 33 17 60 33 17 67 40 24 63 36 20 67 40 24 71 44 28 71 44 28 71 44 28 79 52 36 82 55 39 79 52 36 81 54 38 81 54 38 78 51 35 68 41 25 76 49 33 70 43 27 70 43 27 67 40 24 57 30 14 60 33 17 64 37 21 58 31 15 61 34 18 66 39 23 58 31 15 71 44 28 73 46 30 65 38 22 64 37 21 73 46 30 69 42 26 64 37 21 66 39 23 66 39 23 69 42 26 62 35 19 68 41 25 64 37 21 57 30 14 59 32 16 54 27 11 58 31 15 47 20 4 56 29 13 51 24 8 60 33 17 59 32 16 61 34 18 69 42 26 59 32 16 64 37 21 61 34 18 74 47 31 72 45 29 73 46 30 71 44 28 59 32 16 63 36 20 65 38 22 66 39 23 52 25 9 58 31 15 60 33 17 60 33 17 60 33 17 64 37 21 62 35 19 69 42 26 63 36 20 69 42 26 64 37 21 75 48 32 72 45 29 69 42 26 72 45 29 72 45 29 76 49 33 71 44 28 71 44 28 65 38 22 70 43 27 69 42 26 72 45 29 62 35 19 59 32 16 62 35 19 69 42 26 63 36 20 63 36 20 71 44 28 70 43 27 66 39 23 78 51 35 77 50 34 77 50 34 72 45 29 73 46 30 73 46 30 67 40 24 76 49 33 75 48 32 60 33 17 66 39 23 64 37 21 59 32 16 57 30 14 63 36 20 51 24 8 61 34 18 59 32 16 59 32 16 64 37 21 64 37 21 59 32 16 62 35 19 70 43 27
73 46 30 71 44 28 68 41 25 75 48 32 64 37 21 67 40 24 59 32 16 60 33 17 63 36 20 56 29 13 57 30 14 63 36 20 66 39 23 60 33 17 62 35 19 62 35 19 73 46 30 76 49 33 68 41 25 75 48 32 71 44 28 82 55 39 82 55 39 69 42 26 72 45 29 68 41 25 64 37 21 73 46 30 65 38 22 59 32 16 61 34 18 62 35 19 64 37 21 60 33 17 58 31 15 59 32 16 69 42 26 66 39 23 71 44 28 66 39 23 70 43 27 67 40 24 74 47 31 71 44 28 73 46 30 72 45 29 63 36 20 58 31 15 62 35 19 57 30 14 58 31 15 50 23 7 49 22 6 54 27 11 48 21 5 53 26 10 59 32 16 51 24 8 58 31 15 59 32 16 65 38 22 57 30 14 70 43 27 68 41 25 67 40 24 70 43 27 64 37 21 60 33 17 60 33 17 67 40 24 63 36 20 57 30 14 52 25 9 59 32 16 63 36 20 60 33 17 53 26 10 63 36 20 62 35 19 59 32 16 71 44 28 73 46 30 65 38 22 74 47 31 78 51 35 69 42 26 78 51 35 74 47 31 73 46 30 77 50 34 65 38 22 68 41 25 66 39 23 69 42 26 62 35 19 66 39 23 56 29 13 66 39 23 69 42 26 62 35 19 59 32 16 72 45 29 67 40 24 73 46 30 78 51 35 78 51 35 75 48 32 73 46 30 74 47 31 68 41 25 68 41 25 71 44 28 76 49 33 66 39 23 70 43 27 67 40 24 61 34 18 63 36 20 54 27 11 56 29 13 51 24 8 62 35 19 57 30 14 61 34 18 56 29 13 62 35 19 67 40 24 69 42 26
69 42 26 65 38 22 73 46 30 63 36 20 73 46 30 65 38 22 65 38 22 60 33 17 61 34 18 68 41 25 61 34 18 62 35 19 64 37 21 63 36 20 65 38 22 63 36 20 68 41 25 75 48 32 79 52 36 80 53 37 81 54 38 77 50 34 76 49 33 75 48 32 80 53 37 66 39 23 75 48 32 71 44 28 61 34 18 68 41 25 65 38 22 54 27 11 62 35 19 65 38 22 62 35 19 64 37 21 70 43 27 63 36 20 72 45 29 63 36 20 70 43 27 74 47 31 67 40 24 65 38 22 63 36 20 61 34 18 69 42 26 59 32 16 58 31 15 57 30 14 56 29 13 56 29 13 55 28 12 58 31 15 53 26 10 51 24 8 60 33 17 61 34 18 64 37 21 57 30 14 64 37 21 58 31 15 70 43 27 63 36 20 67 40 24 61 34 18 64 37 21 64 37 21 62 35 19 59 32 16 54 27 11 64 37 21 58 31 15 53 26 10 59 32 16 56 29 13 63 36 20 62 35 19 65 38 22 62 35 19 59 32 16 63 36 20 76 49 33 78 51 35 74 47 31 68 41 25 68 41 25 68 41 25 78 51 35 79 52 36 65 38 22 65 38 22 74 47 31 69 42 26 72 45 29 64 37 21 65 38 22 61 34 18 59 32 16 70 43 27 60 33 17 68 41 25 63 36 20 78 51 35 76 49 33 70 43 27 79 52 36 79 52 36 79 52 36 77 50 34 69 42 26 76 49 33 72 45 29 64 37 21 68 41 25 62 35 19 59 32 16 57 30 14 55 28 12 52 25 9 53 26 10 58 31 15 57 30 14 56 29 13 60 33 17 70 43 27 67 40 24 74 47 31
78 51 35 72 45 29 75 48 32 63 36 20 65 38 22 63 36 20 59 32 16 58 31 15 63 36 20 65 38 22 58 31 15 67 40 24 61 34 18 71 44 28 71 44 28 73 46 30 68 41 25 70 43 27 77 50 34 74 47 31 71 44 28 78 51 35 71 44 28 72 45 29 77 50 34 67 40 24 68 41 25 65 38 22 67 40 24 65 38 22 66 39 23 57 30 14 56 29 13 54 27 11 57 30 14 59 32 16 62 35 19 63 36 20 67 40 24 67 40 24 72 45 29 69 42 26 65 38 22 69 42 26 73 46 30 63 36 20 65 38 22 64 37 21 67 40 24 55 28 12 52 25 9 56 29 13 55 28 12 57 30 14 60 33 17 56 29 13 58 31 15 57 30 14 62 35 19 66 39 23 57 30 14 65 38 22 65 38 22 64 37 21 69 42 26 71 44 28 72 45 29 62 35 19 70 43 27 70 43 27 63 36 20 64 37 21 60 33 17 55 28 12 59 32 16 58 31 15 63 36 20 54 27 11 62 35 19 61 34 18 60 33 17 65 38 22 74 47 31 73 46 30 68 41 25 69 42 26 75 48 32 79 52 36 76 49 33 67 40 24 70 43 27 69 42 26 72 45 29 69 42 26 60 33 17 62 35 19 66 39 23 62 35 19 69 42 26 62 35 19 64 37 21 74 47 31 68 41 25 70 43 27 80 53 37 80 53 37 77 50 34 76 49 33 79 52 36 73 46 30 69 42 26 74 47 31 75 48 32 63 36 20 62 35 19 57 30 14 62 35 19 64 37 21 55 28 12 58 31 15 64 37 21 65 38 22 65 38 22 65 38 22 60 33 17 65 38 22 72 45 29 74 47 31
78 51 35 67 40 24 70 43 27 64 37 21 72 45 29 65 38 22 58 31 15 64 37 21 64 37 21 64 37 21 61 34 18 66 39 23 67 40 24 63 36 20 68 41 25 70 43 27 76 49 33 69 42 26 78 51 35 72 45 29 78 51 35 80 53 37 71 44 28 78 51 35 76 49 33 72 45 29 68 41 25 62 35 19 70 43 27 60 33 17 58 31 15 59 32 16 60 33 17 63 36 20 59 32 16 64 37 21 62 35 19 70 43 27 64 37 21 75 48 32 64 37 21 76 49 33 76 49 33 69 42 26 76 49 33 72 45 29 67 40 24 66 39 23 66 39 23 64 37 21 59 32 16 50 23 7 61 34 18 49 22 6 49 22 6 55 28 12 60 33 17 53 26 10 63 36 20 54 27 11 58 31 15 64 37 21 71 44 28 60 33 17 63 36 20 65 38 22 63 36 20 62 35 19 65 38 22 61 34 18 55 28 12 64 37 21 61 34 18 53 26 10 57 30 14 53 26 10 56 29 13 59 32 16 55 28 12 57 30 14 65 38 22 64 37 21 62 35 19 73 46 30 68 41 25 77 50 34 68 41 25 77 50 34 81 54 38 71 44 28 72 45 29 71 44 28 75 48 32 70 43 27 71 44 28 58 31 15 64 37 21 70 43 27 58 31 15 68 41 25 68 41 25 72 45 29 63 36 20 67 40 24 73 46 30 75 48 32 76 49 33 70 43 27 73 46 30 74 47 31 71 44 28 73 46 30 75 48 32 71 44 28 58 31 15 69 42 26 54 27 11 60 33 17 63 36 20 64 37 21 58 31 15 57 30 14 62 35 19 68 41 25 67 40 24 65 38 22 59 32 16 70 43 27
66 39 23 66 39 23 76 49 33 67 40 24 71 44 28 67 40 24 71 44 28 69 42 26 61 34 18 64 37 21 65 38 22 58 31 15 59 32 16 64 37 21 61 34 18 62 35 19 75 48 32 68 41 25 73 46 30 77 50 34 71 44 28 74 47 31 80 53 37 79 52 36 80 53 37 74 47 31 68 41 25 74 47 31 72 45 29 66 39 23 63 36 20 55 28 12 63 36 20 58 31 15 59 32 16 61 34 18 63 36 20 59 32 16 64 37 21 67 40 24 64 37 21 69 42 26 75 48 32 69 42 26 71 44 28 72 45 29 66 39 23 60 33 17 65 38 22 56 29 13 57 30 14 53 26 10 48 21 5 47 20 4 52 25 9 50 23 7 51 24 8 60 33 17 60 33 17 67 40 24 56 29 13 67 40 24 71 44 28 63 36 20 68 41 25 73 46 30 70 43 27 60 33 17 61 34 18 60 33 17 65 38 22 62 35 19 58 31 15 62 35 19 61 34 18 58 31 15 56 29 13 55 28 12 55 28 12 67 40 24 68 41 25 63 36 20 68 41 25 78 51 35 79 52 36 78 51 35 79 52 36 71 44 28 75 48 32 72 45 29 77 50 34 73 46 30 64 37 21 68 41 25 70 43 27 65 38 22 58 31 15 59 32 16 69 42 26 69 42 26 67 40 24 63 36 20 75 48 32 72 45 29 67 40 24 72 45 29 80 53 37 76 49 33 80 53 37 77 50 34 79 52 36 65 38 22 69 42 26 73 46 30 58 31 15 65 38 22 61 34 18 60 33 17 61 34 18 52 25 9 57 30 14 54 27 11 57 30 14 65 38 22 67 40 24 69 42 26 72 45 29 67 40 24
78 51 35 72 45 29 64 37 21 76 49 33 72 45 29 70 43 27 62 35 19 59 32 16 67 40 24 55 28 12 57 30 14 58 31 15 68 41 25 71 44 28 72 45 29 65 38 22 73 46 30 75 48 32 79 52 36 75 48 32 70 43 27 72 45 29 83 56 40 82 55 39 71 44 28 67 40 24 77 50 34 66 39 23 70 43 27 68 41 25 61 34 18 60 33 17 62 35 19 58 31 15 55 28 12 68 41 25 63 36 20 60 33 17 68 41 25 67 40 24 63 36 20 66 39 23 67 40 24 72 45 29 66 39 23 64 37 21 64 37 21 68 41 25 65 38 22 56 29 13 62 35 19 51 24 8 53 26 10 58 31 15 55 28 12 49 22 6 58 31 15 58 31 15 63 36 20 61 34 18 57 30 14 66 39 23 73 46 30 72 45 29 73 46 30 65 38 22 72 45 29 68 41 25 69 42 26 60 33 17 56 29 13 58 31 15 59 32 16 58 31 15 61 34 18 57 30 14 60 33 17 63 36 20 56 29 13 66 39 23 61 34 18 66 39 23 73 46 30 73 46 30 67 40 24 68 41 25 77 50 34 76 49 33 73 46 30 79 52 36 77 50 34 72 45 29 68 41 25 62 35 19 69 42 26 60 33 17 69 42 26 67 40 24 64 37 21 65 38 22 65 38 22 74 47 31 64 37 21 72 45 29 72 45 29 74 47 31 78 51 35 82 55 39 70 43 27 80 53 37 75 48 32 75 48 32 75 48 32 71 44 28 67 40 24 57 30 14 57 30 14 65 38 22 61 34 18 63 36 20 59 32 16 61 34 18 65 38 22 57 30 14 67 40 24 59 32 16 68 41 25 63 36 20
79 52 36 76 49 33 67 40 24 74 47 31 63 36 20 66 39 23 61 34 18 61 34 18 64 37 21 61 34 18 67 40 24 64 37 21 58 31 15 61 34 18 70 43 27 70 43 27 73 46 30 76 49 33 68 41 25 82 55 39 83 56 40 82 55 39 72 45 29 69 42 26 75 48 32 69 42 26 72 45 29 63 36 20 68 41 25 64 37 21 67 40 24 61 34 18 61 34 18 62 35 19 62 35 19 56 29 13 69 42 26 59 32 16 62 35 19 75 48 32 69 42 26 73 46 30 66 39 23 69 42 26 68 41 25 74 47 31 61 34 18 66 39 23 56 29 13 61 34 18 63 36 20 50 23 7 59 32 16 56 29 13 48 21 5 55 28 12 56 29 13 57 30 14 53 26 10 65 38 22 58 31 15 63 36 20 61 34 18 67 40 24 70 43 27 70 43 27 73 46 30 63 36 20 63 36 20 64 37 21 65 38 22 61 34 18 51 24 8 57 30 14 62 35 19 54 27 11 56 29 13 54 27 11 55 28 12 66 39 23 64 37 21 73 46 30 73 46 30 77 50 34 77 50 34 79 52 36 78 51 35 73 46 30 77 50 34 67 40 24 77 50 34 64 37 21 63 36 20 66 39 23 65 38 22 63 36 20 59 32 16 61 34 18 67 40 24 60 33 17 66 39 23 64 37 21 69 42 26 75 48 32 66 39 23 80 53 37 75 48 32 74 47 31 76 49 33 74 47 31 80 53 37 71 44 28 76 49 33 65 38 22 71 44 28 56 29 13 66 39 23 54 27 11 54 27 11 63 36 20 52 25 9 62 35 19 59 32 16 64 37 21 68 41 25 66 39 23 70 43 27 67 40 24
65 38 22 70 43 27 75 48 32 71 44 28 65 38 22 62 35 19 60 33 17 61 34 18 63 36 20 60 33 17 62 35 19 56 29 13 70 43 27 61 34 18 63 36 20 70 43 27 69 42 26 66 39 23 76 49 33 73 46 30 81 54 38 80 53 37 83 56 40 71 44 28 74 47 31 69 42 26 69 42 26 65 38 22 71 44 28 65 38 22 68 41 25 56 29 13 66 39 23 54 27 11 62 35 19 66 39 23 61 34 18 64 37 21 67 40 24 66 39 23 66 39 23 76 49 33 76 49 33 71 44 28 66 39 23 71 44 28 73 46 30 62 35 19 60 33 17 63 36 20 62 35 19 60 33 17 48 21 5 51 24 8 52 25 9 50 23 7 59 32 16 62 35 19 56 29 13 65 38 22 62 35 19 69 42 26 72 45 29 61 34 18 62 35 19 65 38 22 63 36 20 72 45 29 70 43 27 64 37 21 56 29 13 63 36 20 53 26 10 57 30 14 55 28 12 51 24 8 60 33 17 59 32 16 61 34 18 63 36 20 67 40 24 61 34 18 73 46 30 70 43 27 75 48 32 68 41 25 77 50 34 82 55 39 81 54 38 68 41 25 71 44 28 68 41 25 70 43 27 71 44 28 63 36 20 65 38 22 68 41 25 60 33 17 61 34 18 63 36 20 72 45 29 69 42 26 68 41 25 65 38 22 77 50 34 81 54 38 74 47 31 79 52 36 82 55 39 75 48 32 77 50 34 78 51 35 75 48 32 65 38 22 67 40 24 69 42 26 55 28 12 54 27 11 62 35 19 57 30 14 62 35 19 61 34 18 59 32 16 63 36 20 62 35 19 61 34 18 63 36 20 66 39 23
78 51 35 67 40 24 76 49 33 63 36 20 74 47 31 67 40 24 70 43 27 63 36 20 58 31 15 55 28 12 56 29 13 69 42 26 60 33 17 69 42 26 73 46 30 68 41 25 69 42 26 75 48 32 71 44 28 79 52 36 79 52 36 77 50 34 76 49 33 80 53 37 69 42 26 67 40 24 63 36 20 62 35 19 69 42 26 60 33 17 56 29 13 62 35 19 64 37 21 57 30 14 66 39 23 65 38 22 65 38 22 68 41 25 70 43 27 73 46 30 74 47 31 65 38 22 68 41 25 75 48 32 64 37 21 75 48 32 60 33 17 63 36 20 63 36 20 53 26 10 62 35 19 59 32 16 52 25 9 61 34 18 55 28 12 48 21 5 48 21 5 61 34 18 59 32 16 60 33 17 56 29 13 60 33 17 61 34 18 74 47 31 70 43 27 60 33 17 66 39 23 71 44 28 67 40 24 67 40 24 64 37 21 58 31 15 56 29 13 62 35 19 55 28 12 60 33 17 62 35 19 60 33 17 55 28 12 67 40 24 62 35 19 71 44 28 63 36 20 67 40 24 72 45 29 77 50 34 79 52 36 71 44 28 67 40 24 73 46 30 77 50 34 75 48 32 66 39 23 72 45 29 60 33 17 65 38 22 69 42 26 66 39 23 65 38 22 65 38 22 68 41 25 69 42 26 66 39 23 71 44 28 74 47 31 69 42 26 78 51 35 70 43 27 70 43 27 72 45 29 67 40 24 65 38 22 65 38 22 71 44 28 71 44 28 60 33 17 55 28 12 65 38 22 64 37 21 51 24 8 54 27 11 59 32 16 61 34 18 64 37 21 63 36 20 67 40 24 62 35 19 65 38 22
69 42 26 77 50 34 65 38 22 70 43 27 65 38 22 73 46 30 71 44 28 62 35 19 65 38 22 63 36 20 59 32 16 69 42 26 58 31 15 66 39 23 63 36 20 65 38 22 69 42 26 76 49 33 80 53 37 71 44 28 77 50 34 71 44 28 82 55 39 78 51 35 69 42 26 76 49 33 71 44 28 62 35 19 69 42 26 68 41 25 65 38 22 60 33 17 58 31 15 60 33 17 61 34 18 66 39 23 71 44 28 71 44 28 72 45 29 64 37 21 64 37 21 70 43 27 78 51 35 76 49 33 71 44 28 72 45 29 66 39 23 70 43 27 57 30 14 55 28 12 64 37 21 51 24 8 49 22 6 55 28 12 50 23 7 50 23 7 51 24 8 58 31 15 62 35 19 60 33 17 64 37 21 63 36 20 63 36 20 65 38 22 66 39 23 68 41 25 72 45 29 65 38 22 71 44 28 66 39 23 61 34 18 55 28 12 61 34 18 59 32 16 63 36 20 56 29 13 59 32 16 52 25 9 66 39 23 67 40 24 65 38 22 68 41 25 75 48 32 77 50 34 77 50 34 72 45 29 68 41 25 72 45 29 71 44 28 73 46 30 76 49 33 64 37 21 67 40 24 71 44 28 62 35 19 64 37 21 60 33 17 59 32 16 66 39 23 60 33 17 61 34 18 66 39 23 72 45 29 75 48 32 70 43 27 71 44 28 72 45 29 79 52 36 69 42 26 74 47 31 79 52 36 67 40 24 66 39 23 63 36 20 70 43 27 62 35 19 65 38 22 55 28 12 63 36 20 55 28 12 64 37 21 57 30 14 54 27 11 61 34 18 66 39 23 68 41 25 72 45 29 70 43 27
73 46 30 65 38 22 65 38 22 73 46 30 72 45 29 62 35 19 60 33 17 57 30 14 69 42 26 58 31 15 63 36 20 60 33 17 70 43 27 70 43 27 66 39 23 73 46 30 67 40 24 71 44 28 77 50 34 70 43 27 73 46 30 81 54 38 73 46 30 82 55 39 75 48 32 78 51 35 76 49 33 70 43 27 70 43 27 68 41 25 56 29 13 63 36 20 57 30 14 60 33 17 57 30 14 67 40 24 65 38 22 67 40 24 72 45 29 76 49 33 74 47 31 76 49 33 75 48 32 69 42 26 75 48 32 72 45 29 73 46 30 65 38 22 65 38 22 58 31 15 55 28 12 58 31 15 56 29 13 57 30 14 55 28 12 58 31 15 54 27 11 58 31 15 55 28 12 66 39 23 62 35 19 71 44 28 65 38 22 68 41 25 61 34 18 65 38 22 69 42 26 65 38 22 69 42 26 68 41 25 65 38 22 65 38 22 53 26 10 51 24 8 57 30 14 62 35 19 63 36 20 60 33 17 65 38 22 62 35 19 63 36 20 63 36 20 75 48 32 66 39 23 78 51 35 78 51 35 75 48 32 74 47 31 69 42 26 80 53 37 77 50 34 76 49 33 62 35 19 71 44 28 59 32 16 60 33 17 66 39 23 64 37 21 57 30 14 69 42 26 64 37 21 66 39 23 69 42 26 72 45 29 78 51 35 74 47 31 80 53 37 72 45 29 79 52 36 73 46 30 78 51 35 74 47 31 74 47 31 73 46 30 70 43 27 69 42 26 62 35 19 53 26 10 53 26 10 51 24 8 56 29 13 64 37 21 61 34 18 68 41 25 67 40 24 61 34 18 63 36 20 72 45 29
72 45 29 74 47 31 66 39 23 67 40 24 62 35 19 61 34 18 64 37 21 61 34 18 66 39 23 65 38 22 56 29 13 63 36 20 60 33 17 63 36 20 66 39 23 68 41 25 73 46 30 72 45 29 76 49 33 71 44 28 70 43 27 74 47 31 83 56 40 70 43 27 77 50 34 65 38 22 68 41 25 70 43 27 69 42 26 62 35 19 66 39 23 63 36 20 54 27 11 60 33 17 63 36 20 66 39 23 62 35 19 71 44 28 73 46 30 68 41 25 72 45 29 71 44 28 65 38 22 65 38 22 72 45 29 74 47 31 71 44 28 64 37 21 55 28 12 55 28 12 60 33 17 57 30 14 49 22 6 48 21 5 59 32 16 50 23 7 55 28 12 59 32 16 61 34 18 57 30 14 68 41 25 64 37 21 68 41 25 63 36 20 69 42 26 63 36 20 63 36 20 64 37 21 60 33 17 68 41 25 59 32 16 63 36 20 59 32 16 61 34 18 52 25 9 52 25 9 60 33 17 61 34 18 59 32 16 58 31 15 65 38 22 72 45 29 72 45 29 75 48 32 77 50 34 72 45 29 70 43 27 81 54 38 78 51 35 79 52 36 77 50 34 70 43 27 62 35 19 70 43 27 63 36 20 68 41 25 61 34 18 68 41 25 64 37 21 59 32 16 68 41 25 71 44 28 64 37 21 67 40 24 68 41 25 79 52 36 71 44 28 81 54 38 72 45 29 74 47 31 71 44 28 65 38 22 65 38 22 65 38 22 71 44 28 59 32 16 59 32 16 56 29 13 62 35 19 52 25 9 59 32 16 65 38 22 61 34 18 63 36 20 65 38 22 58 31 15 60 33 17 65 38 22
73 46 30 70 43 27 64 37 21 76 49 33 61 34 18 73 46 30 69 42 26 69 42 26 58 31 15 56 29 13 59 32 16 68 41 25 69 42 26 70 43 27 70 43 27 73 46 30 70 43 27 71 44 28 70 43 27 76 49 33 82 55 39 76 49 33 80 53 37 71 44 28 67 40 24 78 51 35 76 49 33 67 40 24 72 45 29 65 38 22 61 34 18 56 29 13 56 29 13 66 39 23 61 34 18 63 36 20 67 40 24 61 34 18 65 38 22 76 49 33 64 37 21 72 45 29 74 47 31 66 39 23 74 47 31 74 47 31 70 43 27 63 36 20 55 28 12 63 36 20 60 33 17 58 31 15 55 28 12 57 30 14 54 27 11 48 21 5 59 32 16 60 33 17 54 27 11 62 35 19 67 40 24 61 34 18 72 45 29 62 35 19 65 38 22 66 39 23 64 37 21 65 38 22 67 40 24 67 40 24 62 35 19 60 33 17 55 28 12 56 29 13 55 28 12 51 24 8 59 32 16 60 33 17 60 33 17 63 36 20 64 37 21 71 44 28 72 45 29 67 40 24 68 41 25 72 45 29 79 52 36 70 43 27 71 44 28 67 40 24 71 44 28 67 40 24 64 37 21 68 41 25 69 42 26 57 30 14 61 34 18 61 34 18 65 38 22 64 37 21 68 41 25 63 36 20 73 46 30 66 39 23 75 48 32 71 44 28 80 53 37 73 46 30 79 52 36 81 54 38 68 41 25 69 42 26 72 45 29 60 33 17 71 44 28 56 29 13 64 37 21 60 33 17 55 28 12 62 35 19 53 26 10 53 26 10 56 29 13 59 32 16 67 40 24 58 31 15 60 33 17 66 39 23
75 48 32 66 39 23 67 40 24 69 42 26 72 45 29 60 33 17 70 43 27 58 31 15 63 36 20 67 40 24 61 34 18 69 42 26 68 41 25 59 32 16 65 38 22 74 47 31 69 42 26 73 46 30 76 49 33 75 48 32 77 50 34 78 51 35 72 45 29 79 52 36 78 51 35 66 39 23 65 38 22 69 42 26 60 33 17 57 30 14 66 39 23 54 27 11 64 37 21 61 34 18 63 36 20 60 33 17 69 42 26 69 42 26 62 35 19 71 44 28 74 47 31 76 49 33 72 45 29 76 49 33 68 41 25 66 39 23 63 36 20 70 43 27 59 32 16 55 28 12 61 34 18 55 28 12 55 28 12 57 30 14 53 26 10 55 28 12 56 29 13 51 24 8 65 38 22 58 31 15 68 41 25 66 39 23 70 43 27 62 35 19 64 37 21 64 37 21 61 34 18 61 34 18 61 34 18 65 38 22 58 31 15 53 26 10 65 38 22 51 24 8 61 34 18 58 31 15 63 36 20 62 35 19 60 33 17 63 36 20 69 42 26 65 38 22 74 47 31 67 40 24 80 53 37 77 50 34 80 53 37 69 42 26 81 54 38 76 49 33 65 38 22 70 43 27 75 48 32 71 44 28 63 36 20 60 33 17 67 40 24 57 30 14 65 38 22 66 39 23 70 43 27 62 35 19 71 44 28 72 45 29 68 41 25 80 53 37 73 46 30 79 52 36 70 43 27 78 51 35 72 45 29 65 38 22 75 48 32 65 38 22 71 44 28 59 32 16 59 32 16 65 38 22 62 35 19 53 26 10 52 25 9 62 35 19 53 26 10 62 35 19 57 30 14 71 44 28 66 39 23 67 40 24
71 44 28 77 50 34 69 42 26 72 45 29 71 44 28 62 35 19 59 32 16 69 42 26 56 29 13 57 30 14 59 32 16 68 41 25 67 40 24 62 35 19 71 44 28 69 42 26 70 43 27 73 46 30 69 42 26 78 51 35 81 54 38 79 52 36 82 55 39 78 51 35 80 53 37 67 40 24 76 49 33 68 41 25 59 32 16 63 36 20 67 40 24 58 31 15 59 32 16 66 39 23 61 34 18 62 35 19 71 44 28 61 34 18 68 41 25 68 41 25 68 41 25 65 38 22 67 40 24 67 40 24 68 41 25 65 38 22 72 45 29 71 44 28 64 37 21 65 38 22 59 32 16 53 26 10 55 28 12 57 30 14 52 25 9 49 22 6 55 28 12 52 25 9 62 35 19 60 33 17 63 36 20 65 38 22 70 43 27 61 34 18 66 39 23 63 36 20 60 33 17 68 41 25 58 31 15 67 40 24 61 34 18 56 29 13 54 27 11 52 25 9 58 31 15 54 27 11 54 27 11 64 37 21 67 40 24 58 31 15 65 38 22 68 41 25 66 39 23 73 46 30 69 42 26 68 41 25 78 51 35 75 48 32 78 51 35 74 47 31 68 41 25 76 49 33 70 43 27 62 35 19 60 33 17 57 30 14 65 38 22 59 32 16 65 38 22 62 35 19 62 35 19 63 36 20 74 47 31 74 47 31 68 41 25 81 54 38 69 42 26 82 55 39 79 52 36 78 51 35 76 49 33 76 49 33 67 40 24 66 39 23 64 37 21 59 32 16 57 30 14 60 33 17 65 38 22 63 36 20 61 34 18 62 35 19 53 26 10 60 33 17 57 30 14 67 40 24 73 46 30 69 42 26
71 44 28 68 41 25 72 45 29 75 48 32 75 48 32 62 35 19 65 38 22 66 39 23 60 33 17 60 33 17 59 32 16 58 31 15 60 33 17 61 34 18 73 46 30 75 48 32 75 48 32 66 39 23 73 46 30 74 47 31 82 55 39 83 56 40 83 56 40 73 46 30 78 51 35 70 43 27 68 41 25 63 36 20 66 39 23 64 37 21 57 30 14 56 29 13 63 36 20 55 28 12 56 29 13 61 34 18 57 30 14 67 40 24 68 41 25 68 41 25 76 49 33 66 39 23 73 46 30 67 40 24 75 48 32 67 40 24 71 44 28 65 38 22 55 28 12 58 31 15 56 29 13 54 27 11 59 32 16 49 22 6 47 20 4 53 26 10 60 33 17 56 29 13 56 29 13 66 39 23 60 33 17 64 37 21 62 35 19 60 33 17 66 39 23 61 34 18 62 35 19 72 45 29 58 31 15 58 31 15 67 40 24 66 39 23 56 29 13 52 25 9 58 31 15 55 28 12 62 35 19 56 29 13 56 29 13 58 31 15 66 39 23 65 38 22 74 47 31 78 51 35 68 41 25 79 52 36 70 43 27 78 51 35 74 47 31 71 44 28 68 41 25 74 47 31 73 46 30 67 40 24 70 43 27 69 42 26 64 37 21 63 36 20 68 41 25 59 32 16 63 36 20 65 38 22 74 47 31 73 46 30 72 45 29 75 48 32 73 46 30 70 43 27 78 51 35 78 51 35 70 43 27 67 40 24 74 47 31 63 36 20 71 44 28 67 40 24 58 31 15 57 30 14 63 36 20 57 30 14 64 37 21 58 31 15 65 38 22 68 41 25 58 31 15 65 38 22 66 39 23 69 42 26
68 41 25 70 43 27 67 40 24 66 39 23 68 41 25 61 34 18 65 38 22 65 38 22 67 40 24 62 35 19 64 37 21 60 33 17 66 39 23 68 41 25 71 44 28 68 41 25 70 43 27 71 44 28 72 45 29 76 49 33 81 54 38 80 53 37 76 49 33 70 43 27 75 48 32 69 42 26 63 36 20 70 43 27 65 38 22 62 35 19 59 32 16 62 35 19 60 33 17 56 29 13 67 40 24 66 39 23 66 39 23 60 33 17 64 37 21 72 45 29 69 42 26 64 37 21 66 39 23 65 38 22 69 42 26 66 39 23 70 43 27 64 37 21 65 38 22 57 30 14 62 35 19 62 35 19 58 31 15 54 27 11 53 26 10 61 34 18 62 35 19 57 30 14 54 27 11 55 28 12 58 31 15 62 35 19 63 36 20 73 46 30 70 43 27 74 47 31 60 33 17 60 33 17 60 33 17 59 32 16 67 40 24 66 39 23 65 38 22 55 28 12 63 36 20 50 23 7 54 27 11 63 36 20 56 29 13 61 34 18 72 45 29 70 43 27 74 47 31 75 48 32 74 47 31 77 50 34 76 49 33 77 50 34 78 51 35 70 43 27 68 41 25 71 44 28 68 41 25 68 41 25 71 44 28 63 36 20 59 32 16 56 29 13 64 37 21 59 32 16 71 44 28 61 34 18 71 44 28 75 48 32 67 40 24 81 54 38 72 45 29 81 54 38 79 52 36 69 42 26 79 52 36 71 44 28 74 47 31 62 35 19 66 39 23 59 32 16 56 29 13 53 26 10 55 28 12 64 37 21 52 25 9 53 26 10 56 29 13 66 39 23 66 39 23 62 35 19 65 38 22 67 40 24
66 39 23 72 45 29 76 49 33 63 36 20 63 36 20 71 44 28 67 40 24 59 32 16 60 33 17 67 40 24 59 32 16 60 33 17 64 37 21 60 33 17 60 33 17 75 48 32 68 41 25 71 44 28 70 43 27 70 43 27 81 54 38 77 50 34 82 55 39 69 42 26 69 42 26 67 40 24 63 36 20 71 44 28 63 36 20 66 39 23 58 31 15 60 33 17 59 32 16 54 27 11 59 32 16 63 36 20 62 35 19 65 38 22 68 41 25 74 47 31 64 37 21 75 48 32 69 42 26 69 42 26 67 40 24 65 38 22 72 45 29 60 33 17 55 28 12 60 33 17 62 35 19 53 26 10 59 32 16 59 32 16 52 25 9 52 25 9 52 25 9 60 33 17 55 28 12 55 28 12 57 30 14 69 42 26 72 45 29 71 44 28 74 47 31 64 37 21 71 44 28 66 39 23 67 40 24 69 42 26 55 28 12 59 32 16 58 31 15 60 33 17 58 31 15 63 36 20 53 26 10 52 25 9 56 29 13 56 29 13 59 32 16 63 36 20 72 45 29 73 46 30 77 50 34 69 42 26 74 47 31 76 49 33 77 50 34 67 40 24 68 41 25 67 40 24 73 46 30 61 34 18 70 43 27 65 38 22 62 35 19 68 41 25 57 30 14 58 31 15 66 39 23 69 42 26 69 42 26 65 38 22 72 45 29 79 52 36 75 48 32 80 53 37 80 53 37 81 54 38 77 50 34 70 43 27 70 43 27 65 38 22 69 42 26 68 41 25 55 28 12 62 35 19 55 28 12 62 35 19 59 32 16 52 25 9 60 33 17 67 40 24 63 36 20 69 42 26 70 43 27 72 45 29
66 39 23 75 48 32 65 38 22 70 43 27 74 47 31 63 36 20 64 37 21 67 40 24 60 33 17 58 31 15 56 29 13 60 33 17 67 40 24 71 44 28 71 44 28 67 40 24 77 50 34 76 49 33 69 42 26 83 56 40 75 48 32 74 47 31 83 56 40 81 54 38 74 47 31 75 48 32 64 37 21 66 39 23 66 39 23 61 34 18 62 35 19 57 30 14 60 33 17 59 32 16 59 32 16 58 31 15 57 30 14 68 41 25 73 46 30 65 38 22 75 48 32 74 47 31 77 50 34 71 44 28 65 38 22 67 40 24 59 32 16 67 40 24 65 38 22 65 38 22 62 35 19 53 26 10 55 28 12 51 24 8 48 21 5 56 29 13 55 28 12 60 33 17 64 37 21 62 35 19 68 41 25 68 41 25 60 33 17 67 40 24 68 41 25 64 37 21 73 46 30 70 43 27 67 40 24 69 42 26 56 29 13 64 37 21 58 31 15 57 30 14 59 32 16 62 35 19 56 29 13 65 38 22 54 27 11 65 38 22 67 40 24 71 44 28 70 43 27 76 49 33 74 47 31 74 47 31 70 43 27 69 42 26 77 50 34 78 51 35 66 39 23 75 48 32 72 45 29 66 39 23 67 40 24 69 42 26 68 41 25 61 34 18 70 43 27 60 33 17 72 45 29 64 37 21 65 38 22 77 50 34 73 46 30 75 48 32 80 53 37 81 54 38 81 54 38 74 47 31 79 52 36 76 49 33 68 41 25 66 39 23 68 41 25 66 39 23 67 40 24 62 35 19 54 27 11 58 31 15 52 25 9 63 36 20 59 32 16 58 31 15 65 38 22 60 33 17 68 41 25 69 42 26
70 43 27 69 42 26 73 46 30 76 49 33 67 40 24 62 35 19 63 36 20 64 37 21 61 34 18 65 38 22 59 32 16 69 42 26 62 35 19 66 39 23 69 42 26 66 39 23 78 51 35 79 52 36 72 45 29 75 48 32 70 43 27 83 56 40 83 56 40 70 43 27 80 53 37 68 41 25 72 45 29 64 37 21 72 45 29 69 42 26 64 37 21 62 35 19 65 38 22 63 36 20 65 38 22 58 31 15 60 33 17 59 32 16 64 37 21 63 36 20 73 46 30 71 44 28 75 48 32 67 40 24 63 36 20 65 38 22 61 34 18 63 36 20 66 39 23 58 31 15 55 28 12 50 23 7 60 33 17 57 30 14 50 23 7 57 30 14 50 23 7 54 27 11 57 30 14 61 34 18 69 42 26 61 34 18 63 36 20 69 42 26 67 40 24 66 39 23 60 33 17 69 42 26 69 42 26 57 30 14 67 40 24 53 26 10 64 37 21 60 33 17 50 23 7 52 25 9 51 24 8 65 38 22 56 29 13 57 30 14 67 40 24 73 46 30 70 43 27 65 38 22 80 53 37 80 53 37 78 51 35 74 47 31 68 41 25 72 45 29 67 40 24 74 47 31 63 36 20 65 38 22 66 39 23 67 40 24 65 38 22 64 37 21 65 38 22 71 44 28 62 35 19 69 42 26 69 42 26 75 48 32 73 46 30 68 41 25 74 47 31 78 51 35 73 46 30 73 46 30 73 46 30 71 44 28 65 38 22 62 35 19 58 31 15 60 33 17 64 37 21 56 29 13 60 33 17 53 26 10 55 28 12 64 37 21 59 32 16 55 28 12 58 31 15 64 37 21 71 44 28 74 47 31
70 43 27 77 50 34 77 50 34 67 40 24 68 41 25 62 35 19 66 39 23 62 35 19 58 31 15 68 41 25 62 35 19 68 41 25 58 31 15 70 43 27 66 39 23 67 40 24 68 41 25 77 50 34 77 50 34 71 44 28 80 53 37 83 56 40 73 46 30 79 52 36 72 45 29 76 49 33 71 44 28 66 39 23 70 43 27 64 37 21 69 42 26 64 37 21 59 32 16 67 40 24 62 35 19 64 37 21 65 38 22 63 36 20 65 38 22 70 43 27 74 47 31 76 49 33 76 49 33 75 48 32 74 47 31 69 42 26 66 39 23 64 37 21 57 30 14 58 31 15 55 28 12 50 23 7 56 29 13 58 31 15 60 33 17 51 24 8 56 29 13 55 28 12 57 30 14 62 35 19 60 33 17 62 35 19 67 40 24 67 40 24 68 41 25 68 41 25 71 44 28 62 35 19 59 32 16 65 38 22 60 33 17 56 29 13 64 37 21 63 36 20 59 32 16 56 29 13 51 24 8 60 33 17 65 38 22 64 37 21 63 36 20 66 39 23 71 44 28 76 49 33 68 41 25 74 47 31 79 52 36 72 45 29 74 47 31 70 43 27 78 51 35 63 36 20 66 39 23 72 45 29 60 33 17 58 31 15 63 36 20 64 37 21 64 37 21 62 35 19 73 46 30 62 35 19 73 46 30 66 39 23 75 48 32 68 41 25 81 54 38 72 45 29 75 48 32 78 51 35 74 47 31 77 50 34 74 47 31 66 39 23 67 40 24 63 36 20 67 40 24 57 30 14 56 29 13 53 26 10 64 37 21 64 37 21 59 32 16 57 30 14 69 42 26 65 38 22 59 32 16 64 37 21
75 48 32 71 44 28 75 48 32 73 46 30 64 37 21 67 40 24 65 38 22 65 38 22 60 33 17 61 34 18 67 40 24 64 37 21 61 34 18 60 33 17 63 36 20 73 46 30 77 50 34 68 41 25 77 50 34 77 50 34 74 47 31 82 55 39 75 48 32 79 52 36 73 46 30 76 49 33 64 37 21 73 46 30 68 41 25 62 35 19 69 42 26 58 31 15 63 36 20 62 35 19 57 30 14 66 39 23 64 37 21 60 33 17 70 43 27 72 45 29 75 48 32 67 40 24 64 37 21 67 40 24 76 49 33 64 37 21 61 34 18 63 36 20 64 37 21 58 31 15 60 33 17 54 27 11 61 34 18 58 31 15 53 26 10 54 27 11 54 27 11 60 33 17 60 33 17 66 39 23 58 31 15 65 38 22 62 35 19 66 39 23 71 44 28 69 42 26 68 41 25 72 45 29 63 36 20 58 31 15 61 34 18 53 26 10 63 36 20 56 29 13 60 33 17 59 32 16 55 28 12 61 34 18 63 36 20 66 39 23 62 35 19 65 38 22 63 36 20 75 48 32 73 46 30 72 45 29 69 42 26 72 45 29 70 43 27 78 51 35 77 50 34 68 41 25 69 42 26 64 37 21 58 31 15 65 38 22 60 33 17 57 30 14 69 42 26 63 36 20 61 34 18 70 43 27 73 46 30 71 44 28 69 42 26 74 47 31 73 46 30 75 48 32 78 51 35 71 44 28 71 44 28 66 39 23 67 40 24 60 33 17 59 32 16 65 38 22 62 35 19 65 38 22 56 29 13 53 26 10 64 37 21 61 34 18 56 29 13 56 29 13 60 33 17 64 37 21 73 46 30 72 45 29
72 45 29 72 45 29 67 40 24 66 39 23 62 35 19 72 45 29 66 39 23 58 31 15 61 34 18 58 31 15 64 37 21 62 35 19 57 30 14 71 44 28 61 34 18 75 48 32 76 49 33 69 42 26 80 53 37 83 56 40 80 53 37 83 56 40 71 44 28 81 54 38 78 51 35 73 46 30 73 46 30 62 35 19 59 32 16 65 38 22 67 40 24 58 31 15 63 36 20 56 29 13 68 41 25 65 38 22 67 40 24 69 42 26 74 47 31 74 47 31 71 44 28 69 42 26 77 50 34 70 43 27 64 37 21 69 42 26 72 45 29 68 41 25 61 34 18 66 39 23 64 37 21 62 35 19 52 25 9 53 26 10 48 21 5 49 22 6 51 24 8 59 32 16 61 34 18 57 30 14 57 30 14 66 39 23 68 41 25 69 42 26 71 44 28 68 41 25 68 41 25 63 36 20 62 35 19 63 36 20 59 32 16 56 29 13 58 31 15 53 26 10 63 36 20 60 33 17 51 24 8 61 34 18 56 29 13 68 41 25 66 39 23 66 39 23 71 44 28 67 40 24 79 52 36 68 41 25 82 55 39 80 53 37 75 48 32 68 41 25 67 40 24 70 43 27 63 36 20 73 46 30 68 41 25 57 30 14 61 34 18 69 42 26 57 30 14 60 33 17 67 40 24 61 34 18 65 38 22 71 44 28 68 41 25 74 47 31 71 44 28 80 53 37 75 48 32 75 48 32 77 50 34 77 50 34 71 44 28 61 34 18 59 32 16 67 40 24 58 31 15 53 26 10 58 31 15 55 28 12 56 29 13 56 29 13 62 35 19 67 40 24 60 33 17 66 39 23 68 41 25 70 43 27
78 51 35 67 40 24 65 38 22 64 37 21 67 40 24 63 36 20 67 40 24 57 30 14 59 32 16 56 29 13 55 28 12 62 35 19 59 32 16 62 35 19 71 44 28 71 44 28 73 46 30 73 46 30 71 44 28 75 48 32 80 53 37 76 49 33 78 51 35 76 49 33 68 41 25 78 51 35 76 49 33 73 46 30 64 37 21 57 30 14 56 29 13 58 31 15 66 39 23 62 35 19 56 29 13 57 30 14 58 31 15 69 42 26 73 46 30 64 37 21 74 47 31 71 44 28 66 39 23 74 47 31 72 45 29 75 48 32 69 42 26 67 40 24 66 39 23 54 27 11 51 24 8 60 33 17 59 32 16 56 29 13 47 20 4 57 30 14 53 26 10 56 29 13 62 35 19 66 39 23 59 32 16 71 44 28 65 38 22 69 42 26 70 43 27 66 39 23 74 47 31 64 37 21 62 35 19 65 38 22 66 39 23 65 38 22 63 36 20 60 33 17 62 35 19 56 29 13 62 35 19 64 37 21 60 33 17 63 36 20 61 34 18 73 46 30 76 49 33 73 46 30 67 40 24 70 43 27 69 42 26 72 45 29 79 52 36 76 49 33 77 50 34 69 42 26 74 47 31 64 37 21 67 40 24 67 40 24 57 30 14 62 35 19 68 41 25 66 39 23 62 35 19 66 39 23 66 39 23 67 40 24 68 41 25 77 50 34 75 48 32 75 48 32 82 55 39 73 46 30 69 42 26 76 49 33 71 44 28 67 40 24 69 42 26 59 32 16 65 38 22 56 29 13 63 36 20 54 27 11 59 32 16 64 37 21 58 31 15 65 38 22 61 34 18 71 44 28 71 44 28 70 43 27
73 46 30 66 39 23 65 38 22 75 48 32 64 37 21 65 38 22 62 35 19 58 31 15 60 33 17 66 39 23 56 29 13 66 39 23 64 37 21 63 36 20 67 40 24 71 44 28 77 50 34 76 49 33 78 51 35 77 50 34 83 56 40 80 53 37 76 49 33 78 51 35 79 52 36 74 47 31 73 46 30 65 38 22 70 43 27 63 36 20 64 37 21 61 34 18 65 38 22 62 35 19 58 31 15 57 30 14 66 39 23 68 41 25 62 35 19 63 36 20 71 44 28 70 43 27 74 47 31 72 45 29 68 41 25 68 41 25 65 38 22 67 40 24 66 39 23 65 38 22 51 24 8 58 31 15 49 22 6 59 32 16 56 29 13 60 33 17 60 33 17 50 23 7 53 26 10 61 34 18 64 37 21 65 38 22 65 38 22 66 39 23 64 37 21 68 41 25 67 40 24 60 33 17 70 43 27 58 31 15 56 29 13 62 35 19 64 37 21 64 37 21 62 35 19 53 26 10 52 25 9 60 33 17 62 35 19 62 35 19 59 32 16 68 41 25 74 47 31 78 51 35 77 50 34 78 51 35 75 48 32 75 48 32 81 54 38 78 51 35 76 49 33 70 43 27 63 36 20 67 40 24 60 33 17 69 42 26 60 33 17 65 38 22 68 41 25 60 33 17 67 40 24 70 43 27 70 43 27 65 38 22 73 46 30 79 52 36 75 48 32 82 55 39 73 46 30 71 44 28 77 50 34 75 48 32 70 43 27 71 44 28 68 41 25 61 34 18 57 30 14 63 36 20 55 28 12 54 27 11 64 37 21 54 27 11 61 34 18 57 30 14 58 31 15 66 39 23 65 38 22 71 44 28
73 46 30 76 49 33 69 42 26 66 39 23 61 34 18 70 43 27 64 37 21 57 30 14 55 28 12 57 30 14 56 29 13 62 35 19 61 34 18 69 42 26 70 43 27 68 41 25 67 40 24 66 39 23 76 49 33 74 47 31 81 54 38 78 51 35 77 50 34 71 44 28 76 49 33 75 48 32 66 39 23 74 47 31 59 32 16 66 39 23 68 41 25 62 35 19 67 40 24 61 34 18 58 31 15 60 33 17 61 34 18 69 42 26 74 47 31 70 43 27 72 45 29 65 38 22 66 39 23 64 37 21 67 40 24 71 44 28 62 35 19 69 42 26 60 33 17 59 32 16 54 27 11 51 24 8 54 27 11 53 26 10 55 28 12 57 30 14 55 28 12 54 27 11 58 31 15 65 38 22 58 31 15 64 37 21 60 33 17 74 47 31 74 47 31 63 36 20 65 38 22 68 41 25 66 39 23 57 30 14 61 34 18 64 37 21 65 38 22 58 31 15 61 34 18 62 35 19 59 32 16 61 34 18 60 33 17 63 36 20 61 34 18 62 35 19 66 39 23 74 47 31 80 53 37 77 50 34 69 42 26 81 54 38 70 43 27 67 40 24 67 40 24 73 46 30 66 39 23 62 35 19 59 32 16 59 32 16 56 29 13 61 34 18 67 40 24 61 34 18 72 45 29 66 39 23 70 43 27 77 50 34 68 41 25 75 48 32 79 52 36 74 47 31 80 53 37 68 41 25 79 52 36 74 47 31 76 49 33 64 37 21 62 35 19 59 32 16 67 40 24 54 27 11 64 37 21 57 30 14 53 26 10 56 29 13 60 33 17 56 29 13 66 39 23 60 33 17 60 33 17 65 38 22
68 41 25 75 48 32 76 49 33 72 45 29 74 47 31 65 38 22 61 34 18 59 32 16 63 36 20 65 38 22 68 41 25 63 36 20 61 34 18 70 43 27 67 40 24 69 42 26 64 37 21 74 47 31 75 48 32 69 42 26 78 51 35 71 44 28 70 43 27 78 51 35 70 43 27 73 46 30 73 46 30 75 48 32 71 44 28 70 43 27 57 30 14 57 30 14 54 27 11 66 39 23 56 29 13 63 36 20 65 38 22 61 34 18 66 39 23 66 39 23 68 41 25 75 48 32 75 48 32 71 44 28 71 44 28 68 41 25 60 33 17 60 33 17 66 39 23 54 27 11 55 28 12 53 26 10 48 21 5 53 26 10 55 28 12 52 25 9 60 33 17 58 31 15 52 25 9 65 38 22 57 30 14 65 38 22 63 36 20 72 45 29 73 46 30 65 38 22 70 43 27 72 45 29 66 39 23 64 37 21 57 30 14 56 29 13 55 28 12 54 27 11 54 27 11 60 33 17 58 31 15 60 33 17 66 39 23 65 38 22 68 41 25 64 37 21 75 48 32 69 42 26 77 50 34 74 47 31 78 51 35 77 50 34 79 52 36 66 39 23 67 40 24 76 49 33 70 43 27 63 36 20 71 44 28 60 33 17 63 36 20 67 40 24 61 34 18 63 36 20 62 35 19 67 40 24 72 45 29 76 49 33 68 41 25 72 45 29 81 54 38 70 43 27 81 54 38 77 50 34 77 50 34 66 39 23 68 41 25 60 33 17 67 40 24 58 31 15 66 39 23 53 26 10 63 36 20 52 25 9 52 25 9 59 32 16 67 40 24 56 29 13 70 43 27 63 36 20 72 45 29 67 40 24
71 44 28 68 41 25 66 39 23 69 42 26 67 40 24 64 37 21 68 41 25 62 35 19 60 33 17 62 35 19 64 37 21 55 28 12 59 32 16 70 43 27 61 34 18 64 37 21 65 38 22 76 49 33 75 48 32 81 54 38 82 55 39 79 52 36 79 52 36 75 48 32 80 53 37 76 49 33 69 42 26 72 45 29 71 44 28 57 30 14 58 31 15 57 30 14 61 34 18 65 38 22 55 28 12 67 40 24 62 35 19 60 33 17 66 39 23 73 46 30 66 39 23 72 45 29 75 48 32 64 37 21 75 48 32 72 45 29 67 40 24 62 35 19 66 39 23 65 38 22 59 32 16 58 31 15 61 34 18 51 24 8 56 29 13 60 33 17 51 24 8 56 29 13 58 31 15 55 28 12 65 38 22 59 32 16 60 33 17 72 45 29 60 33 17 62 35 19 60 33 17 62 35 19 66 39 23 60 33 17 66 39 23 57 30 14 60 33 17 55 28 12 55 28 12 56 29 13 61 34 18 57 30 14 66 39 23 59 32 16 58 31 15 69 42 26 65 38 22 74 47 31 72 45 29 81 54 38 73 46 30 69 42 26 79 52 36 79 52 36 71 44 28 65 38 22 72 45 29 72 45 29 61 34 18 60 33 17 61 34 18 61 34 18 60 33 17 70 43 27 66 39 23 64 37 21 65 38 22 71 44 28 75 48 32 80 53 37 71 44 28 81 54 38 73 46 30 78 51 35 76 49 33 74 47 31 71 44 28 74 47 31 66 39 23 69 42 26 56 29 13 55 28 12 61 34 18 61 34 18 60 33 17 58 31 15 54 27 11 60 33 17 68 41 25 62 35 19 70 43 27 62 35 19
73 46 30 69 42 26 76 49 33 72 45 29 64 37 21 63 36 20 59 32 16 60 33 17 67 40 24 57 30 14 63 36 20 63 36 20 57 30 14 67 40 24 64 37 21 70 43 27 71 44 28 78 51 35 79 52 36 73 46 30 77 50 34 76 49 33 70 43 27 75 48 32 78 51 35 65 38 22 69 42 26 67 40 24 59 32 16 59 32 16 65 38 22 64 37 21 62 35 19 63 36 20 61 34 18 69 42 26 58 31 15 68 41 25 73 46 30 74 47 31 74 47 31 71 44 28 69 42 26 77 50 34 71 44 28 63 36 20 69 42 26 63 36 20 67 40 24 53 26 10 60 33 17 54 27 11 60 33 17 55 28 12 55 28 12 60 33 17 56 29 13 52 25 9 62 35 19 58 31 15 69 42 26 61 34 18 71 44 28 61 34 18 65 38 22 67 40 24 65 38 22 69 42 26 68 41 25 58 31 15 57 30 14 54 27 11 63 36 20 63 36 20 51 24 8 56 29 13 58 31 15 58 31 15 54 27 11 57 30 14 65 38 22 63 36 20 70 43 27 69 42 26 74 47 31 76 49 33 74 47 31 69 42 26 70 43 27 71 44 28 72 45 29 75 48 32 73 46 30 67 40 24 62 35 19 67 40 24 69 42 26 57 30 14 69 42 26 67 40 24 72 45 29 72 45 29 73 46 30 70 43 27 69 42 26 71 44 28 75 48 32 78 51 35 77 50 34 71 44 28 77 50 34 77 50 34 73 46 30 73 46 30 64 37 21 67 40 24 54 27 11 58 31 15 56 29 13 58 31 15 53 26 10 52 25 9 61 34 18 60 33 17 67 40 24 71 44 28 65 38 22 65 38 22
74 47 31 66 39 23 77 50 34 73 46 30 69 42 26 63 36 20 66 39 23 58 31 15 58 31 15 66 39 23 64 37 21 61 34 18 66 39 23 58 31 15 73 46 30 73 46 30 75 48 32 74 47 31 72 45 29 71 44 28 81 54 38 81 54 38 81 54 38 72 45 29 72 45 29 72 45 29 77 50 34 73 46 30 64 37 21 68 41 25 63 36 20 63 36 20 65 38 22 66 39 23 64 37 21 69 42 26 63 36 20 69 42 26 74 47 31 71 44 28 65 38 22 73 46 30 73 46 30 65 38 22 65 38 22 66 39 23 60 33 17 61 34 18 63 36 20 55 28 12 62 35 19 62 35 19 59 32 16 48 21 5 60 33 17 60 33 17 62 35 19 60 33 17 63 36 20 60 33 17 63 36 20 58 31 15 66 39 23 68 41 25 67 40 24 66 39 23 67 40 24 72 45 29 70 43 27 68 41 25 57 30 14 56 29 13 56 29 13 58 31 15 63 36 20 62 35 19 54 27 11 63 36 20 53 26 10 60 33 17 71 44 28 65 38 22 74 47 31 68 41 25 69 42 26 71 44 28 70 43 27 79 52 36 81 54 38 75 48 32 71 44 28 76 49 33 68 41 25 70 43 27 64 37 21 65 38 22 70 43 27 59 32 16 64 37 21 71 44 28 67 40 24 64 37 21 70 43 27 69 42 26 75 48 32 78 51 35 69 42 26 78 51 35 81 54 38 71 44 28 67 40 24 67 40 24 69 42 26 65 38 22 61 34 18 65 38 22 58 31 15 61 34 18 56 29 13 52 25 9 58 31 15 57 30 14 57 30 14 58 31 15 69 42 26 61 34 18 70 43 27 70 43 27
77 50 34 78 51 35 76 49 33 65 38 22 71 44 28 72 45 29 65 38 22 62 35 19 64 37 21 65 38 22 64 37 21 67 40 24 59 32 16 58 31 15 65 38 22 63 36 20 76 49 33 72 45 29 74 47 31 79 52 36 78 51 35 71 44 28 72 45 29 76 49 33 77 50 34 76 49 33 71 44 28 68 41 25 60 33 17 69 42 26 60 33 17 59 32 16 59 32 16 57 30 14 58 31 15 56 29 13 70 43 27 69 42 26 66 39 23 69 42 26 73 46 30 75 48 32 77 50 34 68 41 25 73 46 30 67 40 24 71 44 28 58 31 15 58 31 15 60 33 17 59 32 16 61 34 18 60 33 17 53 26 10 49 22 6 53 26 10 59 32 16 59 32 16 53 26 10 57 30 14 59 32 16 63 36 20 67 40 24 69 42 26 73 46 30 74 47 31 60 33 17 63 36 20 58 31 15 58 31 15 63 36 20 64 37 21 62 35 19 59 32 16 52 25 9 60 33 17 60 33 17 52 25 9 62 35 19 62 35 19 71 44 28 72 45 29 64 37 21 73 46 30 74 47 31 81 54 38 69 42 26 72 45 29 80 53 37 72 45 29 74 47 31 76 49 33 75 48 32 63 36 20 70 43 27 63 36 20 62 35 19 64 37 21 70 43 27 60 33 17 71 44 28 72 45 29 65 38 22 70 43 27 72 45 29 80 53 37 82 55 39 71 44 28 82 55 39 72 45 29 78 51 35 69 42 26 73 46 30 63 36 20 61 34 18 64 37 21 54 27 11 65 38 22 53 26 10 60 33 17 65 38 22 53 26 10 59 32 16 54 27 11 64 37 21 66 39 23 70 43 27 72 45 29
68 41 25 73 46 30 68 41 25 69 42 26 63 36 20 67 40 24 69 42 26 64 37 21 58 31 15 65 38 22 59 32 16 58 31 15 61 34 18 66 39 23 66 39 23 71 44 28 75 48 32 78 51 35 68 41 25 73 46 30 78 51 35 74 47 31 83 56 40 71 44 28 79 52 36 75 48 32 64 37 21 67 40 24 72 45 29 66 39 23 56 29 13 58 31 15 55 28 12 62 35 19 60 33 17 60 33 17 58 31 15 59 32 16 74 47 31 69 42 26 68 41 25 70 43 27 66 39 23 65 38 22 75 48 32 73 46 30 62 35 19 60 33 17 66 39 23 54 27 11 53 26 10 49 22 6 60 33 17 51 24 8 49 22 6 54 27 11 60 33 17 56 29 13 58 31 15 58 31 15 57 30 14 66 39 23 72 45 29 73 46 30 74 47 31 66 39 23 60 33 17 67 40 24 71 44 28 60 33 17 61 34 18 55 28 12 58 31 15 55 28 12 60 33 17 58 31 15 62 35 19 55 28 12 53 26 10 61 34 18 63 36 20 68 41 25 66 39 23 76 49 33 78 51 35 72 45 29 74 47 31 73 46 30 71 44 28 68 41 25 75 48 32 64 37 21 71 44 28 72 45 29 68 41 25 61 34 18 69 42 26 65 38 22 68 41 25 63 36 20 59 32 16 68 41 25 67 40 24 78 51 35 66 39 23 80 53 37 81 54 38 76 49 33 73 46 30 71 44 28 68 41 25 78 51 35 73 46 30 71 44 28 61 34 18 57 30 14 62 35 19 61 34 18 56 29 13 55 28 12 53 26 10 53 26 10 58 31 15 64 37 21 60 33 17 71 44 28 66 39 23 61 34 18
75 48 32 74 47 31 70 43 27 73 46 30 66 39 23 61 34 18 66 39 23 64 37 21 63 36 20 64 37 21 62 35 19 58 31 15 57 30 14 66 39 23 72 45 29 70 43 27 68 41 25 70 43 27 71 44 28 72 45 29 70 43 27 72 45 29 84 57 41 81 54 38 80 53 37 71 44 28 72 45 29 65 38 22 68 41 25 59 32 16 59 32 16 63 36 20 63 36 20 61 34 18 65 38 22 68 41 25 71 44 28 69 42 26 74 47 31 75 48 32 73 46 30 66 39 23 68 41 25 64 37 21 65 38 22 74 47 31 71 44 28 60 33 17 67 40 24 66 39 23 58 31 15 51 24 8 55 28 12 56 29 13 58 31 15 53 26 10 58 31 15 60 33 17 53 26 10 55 28 12 60 33 17 64 37 21 69 42 26 70 43 27 67 40 24 73 46 30 71 44 28 63 36 20 63 36 20 65 38 22 63 36 20 65 38 22 57 30 14 58 31 15 51 24 8 62 35 19 51 24 8 63 36 20 55 28 12 65 38 22 71 44 28 74 47 31 66 39 23 67 40 24 74 47 31 69 42 26 70 43 27 80 53 37 77 50 34 80 53 37 71 44 28 69 42 26 70 43 27 68 41 25 63 36 20 66 39 23 57 30 14 56 29 13 66 39 23 67 40 24 73 46 30 69 42 26 72 45 29 78 51 35 71 44 28 72 45 29 76 49 33 73 46 30 80 53 37 73 46 30 68 41 25 71 44 28 69 42 26 67 40 24 64 37 21 67 40 24 55 28 12 56 29 13 60 33 17 59 32 16 56 29 13 54 27 11 57 30 14 67 40 24 66 39 23 63 36 20 71 44 28 64 37 21
65 38 22 72 45 29 73 46 30 74 47 31 73 46 30 63 36 20 60 33 17 68 41 25 68 41 25 63 36 20 58 31 15 63 36 20 64 37 21 64 37 21 71 44 28 70 43 27 77 50 34 74 47 31 73 46 30 83 56 40 70 43 27 74 47 31 81 54 38 77 50 34 76 49 33 76 49 33 74 47 31 67 40 24 68 41 25 64 37 21 57 30 14 64 37 21 54 27 11 66 39 23 66 39 23 65 38 22 59 32 16 60 33 17 68 41 25 75 48 32 68 41 25 75 48 32 65 38 22 71 44 28 70 43 27 72 45 29 70 43 27 65 38 22 66 39 23 56 29 13 55 28 12 56 29 13 52 25 9 53 26 10 51 24 8 58 31 15 61 34 18 52 25 9 61 34 18 62 35 19 68 41 25 62 35 19 63 36 20 71 44 28 70 43 27 62 35 19 62 35 19 72 45 29 63 36 20 57 30 14 68 41 25 58 31 15 63 36 20 63 36 20 58 31 15 52 25 9 52 25 9 57 30 14 63 36 20 56 29 13 70 43 27 69 42 26 65 38 22 70 43 27 75 48 32 76 49 33 75 48 32 75 48 32 67 40 24 74 47 31 69 42 26 72 45 29 74 47 31 72 45 29 61 34 18 63 36 20 65 38 22 60 33 17 66 39 23 66 39 23 61 34 18 67 40 24 71 44 28 75 48 32 74 47 31 77 50 34 80 53 37 70 43 27 69 42 26 74 47 31 73 46 30 75 48 32 64 37 21 64 37 21 70 43 27 68 41 25 59 32 16 62 35 19 53 26 10 62 35 19 59 32 16 56 29 13 54 27 11 59 32 16 58 31 15 67 40 24 64 37 21 67 40 24
73 46 30 76 49 33 70 43 27 68 41 25 70 43 27 64 37 21 66 39 23 58 31 15 57 30 14 65 38 22 65 38 22 61 34 18 65 38 22 61 34 18 68 41 25 67 40 24 66 39 23 77 50 34 81 54 38 82 55 39 83 56 40 77 50 34 74 47 31 69 42 26 69 42 26 66 39 23 69 42 26 71 44 28 60 33 17 65 38 22 60 33 17 65 38 22 57 30 14 58 31 15 58 31 15 63 36 20 67 40 24 63 36 20 63 36 20 69 42 26 75 48 32 75 48 32 65 38 22 72 45 29 65 38 22 66 39 23 69 42 26 67 40 24 57 30 14 64 37 21 54 27 11 55 28 12 58 31 15 56 29 13 49 22 6 59 32 16 57 30 14 50 23 7 55 28 12 59 32 16 58 31 15 70 43 27 70 43 27 68 41 25 67 40 24 70 43 27 64 37 21 62 35 19 64 37 21 67 40 24 60 33 17 59 32 16 56 29 13 54 27 11 50 23 7 56 29 13 52 25 9 57 30 14 57 30 14 64 37 21 65 38 22 72 45 29 69 42 26 77 50 34 76 49 33 77 50 34 81 54 38 75 48 32 78 51 35 79 52 36 74 47 31 71 44 28 72 45 29 63 36 20 61 34 18 68 41 25 65 38 22 60 33 17 63 36 20 65 38 22 71 44 28 61 34 18 72 45 29 76 49 33 78 51 35 72 45 29 70 43 27 74 47 31 70 43 27 79 52 36 76 49 33 70 43 27 70 43 27 73 46 30 67 40 24 56 29 13 54 27 11 60 33 17 54 27 11 58 31 15 60 33 17 57 30 14 66 39 23 58 31 15 60 33 17 68 41 25 72 45 29 64 37 21
67 40 24 72 45 29 67 40 24 67 40 24 64 37 21 68 41 25 71 44 28 60 33 17 68 41 25 59 32 16 67 40 24 56 29 13 65 38 22 62 35 19 71 44 28 74 47 31 66 39 23 71 44 28 74 47 31 71 44 28 76 49 33 74 47 31 78 51 35 78 51 35 77 50 34 74 47 31 73 46 30 67 40 24 63 36 20 63 36 20 62 35 19 56 29 13 66 39 23 63 36 20 63 36 20 68 41 25 65 38 22 73 46 30 73 46 30 72 45 29 63 36 20 75 48 32 68 41 25 73 46 30 74 47 31 68 41 25 62 35 19 61 34 18 57 30 14 64 37 21 56 29 13 62 35 19 57 30 14 56 29 13 57 30 14 57 30 14 50 23 7 59 32 16 54 27 11 55 28 12 58 31 15 70 43 27 67 40 24 70 43 27 71 44 28 73 46 30 62 35 19 70 43 27 68 41 25 57 30 14 65 38 22 60 33 17 62 35 19 62 35 19 56 29 13 53 26 10 53 26 10 64 37 21 54 27 11 67 40 24 68 41 25 70 43 27 67 40 24 66 39 23 76 49 33 79 52 36 81 54 38 71 44 28 70 43 27 71 44 28 67 40 24 63 36 20 61 34 18 66 39 23 64 37 21 68 41 25 56 29 13 59 32 16 63 36 20 62 35 19 71 44 28 62 35 19 69 42 26 76 49 33 69 42 26 75 48 32 77 50 34 70 43 27 71 44 28 72 45 29 75 48 32 68 41 25 68 41 25 66 39 23 62 35 19 55 28 12 53 26 10 59 32 16 61 34 18 59 32 16 52 25 9 58 31 15 64 37 21 58 31 15 61 34 18 64 37 21 66 39 23 71 44 28
43 16 0 43 16 0 43 16 0 43 16 0 43 16 0 43 16 0 43 16 0 43 16 0 43 16 0 43 16 0 43 16 0 43 16 0 43 16 0 43 16 0 43 16 0 43 16 0 43 16 0 43 16 0 43 16 0 43 16 0 43 16 0 43 16 0 43 16 0 43 16 0 43 16 0 43 16 0 43 16 0 43 16 0 43 16 0 43 16 0 43 16 0 43 16 0 43 16 0 43 16 0 43 16 0 43 16 0 43 16 0 43 16 0 43 16 0 43 16 0 43 16 0 43 16 0 43 16 0 43 16 0 43 16 0 43 16 0 43 16 0 43 16 0 43 16 0 43 16 0 43 16 0 43 16 0 43 16 0 43 16 0 43 16 0 43 16 0 43 16 0 43 16 0 43 16 0 43 16 0 43 16 0 43 16 0 43 16 0 43 16 0 43 16 0 43 16 0 43 16 0 43 16 0 43 16 0 43 16 0 43 16 0 43 16 0 43 16 0 43 16 0 43 16 0 43 16 0 43 16 0 43 16 0 43 16 0 43 16 0 43 16 0 43 16 0 43 16 0 43 16 0 43 16 0 43 16 0 43 16 0 43 16 0 43 16 0 43 16 0 43 16 0 43 16 0 43 16 0 43 16 0 43 16 0 43 16 0 43 16 0 43 16 0 43 16 0 43 16 0 43 16 0 43 16 0 43 16 0 43 16 0 43 16 0 43 16 0 43 16 0 43 16 0 43 16 0 43 16 0 43 16 0 43 16 0 43 16 0 43 16 0 43 16 0 43 16 0 43 16 0 43 16 0 43 16 0 43 16 0 43 16 0 43 16 0 43 16 0 43 16 0 43 16 0 43 16 0 43 16 0 43 16 0
43 16 0 43 16 0 43 16 0 43 16 0 43 16 0 43 16 0 43 16 0 43 16 0 43 16 0 43 16 0 43 16 0 43 16 0 43 16 0 43 16 0 43 16 0 43 16 0 43 16 0 43 16 0 43 16 0 43 16 0 43 16 0 43 16 0 43 16 0 43 16 0 43 16 0 43 16 0 43 16 0 43 16 0 43 16 0 43 16 0 43 16 0 43 16 0 43 16 0 43 16 0 43 16 0 43 16 0 43 16 0 43 16 0 43 16 0 43 16 0 43 16 0 43 16 0 43 16 0 43 16 0 43 16 0 43 16 0 43 16 0 43 16 0 43 16 0 43 16 0 43 16 0 43 16 0 43 16 0 43 16 0 43 16 0 43 16 0 43 16 0 43 16 0 43 16 0 43 16 0 43 16 0 43 16 0 43 16 0 43 16 0 43 16 0 43 16 0 43 16 0 43 16 0 43 16 0 43 16 0 43 16 0 43 16 0 43 16 0 43 16 0 43 16 0 43 16 0 43 16 0 43 16 0 43 16 0 43 16 0 43 16 0 43 16 0 43 16 0 43 16 0 43 16 0 43 16 0 43 16 0 43 16 0 43 16 0 43 16 0 43 16 0 43 16 0 43 16 0 43 16 0 43 16 0 43 16 0 43 16 0 43 16 0 43 16 0 43 16 0 43 16 0 43 16 0 43 16 0 43 16 0 43 16 0 43 16 0 43 16 0 43 16 0 43 16 0 43 16 0 43 16 0 43 16 0 43 16 0 43 16 0 43 16 0 43 16 0 43 16 0 43 16 0 43 16 0 43 16 0 43 16 0 43 16 0 43 16 0 43 16 0 43 16 0 43 16 0 43 16 0 43 16 0
67 40 24 67 40 24 62 35 19 64 37 21 55 28 12 56 29 13 68 41 25 64 37 21 71 44 28 63 36 20 67 40 24 72 45 29 80 53 37 80 53 37 74 47 31 79 52 36 78 51 35 82 55 39 77 50 34 68 41 25 73 46 30 67 40 24 66 39 23 67 40 24 59 32 16 68 41 25 62 35 19 60 33 17 63 36 20 58 31 15 62 35 19 74 47 31 76 49 33 72 45 29 73 46 30 78 51 35 70 43 27 77 50 34 65 38 22 76 49 33 64 37 21 60 33 17 69 42 26 57 30 14 56 29 13 56 29 13 49 22 6 50 23 7 57 30 14 59 32 16 62 35 19 58 31 15 60 33 17 62 35 19 59 32 16 61 34 18 68 41 25 70 43 27 67 40 24 68 41 25 61 34 18 70 43 27 58 31 15 59 32 16 57 30 14 60 33 17 62 35 19 51 24 8 53 26 10 60 33 17 61 34 18 60 33 17 54 27 11 64 37 21 61 34 18 67 40 24 65 38 22 67 40 24 77 50 34 68 41 25 70 43 27 72 45 29 65 38 22 74 47 31 63 36 20 68 41 25 63 36 20 61 34 18 56 29 13 64 37 21 63 36 20 56 29 13 58 31 15 64 37 21 62 35 19 63 36 20 75 48 32 74 47 31 70 43 27 78 51 35 72 45 29 73 46 30 74 47 31 74 47 31 72 45 29 75 48 32 72 45 29 74 47 31 71 44 28 63 36 20 67 40 24 64 37 21 55 28 12 59 32 16 65 38 22 58 31 15 68 41 25 64 37 21 73 46 30 63 36 20 63 36 20 68 41 25 63 36 20 75 48 32 74 47 31 64 37 21 63 36 20 57 30 14
68 41 25 60 33 17 54 27 11 65 38 22 53 26 10 56 29 13 64 37 21 62 35 19 69 42 26 65 38 22 66 39 23 70 43 27 72 45 29 71 44 28 72 45 29 80 53 37 73 46 30 69 42 26 76 49 33 69 42 26 73 46 30 68 41 25 67 40 24 68 41 25 64 37 21 67 40 24 60 33 17 61 34 18 66 39 23 72 45 29 69 42 26 66 39 23 66 39 23 69 42 26 69 42 26 76 49 33 72 45 29 73 46 30 71 44 28 64 37 21 61 34 18 71 44 28 65 38 22 54 27 11 64 37 21 53 26 10 58 31 15 49 22 6 59 32 16 49 22 6 54 27 11 55 28 12 58 31 15 61 34 18 61 34 18 65 38 22 67 40 24 73 46 30 64 37 21 69 42 26 66 39 23 66 39 23 60 33 17 65 38 22 62 35 19 51 24 8 62 35 19 54 27 11 49 22 6 56 29 13 50 23 7 50 23 7 54 27 11 65 38 22 60 33 17 65 38 22 70 43 27 68 41 25 68 41 25 74 47 31 78 51 35 76 49 33 65 38 22 64 37 21 63 36 20 66 39 23 68 41 25 68 41 25 62 35 19 65 38 22 67 40 24 69 42 26 62 35 19 61 34 18 63 36 20 61 34 18 76 49 33 75 48 32 75 48 32 74 47 31 81 54 38 80 53 37 81 54 38 73 46 30 76 49 33 74 47 31 73 46 30 62 35 19 69 42 26 62 35 19 61 34 18 63 36 20 58 31 15 61 34 18 60 33 17 68 41 25 62 35 19 59 32 16 71 44 28 72 45 29 66 39 23 66 39 23 68 41 25 75 48 32 75 48 32 68 41 25 73 46 30 61 34 18
56 29 13 58 31 15 66 39 23 54 27 11 65 38 22 55 28 12 62 35 19 70 43 27 69 42 26 69 42 26 72 45 29 66 39 23 71 44 28 81 54 38 70 43 27 82 55 39 75 48 32 82 55 39 72 45 29 77 50 34 71 44 28 65 38 22 68 41 25 66 39 23 65 38 22 60 33 17 56 29 13 68 41 25 70 43 27 65 38 22 71 44 28 68 41 25 68 41 25 77 50 34 67 40 24 70 43 27 76 49 33 75 48 32 68 41 25 73 46 30 73 46 30 64 37 21 69 42 26 64 37 21 56 29 13 64 37 21 57 30 14 53 26 10 58 31 15 55 28 12 59 32 16 63 36 20 61 34 18 61 34 18 61 34 18 62 35 19 70 43 27 62 35 19 74 47 31 70 43 27 65 38 22 58 31 15 64 37 21 65 38 22 62 35 19 52 25 9 52 25 9 50 23 7 57 30 14 52 25 9 50 23 7 63 36 20 60 33 17 65 38 22 67 40 24 64 37 21 68 41 25 74 47 31 76 49 33 71 44 28 74 47 31 75 48 32 66 39 23 65 38 22 74 47 31 72 45 29 67 40 24 62 35 19 64 37 21 58 31 15 56 29 13 61 34 18 59 32 16 68 41 25 63 36 20 74 47 31 75 48 32 69 42 26 75 48 32 77 50 34 82 55 39 78 51 35 77 50 34 71 44 28 70 43 27 76 49 33 69 42 26 62 35 19 63 36 20 69 42 26 65 38 22 61 34 18 63 36 20 63 36 20 61 34 18 57 30 14 67 40 24 65 38 22 71 44 28 63 36 20 64 37 21 74 47 31 66 39 23 77 50 34 69 42 26 75 48 32 70 43 27 60 33 17
57 30 14 56 29 13 55 28 12 56 29 13 57 30 14 56 29 13 67 40 24 66 39 23 62 35 19 66 39 23 64 37 21 73 46 30 79 52 36 79 52 36 81 54 38 71 44 28 74 47 31 82 55 39 68 41 25 77 50 34 75 48 32 68 41 25 68 41 25 64 37 21 60 33 17 56 29 13 65 38 22 67 40 24 58 31 15 66 39 23 69 42 26 64 37 21 74 47 31 77 50 34 67 40 24 69 42 26 70 43 27 77 50 34 66 39 23 64 37 21 72 45 29 61 34 18 57 30 14 63 36 20 63 36 20 61 34 18 57 30 14 49 22 6 55 28 12 55 28 12 63 36 20 58 31 15 57 30 14 59 32 16 62 35 19 69 42 26 64 37 21 68 41 25 61 34 18 72 45 29 69 42 26 61 34 18 64 37 21 63 36 20 58 31 15 60 33 17 55 28 12 61 34 18 52 25 9 54 27 11 53 26 10 55 28 12 57 30 14 54 27 11 68 41 25 71 44 28 73 46 30 74 47 31 71 44 28 72 45 29 68 41 25 78 51 35 76 49 33 66 39 23 69 42 26 65 38 22 62 35 19 62 35 19 67 40 24 59 32 16 58 31 15 68 41 25 63 36 20 62 35 19 65 38 22 65 38 22 73 46 30 78 51 35 67 40 24 73 46 30 73 46 30 82 55 39 70 43 27 76 49 33 70 43 27 72 45 29 72 45 29 73 46 30 67 40 24 67 40 24 68 41 25 60 33 17 65 38 22 54 27 11 57 30 14 65 38 22 57 30 14 63 36 20 59 32 16 61 34 18 67 40 24 73 46 30 69 42 26 72 45 29 65 38 22 65 38 22 69 42 26 71 44 28
67 40 24 62 35 19 61 34 18 65 38 22 61 34 18 55 28 12 67 40 24 61 34 18 68 41 25 63 36 20 76 49 33 66 39 23 74 47 31 73 46 30 79 52 36 79 52 36 72 45 29 80 53 37 79 52 36 74 47 31 65 38 22 75 48 32 62 35 19 59 32 16 69 42 26 67 40 24 59 32 16 68 41 25 63 36 20 65 38 22 70 43 27 74 47 31 73 46 30 78 51 35 69 42 26 68 41 25 80 53 37 76 49 33 77 50 34 75 48 32 66 39 23 61 34 18 58 31 15 63 36 20 64 37 21 53 26 10 52 25 9 56 29 13 57 30 14 51 24 8 55 28 12 63 36 20 66 39 23 63 36 20 68 41 25 61 34 18 60 33 17 66 39 23 66 39 23 68 41 25 68 41 25 64 37 21 68 41 25 67 40 24 64 37 21 63 36 20 58 31 15 60 33 17 52 25 9 60 33 17 59 32 16 58 31 15 54 27 11 57 30 14 67 40 24 61 34 18 73 46 30 69 42 26 71 44 28 74 47 31 76 49 33 78 51 35 74 47 31 67 40 24 72 45 29 73 46 30 66 39 23 68 41 25 66 39 23 67 40 24 61 34 18 64 37 21 59 32 16 65 38 22 70 43 27 61 34 18 69 42 26 74 47 31 80 53 37 82 55 39 81 54 38 82 55 39 78 51 35 74 47 31 72 45 29 74 47 31 73 46 30 71 44 28 60 33 17 63 36 20 64 37 21 63 36 20 57 30 14 56 29 13 54 27 11 59 32 16 66 39 23 60 33 17 59 32 16 62 35 19 69 42 26 65 38 22 73 46 30 74 47 31 70 43 27 67 40 24 69 42 26 67 40 24
65 38 22 56 29 13 63 36 20 65 38 22 62 35 19 65 38 22 62 35 19 67 40 24 70 43 27 75 48 32 71 44 28 70 43 27 68 41 25 79 52 36 71 44 28 80 53 37 73 46 30 69 42 26 76 49 33 79 52 36 73 46 30 62 35 19 60 33 17 58 31 15 64 37 21 62 35 19 63 36 20 63 36 20 57 30 14 70 43 27 62 35 19 74 47 31 68 41 25 65 38 22 73 46 30 80 53 37 68 41 25 66 39 23 73 46 30 77 50 34 67 40 24 67 40 24 68 41 25 64 37 21 63 36 20 61 34 18 49 22 6 55 28 12 53 26 10 62 35 19 57 30 14 64 37 21 55 28 12 58 31 15 57 30 14 66 39 23 66 39 23 73 46 30 62 35 19 73 46 30 72 45 29 68 41 25 60 33 17 64 37 21 53 26 10 58 31 15 60 33 17 50 23 7 49 22 6 52 25 9 52 25 9 60 33 17 60 33 17 62 35 19 63 36 20 70 43 27 72 45 29 73 46 30 75 48 32 67 40 24 80 53 37 79 52 36 74 47 31 73 46 30 63 36 20 74 47 31 67 40 24 63 36 20 62 35 19 63 36 20 61 34 18 59 32 16 64 37 21 68 41 25 69 42 26 64 37 21 75 48 32 77 50 34 68 41 25 76 49 33 77 50 34 76 49 33 80 53 37 77 50 34 78 51 35 68 41 25 68 41 25 71 44 28 67 40 24 63 36 20 61 34 18 66 39 23 66 39 23 64 37 21 64 37 21 68 41 25 68 41 25 71 44 28 64 37 21 74 47 31 64 37 21 72 45 29 73 46 30 68 41 25 66 39 23 75 48 32 68 41 25 61 34 18
66 39 23 56 29 13 55 28 12 61 34 18 61 34 18 56 29 13 58 31 15 64 37 21 69 42 26 72 45 29 76 49 33 76 49 33 72 45 29 71 44 28 78 51 35 82 55 39 70 43 27 74 47 31 77 50 34 69 42 26 64 37 21 73 46 30 60 33 17 66 39 23 64 37 21 70 43 27 66 39 23 62 35 19 66 39 23 62 35 19 70 43 27 74 47 31 72 45 29 67 40 24 75 48 32 80 53 37 72 45 29 70 43 27 76 49 33 75 48 32 74 47 31 63 36 20 68 41 25 62 35 19 58 31 15 57 30 14 60 33 17 51 24 8 50 23 7 50 23 7 57 30 14 59 32 16 61 34 18 57 30 14 57 30 14 62 35 19 71 44 28 68 41 25 68 41 25 64 37 21 64 37 21 71 44 28 61 34 18 64 37 21 53 26 10 52 25 9 62 35 19 52 25 9 55 28 12 60 33 17 49 22 6 61 34 18 56 29 13 60 33 17 67 40 24 70 43 27 61 34 18 72 45 29 77 50 34 74 47 31 74 47 31 77 50 34 75 48 32 70 43 27 73 46 30 73 46 30 61 34 18 68 41 25 59 32 16 58 31 15 60 33 17 58 31 15 67 40 24 62 35 19 65 38 22 74 47 31 71 44 28 66 39 23 68 41 25 73 46 30 81 54 38 77 50 34 71 44 28 81 54 38 77 50 34 75 48 32 75 48 32 73 46 30 63 36 20 64 37 21 66 39 23 63 36 20 58 31 15 60 33 17 62 35 19 64 37 21 57 30 14 68 41 25 66 39 23 68 41 25 71 44 28 75 48 32 65 38 22 72 45 29 72 45 29 70 43 27 62 35 19 66 39 23
57 30 14 54 27 11 58 31 15 53 26 10 59 32 16 56 29 13 56 29 13 60 33 17 70 43 27 74 47 31 74 47 31 75 48 32 77 50 34 78 51 35 80 53 37 71 44 28 74 47 31 76 49 33 79 52 36 70 43 27 69 42 26 69 42 26 69 42 26 69 42 26 70 43 27 67 40 24 69 42 26 66 39 23 62 35 19 64 37 21 70 43 27 62 35 19 71 44 28 69 42 26 74 47 31 74 47 31 76 49 33 67 40 24 68 41 25 68 41 25 71 44 28 72 45 29 59 32 16 58 31 15 64 37 21 58 31 15 56 29 13 55 28 12 58 31 15 50 23 7 58 31 15 58 31 15 56 29 13 68 41 25 67 40 24 60 33 17 70 43 27 60 33 17 62 35 19 71 44 28 61 34 18 70 43 27 59 32 16 60 33 17 60 33 17 52 25 9 57 30 14 50 23 7 49 22 6 50 23 7 58 31 15 59 32 16 58 31 15 64 37 21 69 42 26 58 31 15 64 37 21 63 36 20 65 38 22 71 44 28 69 42 26 70 43 27 75 48 32 76 49 33 74 47 31 66 39 23 67 40 24 61 34 18 62 35 19 68 41 25 64 37 21 63 36 20 67 40 24 64 37 21 61 34 18 66 39 23 71 44 28 78 51 35 74 47 31 72 45 29 81 54 38 82 55 39 75 48 32 72 45 29 70 43 27 71 44 28 67 40 24 74 47 31 67 40 24 65 38 22 59 32 16 56 29 13 66 39 23 60 33 17 61 34 18 62 35 19 66 39 23 64 37 21 61 34 18 63 36 20 68 41 25 74 47 31 64 37 21 65 38 22 67 40 24 74 47 31 73 46 30 67 40 24
59 32 16 62 35 19 56 29 13 57 30 14 66 39 23 65 38 22 66 39 23 60 33 17 70 43 27 67 40 24 66 39 23 77 50 34 71 44 28 71 44 28 77 50 34 70 43 27 75 48 32 73 46 30 72 45 29 75 48 32 69 42 26 63 36 20 65 38 22 63 36 20 69 42 26 59 32 16 56 29 13 68 41 25 60 33 17 60 33 17 70 43 27 71 44 28 70 43 27 77 50 34 67 40 24 67 40 24 71 44 28 72 45 29 75 48 32 72 45 29 69 42 26 66 39 23 62 35 19 68 41 25 57 30 14 52 25 9 51 24 8 58 31 15 58 31 15 56 29 13 51 24 8 52 25 9 60 33 17 63 36 20 61 34 18 69 42 26 60 33 17 71 44 28 73 46 30 61 34 18 71 44 28 69 42 26 63 36 20 54 27 11 56 29 13 54 27 11 60 33 17 59 32 16 57 30 14 52 25 9 49 22 6 63 36 20 64 37 21 54 27 11 61 34 18 67 40 24 65 38 22 67 40 24 73 46 30 70 43 27 71 44 28 73 46 30 65 38 22 73 46 30 63 36 20 65 38 22 67 40 24 63 36 20 69 42 26 64 37 21 58 31 15 68 41 25 59 32 16 71 44 28 72 45 29 72 45 29 64 37 21 66 39 23 70 43 27 76 49 33 81 54 38 79 52 36 81 54 38 76 49 33 71 44 28 73 46 30 70 43 27 64 37 21 73 46 30 59 32 16 58 31 15 64 37 21 61 34 18 63 36 20 64 37 21 64 37 21 68 41 25 62 35 19 61 34 18 73 46 30 67 40 24 66 39 23 75 48 32 68 41 25 65 38 22 71 44 28 71 44 28 60 33 17
63 36 20 55 28 12 57 30 14 57 30 14 55 28 12 57 30 14 62 35 19 70 43 27 72 45 29 70 43 27 73 46 30 76 49 33 70 43 27 74 47 31 74 47 31 81 54 38 81 54 38 77 50 34 69 42 26 77 50 34 76 49 33 70 43 27 63 36 20 64 37 21 62 35 19 58 31 15 68 41 25 61 34 18 63 36 20 68 41 25 60 33 17 65 38 22 63 36 20 65 38 22 72 45 29 70 43 27 78 51 35 73 46 30 67 40 24 76 49 33 74 47 31 72 45 29 57 30 14 66 39 23 56 29 13 64 37 21 54 27 11 55 28 12 53 26 10 50 23 7 52 25 9 54 27 11 66 39 23 61 34 18 68 41 25 71 44 28 63 36 20 73 46 30 72 45 29 67 40 24 59 32 16 58 31 15 67 40 24 68 41 25 58 31 15 59 32 16 58 31 15 61 34 18 60 33 17 59 32 16 53 26 10 60 33 17 57 30 14 65 38 22 58 31 15 65 38 22 63 36 20 69 42 26 71 44 28 68 41 25 69 42 26 73 46 30 70 43 27 77 50 34 71 44 28 66 39 23 64 37 21 66 39 23 63 36 20 65 38 22 62 35 19 63 36 20 58 31 15 61 34 18 69 42 26 63 36 20 76 49 33 69 42 26 70 43 27 82 55 39 78 51 35 70 43 27 81 54 38 79 52 36 70 43 27 79 52 36 77 50 34 64 37 21 60 33 17 62 35 19 67 40 24 57 30 14 64 37 21 61 34 18 65 38 22 65 38 22 69 42 26 57 30 14 72 45 29 67 40 24 73 46 30 64 37 21 76 49 33 70 43 27 76 49 33 74 47 31 64 37 21 61 34 18
63 36 20 54 27 11 61 34 18 66 39 23 53 26 10 56 29 13 58 31 15 70 43 27 71 44 28 70 43 27 66 39 23 72 45 29 72 45 29 81 54 38 77 50 34 72 45 29 77 50 34 80 53 37 69 42 26 76 49 33 65 38 22 63 36 20 73 46 30 65 38 22 62 35 19 62 35 19 60 33 17 61 34 18 65 38 22 62 35 19 72 45 29 72 45 29 77 50 34 74 47 31 78 51 35 68 41 25 75 48 32 75 48 32 68 41 25 67 40 24 64 37 21 69 42 26 57 30 14 66 39 23 52 25 9 63 36 20 59 32 16 55 28 12 52 25 9 49 22 6 55 28 12 62 35 19 58 31 15 68 41 25 63 36 20 63 36 20 60 33 17 73 46 30 63 36 20 64 37 21 60 33 17 65 38 22 66 39 23 62 35 19 66 39 23 63 36 20 61 34 18 50 23 7 56 29 13 48 21 5 61 34 18 61 34 18 55 28 12 62 35 19 57 30 14 65 38 22 67 40 24 66 39 23 70 43 27 66 39 23 67 40 24 66 39 23 69 42 26 72 45 29 63 36 20 71 44 28 70 43 27 64 37 21 69 42 26 61 34 18 61 34 18 68 41 25 66 39 23 70 43 27 72 45 29 68 41 25 74 47 31 74 47 31 71 44 28 74 47 31 77 50 34 80 53 37 78 51 35 70 43 27 73 46 30 75 48 32 68 41 25 70 43 27 60 33 17 68 41 25 57 30 14 65 38 22 65 38 22 67 40 24 55 28 12 67 40 24 56 29 13 70 43 27 71 44 28 62 35 19 64 37 21 65 38 22 73 46 30 71 44 28 66 39 23 64 37 21 60 33 17 58 31 15
64 37 21 56 29 13 55 28 12 62 35 19 61 34 18 65 38 22 57 30 14 59 32 16 59 32 16 64 37 21 68 41 25 77 50 34 75 48 32 71 44 28 70 43 27 83 56 40 76 49 33 72 45 29 75 48 32 68 41 25 77 50 34 73 46 30 63 36 20 66 39 23 69 42 26 58 31 15 62 35 19 70 43 27 66 39 23 70 43 27 70 43 27 72 45 29 66 39 23 74 47 31 72 45 29 70 43 27 74 47 31 72 45 29 75 48 32 70 43 27 73 46 30 68 41 25 65 38 22 59 32 16 62 35 19 60 33 17 59 32 16 55 28 12 52 25 9 52 25 9 53 26 10 58 31 15 60 33 17 57 30 14 64 37 21 67 40 24 71 44 28 69 42 26 72 45 29 69 42 26 72 45 29 69 42 26 62 35 19 61 34 18 57 30 14 51 24 8 55 28 12 49 22 6 50 23 7 49 22 6 61 34 18 56 29 13 61 34 18 56 29 13 68 41 25 71 44 28 60 33 17 68 41 25 70 43 27 69 42 26 71 44 28 79 52 36 73 46 30 69 42 26 63 36 20 73 46 30 62 35 19 63 36 20 60 33 17 61 34 18 64 37 21 58 31 15 62 35 19 59 32 16 66 39 23 67 40 24 63 36 20 66 39 23 78 51 35 77 50 34 70 43 27 82 55 39 70 43 27 79 52 36 76 49 33 74 47 31 64 37 21 71 44 28 67 40 24 70 43 27 67 40 24 61 34 18 57 30 14 63 36 20 56 29 13 67 40 24 59 32 16 61 34 18 70 43 27 60 33 17 70 43 27 76 49 33 68 41 25 70 43 27 69 42 26 67 40 24 63 36 20 65 38 22
66 39 23 56 29 13 59 32 16 54 27 11 55 28 12 67 40 24 59 32 16 61 34 18 63 36 20 69 42 26 73 46 30 66 39 23 70 43 27 81 54 38 80 53 37 82 55 39 77 50 34 82 55 39 68 41 25 70 43 27 76 49 33 66 39 23 72 45 29 69 42 26 66 39 23 69 42 26 60 33 17 62 35 19 65 38 22 68 41 25 71 44 28 74 47 31 72 45 29 65 38 22 69 42 26 75 48 32 78 51 35 75 48 32 75 48 32 69 42 26 71 44 28 66 39 23 67 40 24 62 35 19 66 39 23 57 30 14 61 34 18 58 31 15 49 22 6 52 25 9 60 33 17 55 28 12 63 36 20 64 37 21 56 29 13 67 40 24 71 44 28 65 38 22 71 44 28 69 42 26 69 42 26 66 39 23 62 35 19 57 30 14 58 31 15 54 27 11 58 31 15 53 26 10 53 26 10 51 24 8 54 27 11 61 34 18 54 27 11 65 38 22 56 29 13 63 36 20 73 46 30 69 42 26 73 46 30 67 40 24 67 40 24 70 43 27 73 46 30 65 38 22 70 43 27 66 39 23 67 40 24 59 32 16 69 42 26 66 39 23 67 40 24 68 41 25 64 37 21 66 39 23 70 43 27 73 46 30 72 45 29 74 47 31 70 43 27 70 43 27 83 56 40 74 47 31 80 53 37 80 53 37 76 49 33 76 49 33 67 40 24 72 45 29 64 37 21 70 43 27 58 31 15 57 30 14 60 33 17 65 38 22 65 38 22 61 34 18 58 31 15 64 37 21 69 42 26 67 40 24 75 48 32 74 47 31 64 37 21 64 37 21 66 39 23 65 38 22 69 42 26 66 39 23
57 30 14 67 40 24 60 33 17 58 31 15 63 36 20 65 38 22 68 41 25 57 30 14 72 45 29 66 39 23 67 40 24 69 42 26 74 47 31 80 53 37 81 54 38 72 45 29 73 46 30 76 49 33 73 46 30 72 45 29 67 40 24 67 40 24 71 44 28 63 36 20 58 31 15 67 40 24 67 40 24 65 38 22 62 35 19 70 43 27 68 41 25 62 35 19 67 40 24 66 39 23 79 52 36 73 46 30 68 41 25 69 42 26 69 42 26 67 40 24 72 45 29 61 34 18 63 36 20 61 34 18 54 27 11 54 27 11 55 28 12 60 33 17 57 30 14 58 31 15 50 23 7 61 34 18 59 32 16 62 35 19 67 40 24 71 44 28 72 45 29 74 47 31 69 42 26 70 43 27 67 40 24 70 43 27 68 41 25 68 41 25 54 27 11 54 27 11 57 30 14 54 27 11 60 33 17 51 24 8 53 26 10 52 25 9 55 28 12 59 32 16 69 42 26 68 41 25 72 45 29 71 44 28 76 49 33 76 49 33 69 42 26 77 50 34 67 40 24 69 42 26 74 47 31 65 38 22 71 44 28 63 36 20 64 37 21 67 40 24 69 42 26 58 31 15 70 43 27 58 31 15 60 33 17 64 37 21 64 37 21 67 40 24 77 50 34 70 43 27 75 48 32 83 56 40 78 51 35 71 44 28 77 50 34 71 44 28 66 39 23 67 40 24 60 33 17 62 35 19 69 42 26 62 35 19 65 38 22 58 31 15 57 30 14 57 30 14 65 38 22 60 33 17 66 39 23 70 43 27 62 35 19 66 39 23 67 40 24 67 40 24 75 48 32 66 39 23 62 35 19 60 33 17
63 36 20 62 35 19 66 39 23 58 31 15 66 39 23 53 26 10 58 31 15 67 40 24 63 36 20 66 39 23 66 39 23 71 44 28 80 53 37 82 55 39 81 54 38 82 55 39 70 43 27 78 51 35 80 53 37 72 45 29 68 41 25 61 34 18 71 44 28 71 44 28 63 36 20 61 34 18 56 29 13 69 42 26 62 35 19 61 34 18 68 41 25 74 47 31 69 42 26 75 48 32 69 42 26 73 46 30 74 47 31 73 46 30 75 48 32 70 43 27 66 39 23 72 45 29 65 38 22 60 33 17 64 37 21 53 26 10 61 34 18 59 32 16 59 32 16 58 31 15 56 29 13 63 36 20 64 37 21 62 35 19 63 36 20 67 40 24 67 40 24 68 41 25 69 42 26 67 40 24 68 41 25 68 41 25 69 42 26 58 31 15 58 31 15 64 37 21 50 23 7 52 25 9 48 21 5 56 29 13 56 29 13 54 27 11 61 34 18 61 34 18 58 31 15 63 36 20 65 38 22 73 46 30 65 38 22 67 40 24 66 39 23 74 47 31 76 49 33 74 47 31 66 39 23 72 45 29 61 34 18 63 36 20 64 37 21 56 29 13 57 30 14 65 38 22 68 41 25 71 44 28 68 41 25 68 41 25 75 48 32 76 49 33 79 52 36 70 43 27 78 51 35 83 56 40 74 47 31 70 43 27 73 46 30 68 41 25 71 44 28 66 39 23 63 36 20 68 41 25 63 36 20 62 35 19 66 39 23 61 34 18 67 40 24 68 41 25 63 36 20 71 44 28 61 34 18 74 47 31 73 46 30 72 45 29 73 46 30 68 41 25 71 44 28 64 37 21 71 44 28 69 42 26
60 33 17 60 33 17 55 28 12 59 32 16 59 32 16 66 39 23 62 35 19 66 39 23 67 40 24 69 42 26 74 47 31 75 48 32 79 52 36 77 50 34 81 54 38 81 54 38 83 56 40 81 54 38 77 50 34 77 50 34 72 45 29 62 35 19 67 40 24 67 40 24 62 35 19 63 36 20 63 36 20 58 31 15 58 31 15 58 31 15 66 39 23 63 36 20 74 47 31 64 37 21 73 46 30 75 48 32 77 50 34 76 49 33 71 44 28 71 44 28 63 36 20 64 37 21 60 33 17 68 41 25 60 33 17 62 35 19 59 32 16 61 34 18 52 25 9 61 34 18 62 35 19 60 33 17 60 33 17 66 39 23 64 37 21 61 34 18 69 42 26 64 37 21 73 46 30 65 38 22 70 43 27 58 31 15 62 35 19 67 40 24 60 33 17 56 29 13 53 26 10 53 26 10 53 26 10 50 23 7 52 25 9 54 27 11 61 34 18 61 34 18 61 34 18 62 35 19 74 47 31 69 42 26 74 47 31 67 40 24 79 52 36 72 45 29 68 41 25 65 38 22 64 37 21 68 41 25 67 40 24 70 43 27 67 40 24 65 38 22 66 39 23 59 32 16 59 32 16 69 42 26 73 46 30 66 39 23 75 48 32 78 51 35 73 46 30 73 46 30 81 54 38 83 56 40 77 50 34 73 46 30 74 47 31 67 40 24 66 39 23 62 35 19 61 34 18 60 33 17 60 33 17 65 38 22 67 40 24 56 29 13 63 36 20 64 37 21 62 35 19 62 35 19 59 32 16 62 35 19 70 43 27 64 37 21 71 44 28 76 49 33 74 47 31 69 42 26 72 45 29 66 39 23
64 37 21 57 30 14 59 32 16 55 28 12 62 35 19 56 29 13 65 38 22 66 39 23 66 39 23 62 35 19 69 42 26 71 44 28 72 45 29 69 42 26 71 44 28 83 56 40 77 50 34 77 50 34 73 46 30 70 43 27 72 45 29 73 46 30 71 44 28 68 41 25 67 40 24 63 36 20 62 35 19 64 37 21 64 37 21 65 38 22 70 43 27 71 44 28 68 41 25 68 41 25 79 52 36 68 41 25 75 48 32 76 49 33 67 40 24 73 46 30 62 35 19 64 37 21 65 38 22 61 34 18 55 28 12 60 33 17 52 25 9 56 29 13 55 28 12 62 35 19 53 26 10 57 30 14 53 26 10 68 41 25 70 43 27 62 35 19 72 45 29 60 33 17 62 35 19 64 37 21 67 40 24 66 39 23 64 37 21 55 28 12 55 28 12 51 24 8 62 35 19 53 26 10 55 28 12 53 26 10 53 26 10 52 25 9 64 37 21 62 35 19 64 37 21 71 44 28 72 45 29 75 48 32 73 46 30 67 40 24 72 45 29 74 47 31 70 43 27 73 46 30 64 37 21 63 36 20 65 38 22 61 34 18 69 42 26 69 42 26 56 29 13 62 35 19 60 33 17 65 38 22 66 39 23 73 46 30 63 36 20 65 38 22 70 43 27 69 42 26 71 44 28 77 50 34 79 52 36 69 42 26 70 43 27 68 41 25 72 45 29 68 41 25 59 32 16 64 37 21 64 37 21 66 39 23 57 30 14 61 34 18 66 39 23 58 31 15 66 39 23 65 38 22 69 42 26 74 47 31 63 36 20 72 45 29 69 42 26 76 49 33 72 45 29 64 37 21 71 44 28 60 33 17
61 34 18 57 30 14 64 37 21 53 26 10 61 34 18 62 35 19 59 32 16 63 36 20 62 35 19 66 39 23 73 46 30 67 40 24 76 49 33 72 45 29 74 47 31 73 46 30 80 53 37 73 46 30 73 46 30 77 50 34 75 48 32 71 44 28 73 46 30 68 41 25 65 38 22 61 34 18 68 41 25 61 34 18 59 32 16 61 34 18 72 45 29 63 36 20 65 38 22 65 38 22 77 50 34 70 43 27 77 50 34 72 45 29 68 41 25 70 43 27 67 40 24 71 44 28 66 39 23 64 37 21 66 39 23 59 32 16 49 22 6 53 26 10 51 24 8 59 32 16 53 26 10 52 25 9 55 28 12 63 36 20 58 31 15 62 35 19 71 44 28 65 38 22 64 37 21 72 45 29 72 45 29 63 36 20 63 36 20 61 34 18 56 29 13 63 36 20 52 25 9 50 23 7 58 31 15 51 24 8 50 23 7 61 34 18 60 33 17 59 32 16 58 31 15 62 35 19 63 36 20 74 47 31 76 49 33 79 52 36 76 49 33 72 45 29 72 45 29 71 44 28 68 41 25 63 36 20 67 40 24 64 37 21 68 41 25 59 32 16 59 32 16 68 41 25 68 41 25 65 38 22 73 46 30 63 36 20 64 37 21 69 42 26 73 46 30 77 50 34 83 56 40 79 52 36 71 44 28 79 52 36 76 49 33 72 45 29 64 37 21 73 46 30 68 41 25 67 40 24 56 29 13 56 29 13 58 31 15 67 40 24 61 34 18 58 31 15 64 37 21 62 35 19 62 35 19 71 44 28 71 44 28 70 43 27 72 45 29 67 40 24 76 49 33 64 37 21 70 43 27 66 39 23
56 29 13 63 36 20 67 40 24 62 35 19 60 33 17 65 38 22 61 34 18 63 36 20 64 37 21 70 43 27 65 38 22 73 46 30 75 48 32 82 55 39 75 48 32 80 53 37 70 43 27 74 47 31 68 41 25 79 52 36 70 43 27 68 41 25 72 45 29 64 37 21 63 36 20 69 42 26 68 41 25 62 35 19 61 34 18 62 35 19 65 38 22 65 38 22 67 40 24 65 38 22 70 43 27 76 49 33 77 50 34 76 49 33 65 38 22 77 50 34 64 37 21 62 35 19 62 35 19 63 36 20 65 38 22 58 31 15 57 30 14 52 25 9 53 26 10 56 29 13 62 35 19 62 35 19 65 38 22 59 32 16 66 39 23 66 39 23 61 34 18 69 42 26 71 44 28 66 39 23 66 39 23 61 34 18 66 39 23 58 31 15 57 30 14 51 24 8 57 30 14 54 27 11 57 30 14 51 24 8 50 23 7 54 27 11 58 31 15 59 32 16 64 37 21 65 38 22 65 38 22 62 35 19 71 44 28 75 48 32 78 51 35 69 42 26 70 43 27 69 42 26 68 41 25 68 41 25 60 33 17 62 35 19 63 36 20 66 39 23 65 38 22 65 38 22 68 41 25 58 31 15 67 40 24 70 43 27 69 42 26 67 40 24 78 51 35 72 45 29 79 52 36 76 49 33 71 44 28 79 52 36 76 49 33 71 44 28 69 42 26 74 47 31 63 36 20 65 38 22 57 30 14 64 37 21 65 38 22 58 31 15 66 39 23 57 30 14 65 38 22 67 40 24 67 40 24 64 37 21 71 44 28 76 49 33 66 39 23 72 45 29 68 41 25 70 43 27 61 34 18 71 44 28
55 28 12 56 29 13 60 33 17 55 28 12 55 28 12 62 35 19 67 40 24 70 43 27 64 37 21 68 41 25 72 45 29 66 39 23 77 50 34 79 52 36 75 48 32 72 45 29 81 54 38 71 44 28 77 50 34 67 40 24 73 46 30 71 44 28 61 34 18 63 36 20 64 37 21 69 42 26 57 30 14 68 41 25 66 39 23 61 34 18 63 36 20 62 35 19 71 44 28 67 40 24 68 41 25 69 42 26 70 43 27 71 44 28 71 44 28 66 39 23 69 42 26 69 42 26 68 41 25 56 29 13 56 29 13 61 34 18 60 33 17 60 33 17 58 31 15 57 30 14 51 24 8 64 37 21 57 30 14 55 28 12 56 29 13 62 35 19 61 34 18 64 37 21 68 41 25 71 44 28 63 36 20 59 32 16 61 34 18 62 35 19 60 33 17 60 33 17 51 24 8 52 25 9 60 33 17 51 24 8 49 22 6 53 26 10 52 25 9 58 31 15 58 31 15 69 42 26 62 35 19 67 40 24 69 42 26 76 49 33 67 40 24 79 52 36 67 40 24 67 40 24 64 37 21 65 38 22 63 36 20 70 43 27 62 35 19 58 31 15 56 29 13 56 29 13 63 36 20 61 34 18 70 43 27 69 42 26 64 37 21 78 51 35 74 47 31 81 54 38 74 47 31 70 43 27 81 54 38 77 50 34 70 43 27 69 42 26 65 38 22 67 40 24 67 40 24 68 41 25 65 38 22 61 34 18 56 29 13 67 40 24 62 35 19 55 28 12 62 35 19 66 39 23 71 44 28 66 39 23 67 40 24 70 43 27 63 36 20 69 42 26 64 37 21 65 38 22 60 33 17 65 38 22
67 40 24 55 28 12 56 29 13 53 26 10 53 26 10 60 33 17 62 35 19 66 39 23 70 43 27 66 39 23 77 50 34 70 43 27 67 40 24 80 53 37 82 55 39 71 44 28 76 49 33 78 51 35 79 52 36 73 46 30 69 42 26 67 40 24 69 42 26 70 43 27 61 34 18 63 36 20 69 42 26 67 40 24 70 43 27 72 45 29 62 35 19 70 43 27 74 47 31 64 37 21 78 51 35 68 41 25 75 48 32 73 46 30 73 46 30 67 40 24 68 41 25 72 45 29 62 35 19 67 40 24 61 34 18 55 28 12 56 29 13 49 22 6 60 33 17 50 23 7 58 31 15 51 24 8 57 30 14 55 28 12 56 29 13 68 41 25 59 32 16 70 43 27 71 44 28 69 42 26 67 40 24 70 43 27 58 31 15 64 37 21 54 27 11 56 29 13 54 27 11 56 29 13 57 30 14 53 26 10 55 28 12 51 24 8 52 25 9 62 35 19 61 34 18 66 39 23 67 40 24 69 42 26 70 43 27 67 40 24 67 40 24 67 40 24 70 43 27 64 37 21 69 42 26 71 44 28 65 38 22 65 38 22 65 38 22 60 33 17 63 36 20 68 41 25 64 37 21 59 32 16 61 34 18 69 42 26 72 45 29 67 40 24 78 51 35 72 45 29 69 42 26 78 51 35 82 55 39 83 56 40 78 51 35 77 50 34 72 45 29 72 45 29 61 34 18 63 36 20 64 37 21 66 39 23 62 35 19 66 39 23 64 37 21 63 36 20 63 36 20 65 38 22 72 45 29 63 36 20 65 38 22 65 38 22 68 41 25 64 37 21 73 46 30 64 37 21 65 38 22 71 44 28
65 38 22 60 33 17 57 30 14 62 35 19 58 31 15 55 28 12 58 31 15 68 41 25 69 42 26 63 36 20 70 43 27 66 39 23 74 47 31 69 42 26 74 47 31 80 53 37 78 51 35 76 49 33 67 40 24 67 40 24 75 48 32 74 47 31 66 39 23 62 35 19 66 39 23 63 36 20 69 42 26 69 42 26 64 37 21 70 43 27 69 42 26 73 46 30 75 48 32 76 49 33 77 50 34 67 40 24 69 42 26 69 42 26 76 49 33 66 39 23 66 39 23 61 34 18 65 38 22 56 29 13 58 31 15 53 26 10 58 31 15 59 32 16 60 33 17 58 31 15 58 31 15 58 31 15 58 31 15 66 39 23 66 39 23 68 41 25 63 36 20 62 35 19 72 45 29 70 43 27 71 44 28 71 44 28 56 29 13 68 41 25 53 26 10 60 33 17 52 25 9 58 31 15 60 33 17 53 26 10 52 25 9 60 33 17 61 34 18 65 38 22 67 40 24 69 42 26 73 46 30 66 39 23 65 38 22 73 46 30 68 41 25 70 43 27 65 38 22 64 37 21 64 37 21 71 44 28 71 44 28 60 33 17 64 37 21 58 31 15 60 33 17 65 38 22 62 35 19 60 33 17 60 33 17 65 38 22 76 49 33 75 48 32 80 53 37 77 50 34 79 52 36 80 53 37 84 57 41 78 51 35 74 47 31 74 47 31 76 49 33 64 37 21 63 36 20 67 40 24 58 31 15 57 30 14 58 31 15 67 40 24 62 35 19 64 37 21 60 33 17 58 31 15 72 45 29 72 45 29 74 47 31 64 37 21 72 45 29 72 45 29 64 37 21 68 41 25 65 38 22 59 32 16
61 34 18 66 39 23 64 37 21 65 38 22 53 26 10 66 39 23 67 40 24 59 32 16 64 37 21 69 42 26 68 41 25 67 40 24 72 45 29 81 54 38 79 52 36 75 48 32 70 43 27 74 47 31 68 41 25 76 49 33 64 37 21 72 45 29 72 45 29 63 36 20 64 37 21 61 34 18 61 34 18 60 33 17 66 39 23 67 40 24 66 39 23 71 44 28 64 37 21 64 37 21 75 48 32 72 45 29 76 49 33 70 43 27 70 43 27 70 43 27 71 44 28 65 38 22 66 39 23 60 33 17 55 28 12 63 36 20 56 29 13 53 26 10 56 29 13 57 30 14 51 24 8 59 32 16 56 29 13 63 36 20 64 37 21 65 38 22 72 45 29 63 36 20 67 40 24 73 46 30 59 32 16 58 31 15 68 41 25 64 37 21 57 30 14 51 24 8 50 23 7 56 29 13 59 32 16 51 24 8 55 28 12 55 28 12 55 28 12 62 35 19 61 34 18 60 33 17 74 47 31 73 46 30 69 42 26 72 45 29 78 51 35 79 52 36 68 41 25 70 43 27 66 39 23 61 34 18 69 42 26 70 43 27 57 30 14 64 37 21 68 41 25 67 40 24 58 31 15 60 33 17 67 40 24 74 47 31 71 44 28 65 38 22 75 48 32 78 51 35 82 55 39 79 52 36 80 53 37 76 49 33 78 51 35 71 44 28 73 46 30 63 36 20 60 33 17 58 31 15 56 29 13 59 32 16 62 35 19 61 34 18 64 37 21 64 37 21 56 29 13 65 38 22 63 36 20 61 34 18 74 47 31 68 41 25 69 42 26 72 45 29 65 38 22 71 44 28 60 33 17 65 38 22
64 37 21 58 31 15 62 35 19 55 28 12 53 26 10 59 32 16 66 39 23 57 30 14 61 34 18 66 39 23 75 48 32 66 39 23 74 47 31 77 50 34 81 54 38 79 52 36 76 49 33 69 42 26 70 43 27 76 49 33 65 38 22 64 37 21 69 42 26 58 31 15 64 37 21 67 40 24 59 32 16 59 32 16 69 42 26 60 33 17 67 40 24 63 36 20 69 42 26 65 38 22 72 45 29 70 43 27 80 53 37 73 46 30 73 46 30 69 42 26 73 46 30 67 40 24 63 36 20 64 37 21 53 26 10 62 35 19 60 33 17 51 24 8 56 29 13 55 28 12 55 28 12 61 34 18 62 35 19 66 39 23 62 35 19 58 31 15 62 35 19 61 34 18 67 40 24 63 36 20 62 35 19 69 42 26 57 30 14 68 41 25 56 29 13 54 27 11 54 27 11 49 22 6 61 34 18 53 26 10 49 22 6 54 27 11 53 26 10 61 34 18 66 39 23 67 40 24 67 40 24 63 36 20 70 43 27 70 43 27 75 48 32 68 41 25 67 40 24 67 40 24 74 47 31 67 40 24 70 43 27 62 35 19 68 41 25 57 30 14 68 41 25 63 36 20 65 38 22 63 36 20 63 36 20 71 44 28 74 47 31 72 45 29 69 42 26 76 49 33 78 51 35 79 52 36 78 51 35 71 44 28 73 46 30 66 39 23 68 41 25 68 41 25 64 37 21 67 40 24 63 36 20 60 33 17 54 27 11 57 30 14 54 27 11 64 37 21 66 39 23 63 36 20 69 42 26 72 45 29 72 45 29 74 47 31 71 44 28 74 47 31 68 41 25 70 43 27 70 43 27 60 33 17
58 31 15 57 30 14 63 36 20 59 32 16 63 36 20 54 27 11 68 41 25 66 39 23 68 41 25 64 37 21 68 41 25 75 48 32 70 43 27 79 52 36 79 52 36 73 46 30 71 44 28 71 44 28 68 41 25 69 42 26 69 42 26 75 48 32 62 35 19 65 38 22 60 33 17 66 39 23 56 29 13 64 37 21 69 42 26 68 41 25 66 39 23 73 46 30 64 37 21 75 48 32 75 48 32 67 40 24 75 48 32 77 50 34 70 43 27 68 41 25 69 42 26 61 34 18 67 40 24 63 36 20 66 39 23 64 37 21 58 31 15 51 24 8 49 22 6 54 27 11 51 24 8 63 36 20 53 26 10 61 34 18 61 34 18 68 41 25 71 44 28 61 34 18 65 38 22 70 43 27 62 35 19 67 40 24 66 39 23 61 34 18 63 36 20 62 35 19 54 27 11 50 23 7 53 26 10 59 32 16 54 27 11 62 35 19 63 36 20 61 34 18 61 34 18 64 37 21 73 46 30 76 49 33 65 38 22 68 41 25 69 42 26 76 49 33 74 47 31 64 37 21 64 37 21 64 37 21 65 38 22 62 35 19 68 41 25 66 39 23 61 34 18 62 35 19 69 42 26 67 40 24 69 42 26 66 39 23 67 40 24 78 51 35 68 41 25 74 47 31 74 47 31 78 51 35 70 43 27 70 43 27 69 42 26 76 49 33 75 48 32 63 36 20 72 45 29 64 37 21 58 31 15 55 28 12 60 33 17 60 33 17 59 32 16 67 40 24 64 37 21 63 36 20 60 33 17 62 35 19 72 45 29 68 41 25 70 43 27 67 40 24 71 44 28 69 42 26 72 45 29 61 34 18
59 32 16 61 34 18 64 37 21 65 38 22 61 34 18 65 38 22 68 41 25 69 42 26 71 44 28 68 41 25 68 41 25 75 48 32 79 52 36 82 55 39 71 44 28 76 49 33 71 44 28 81 54 38 68 41 25 76 49 33 68 41 25 70 43 27 65 38 22 66 39 23 57 30 14 68 41 25 56 29 13 63 36 20 67 40 24 69 42 26 67 40 24 65 38 22 75 48 32 67 40 24 67 40 24 78 51 35 68 41 25 76 49 33 77 50 34 72 45 29 75 48 32 60 33 17 66 39 23 60 33 17 60 33 17 61 34 18 59 32 16 55 28 12 61 34 18 59 32 16 55 28 12 59 32 16 59 32 16 55 28 12 66 39 23 59 32 16 59 32 16 61 34 18 64 37 21 69 42 26 63 36 20 64 37 21 65 38 22 60 33 17 53 26 10 51 24 8 53 26 10 56 29 13 50 23 7 52 25 9 62 35 19 58 31 15 56 29 13 63 36 20 68 41 25 67 40 24 74 47 31 65 38 22 70 43 27 75 48 32 66 39 23 73 46 30 66 39 23 74 47 31 70 43 27 73 46 30 62 35 19 68 41 25 69 42 26 58 31 15 69 42 26 66 39 23 64 37 21 59 32 16 64 37 21 68 41 25 74 47 31 72 45 29 79 52 36 77 50 34 73 46 30 73 46 30 81 54 38 70 43 27 70 43 27 67 40 24 73 46 30 65 38 22 61 34 18 58 31 15 66 39 23 61 34 18 61 34 18 58 31 15 62 35 19 56 29 13 60 33 17 68 41 25 65 38 22 64 37 21 65 38 22 70 43 27 67 40 24 68 41 25 76 49 33 62 35 19 65 38 22 63 36 20
60 33 17 64 37 21 62 35 19 66 39 23 55 28 12 65 38 22 66 39 23 69 42 26 69 42 26 74 47 31 76 49 33 67 40 24 77 50 34 74 47 31 79 52 36 71 44 28 79 52 36 75 48 32 71 44 28 71 44 28 67 40 24 62 35 19 70 43 27 66 39 23 57 30 14 62 35 19 66 39 23 69 42 26 64 37 21 64 37 21 63 36 20 67 40 24 74 47 31 66 39 23 71 44 28 71 44 28 80 53 37 72 45 29 74 47 31 71 44 28 66 39 23 69 42 26 64 37 21 59 32 16 63 36 20 64 37 21 55 28 12 53 26 10 56 29 13 52 25 9 54 27 11 53 26 10 59 32 16 63 36 20 57 30 14 65 38 22 60 33 17 65 38 22 70 43 27 71 44 28 69 42 26 68 41 25 64 37 21 56 29 13 60 33 17 51 24 8 50 23 7 50 23 7 59 32 16 50 23 7 61 34 18 54 27 11 57 30 14 60 33 17 64 37 21 59 32 16 71 44 28 72 45 29 67 40 24 74 47 31 71 44 28 68 41 25 73 46 30 69 42 26 63 36 20 65 38 22 67 40 24 71 44 28 65 38 22 58 31 15 67 40 24 60 33 17 69 42 26 68 41 25 64 37 21 61 34 18 77 50 34 78 51 35 79 52 36 69 42 26 77 50 34 78 51 35 78 51 35 73 46 30 81 54 38 67 40 24 65 38 22 66 39 23 73 46 30 60 33 17 62 35 19 64 37 21 54 27 11 62 35 19 66 39 23 55 28 12 62 35 19 70 43 27 66 39 23 63 36 20 64 37 21 76 49 33 64 37 21 68 41 25 68 41 25 64 37 21 70 43 27 69 42 26
63 36 20 59 32 16 66 39 23 58 31 15 65 38 22 58 31 15 67 40 24 58 31 15 64 37 21 65 38 22 64 37 21 69 42 26 76 49 33 77 50 34 77 50 34 77 50 34 73 46 30 76 49 33 80 53 37 73 46 30 72 45 29 75 48 32 73 46 30 68 41 25 57 30 14 62 35 19 62 35 19 57 30 14 64 37 21 59 32 16 66 39 23 62 35 19 70 43 27 77 50 34 69 42 26 68 41 25 71 44 28 75 48 32 76 49 33 68 41 25 62 35 19 66 39 23 59 32 16 65 38 22 54 27 11 63 36 20 50 23 7 53 26 10 61 34 18 55 28 12 61 34 18 55 28 12 55 28 12 64 37 21 61 34 18 68 41 25 66 39 23 71 44 28 72 45 29 69 42 26 68 41 25 60 33 17 57 30 14 65 38 22 58 31 15 51 24 8 57 30 14 51 24 8 54 27 11 55 28 12 50 23 7 60 33 17 65 38 22 54 27 11 59 32 16 58 31 15 62 35 19 76 49 33 69 42 26 65 38 22 71 44 28 77 50 34 75 48 32 72 45 29 73 46 30 71 44 28 67 40 24 65 38 22 60 33 17 61 34 18 62 35 19 60 33 17 69 42 26 67 40 24 71 44 28 74 47 31 75 48 32 76 49 33 74 47 31 75 48 32 81 54 38 78 51 35 79 52 36 76 49 33 79 52 36 72 45 29 64 37 21 62 35 19 65 38 22 58 31 15 67 40 24 62 35 19 58 31 15 65 38 22 60 33 17 62 35 19 64 37 21 63 36 20 66 39 23 74 47 31 75 48 32 74 47 31 74 47 31 69 42 26 65 38 22 68 41 25 72 45 29 65 38 22
67 40 24 60 33 17 62 35 19 61 34 18 55 28 12 63 36 20 55 28 12 67 40 24 62 35 19 65 38 22 72 45 29 68 41 25 78 51 35 81 54 38 70 43 27 72 45 29 75 48 32 78 51 35 79 52 36 77 50 34 64 37 21 70 43 27 72 45 29 60 33 17 65 38 22 56 29 13 58 31 15 63 36 20 63 36 20 58 31 15 62 35 19 63 36 20 76 49 33 76 49 33 76 49 33 73 46 30 77 50 34 70 43 27 71 44 28 66 39 23 63 36 20 65 38 22 57 30 14 55 28 12 62 35 19 58 31 15 52 25 9 48 21 5 51 24 8 61 34 18 63 36 20 56 29 13 53 26 10 65 38 22 62 35 19 69 42 26 67 40 24 73 46 30 61 34 18 64 37 21 59 32 16 66 39 23 64 37 21 59 32 16 59 32 16 63 36 20 55 28 12 48 21 5 60 33 17 57 30 14 57 30 14 52 25 9 64 37 21 58 31 15 59 32 16 61 34 18 63 36 20 73 46 30 66 39 23 73 46 30 78 51 35 71 44 28 66 39 23 72 45 29 75 48 32 68 41 25 61 34 18 71 44 28 59 32 16 56 29 13 68 41 25 56 29 13 70 43 27 62 35 19 64 37 21 66 39 23 73 46 30 79 52 36 72 45 29 81 54 38 70 43 27 75 48 32 70 43 27 73 46 30 70 43 27 79 52 36 69 42 26 62 35 19 62 35 19 62 35 19 68 41 25 59 32 16 59 32 16 64 37 21 58 31 15 68 41 25 65 38 22 66 39 23 64 37 21 68 41 25 65 38 22 73 46 30 67 40 24 64 37 21 63 36 20 62 35 19 66 39 23 59 32 16
63 36 20 66 39 23 59 32 16 61 34 18 62 35 19 56 29 13 58 31 15 58 31 15 61 34 18 63 36 20 66 39 23 72 45 29 75 48 32 76 49 33 78 51 35 76 49 33 75 48 32 71 44 28 72 45 29 66 39 23 70 43 27 71 44 28 62 35 19 69 42 26 68 41 25 69 42 26 68 41 25 63 36 20 66 39 23 60 33 17 65 38 22 65 38 22 68 41 25 75 48 32 79 52 36 70 43 27 68 41 25 70 43 27 66 39 23 67 40 24 75 48 32 67 40 24 57 30 14 64 37 21 59 32 16 61 34 18 55 28 12 59 32 16 57 30 14 54 27 11 56 29 13 63 36 20 54 27 11 61 34 18 58 31 15 63 36 20 68 41 25 63 36 20 66 39 23 63 36 20 71 44 28 58 31 15 58 31 15 59 32 16 59 32 16 64 37 21 61 34 18 54 27 11 54 27 11 61 34 18 57 30 14 61 34 18 55 28 12 66 39 23 62 35 19 70 43 27 71 44 28 75 48 32 76 49 33 78 51 35 71 44 28 72 45 29 71 44 28 73 46 30 70 43 27 66 39 23 64 37 21 60 33 17 61 34 18 58 31 15 63 36 20 63 36 20 62 35 19 68 41 25 63 36 20 63 36 20 70 43 27 71 44 28 75 48 32 79 52 36 79 52 36 73 46 30 72 45 29 79 52 36 68 41 25 68 41 25 67 40 24 73 46 30 60 33 17 64 37 21 61 34 18 56 29 13 63 36 20 67 40 24 61 34 18 65 38 22 69 42 26 63 36 20 62 35 19 65 38 22 67 40 24 70 43 27 65 38 22 67 40 24 69 42 26 63 36 20 73 46 30 69 42 26
64 37 21 59 32 16 64 37 21 62 35 19 64 37 21 59 32 16 62 35 19 62 35 19 59 32 16 73 46 30 71 44 28 71 44 28 78 51 35 70 43 27 74 47 31 77 50 34 71 44 28 71 44 28 78 51 35 66 39 23 73 46 30 73 46 30 72 45 29 69 42 26 68 41 25 63 36 20 56 29 13 66 39 23 70 43 27 71 44 28 60 33 17 70 43 27 67 40 24 74 47 31 73 46 30 68 41 25 79 52 36 73 46 30 68 41 25 74 47 31 68 41 25 63 36 20 69 42 26 67 40 24 52 25 9 54 27 11 62 35 19 56 29 13 51 24 8 54 27 11 53 26 10 65 38 22 64 37 21 55 28 12 69 42 26 62 35 19 63 36 20 73 46 30 72 45 29 66 39 23 65 38 22 62 35 19 62 35 19 56 29 13 57 30 14 57 30 14 58 31 15 59 32 16 55 28 12 53 26 10 61 34 18 60 33 17 64 37 21 65 38 22 63 36 20 60 33 17 62 35 19 67 40 24 73 46 30 71 44 28 77 50 34 72 45 29 79 52 36 68 41 25 66 39 23 61 34 18 61 34 18 58 31 15 62 35 19 56 29 13 58 31 15 66 39 23 68 41 25 71 44 28 63 36 20 68 41 25 73 46 30 76 49 33 72 45 29 75 48 32 75 48 32 79 52 36 83 56 40 75 48 32 73 46 30 75 48 32 72 45 29 70 43 27 70 43 27 59 32 16 65 38 22 63 36 20 54 27 11 66 39 23 54 27 11 59 32 16 66 39 23 61 34 18 61 34 18 64 37 21 71 44 28 67 40 24 68 41 25 77 50 34 74 47 31 66 39 23 62 35 19 66 39 23
59 32 16 57 30 14 61 34 18 54 27 11 56 29 13 57 30 14 60 33 17 67 40 24 62 35 19 62 35 19 66 39 23 73 46 30 73 46 30 70 43 27 76 49 33 77 50 34 80 53 37 78 51 35 80 53 37 67 40 24 76 49 33 74 47 31 63 36 20 71 44 28 58 31 15 66 39 23 68 41 25 69 42 26 61 34 18 64 37 21 61 34 18 75 48 32 75 48 32 73 46 30 71 44 28 68 41 25 71 44 28 72 45 29 78 51 35 70 43 27 73 46 30 73 46 30 68 41 25 60 33 17 58 31 15 59 32 16 50 23 7 54 27 11 54 27 11 58 31 15 59 32 16 59 32 16 59 32 16 64 37 21 59 32 16 68 41 25 63 36 20 72 45 29 64 37 21 71 44 28 60 33 17 58 31 15 68 41 25 62 35 19 60 33 17 62 35 19 55 28 12 53 26 10 48 21 5 51 24 8 57 30 14 55 28 12 54 27 11 59 32 16 66 39 23 58 31 15 68 41 25 67 40 24 65 38 22 68 41 25 68 41 25 76 49 33 78 51 35 69 42 26 73 46 30 72 45 29 62 35 19 62 35 19 57 30 14 66 39 23 61 34 18 58 31 15 57 30 14 70 43 27 64 37 21 73 46 30 70 43 27 72 45 29 69 42 26 69 42 26 80 53 37 79 52 36 73 46 30 75 48 32 76 49 33 66 39 23 70 43 27 64 37 21 73 46 30 67 40 24 58 31 15 60 33 17 63 36 20 53 26 10 57 30 14 67 40 24 69 42 26 66 39 23 68 41 25 67 40 24 65 38 22 71 44 28 76 49 33 77 50 34 66 39 23 71 44 28 62 35 19 70 43 27
62 35 19 61 34 18 58 31 15 65 38 22 57 30 14 56 29 13 57 30 14 65 38 22 60 33 17 70 43 27 70 43 27 72 45 29 74 47 31 73 46 30 75 48 32 80 53 37 75 48 32 71 44 28 68 41 25 72 45 29 68 41 25 74 47 31 69 42 26 59 32 16 58 31 15 68 41 25 56 29 13 60 33 17 67 40 24 68 41 25 68 41 25 75 48 32 75 48 32 76 49 33 72 45 29 73 46 30 76 49 33 68 41 25 77 50 34 74 47 31 67 40 24 61 34 18 60 33 17 62 35 19 63 36 20 63 36 20 60 33 17 61 34 18 49 22 6 52 25 9 58 31 15 64 37 21 54 27 11 65 38 22 58 31 15 65 38 22 65 38 22 66 39 23 64 37 21 65 38 22 62 35 19 71 44 28 57 30 14 67 40 24 56 29 13 53 26 10 60 33 17 58 31 15 50 23 7 53 26 10 59 32 16 51 24 8 59 32 16 62 35 19 57 30 14 70 43 27 74 47 31 63 36 20 71 44 28 77 50 34 75 48 32 78 51 35 68 41 25 68 41 25 73 46 30 69 42 26 65 38 22 60 33 17 68 41 25 69 42 26 65 38 22 65 38 22 68 41 25 70 43 27 67 40 24 65 38 22 74 47 31 76 49 33 77 50 34 82 55 39 75 48 32 79 52 36 77 50 34 79 52 36 79 52 36 74 47 31 67 40 24 69 42 26 66 39 23 58 31 15 61 34 18 65 38 22 54 27 11 60 33 17 63 36 20 60 33 17 67 40 24 65 38 22 62 35 19 68 41 25 72 45 29 64 37 21 67 40 24 69 42 26 67 40 24 62 35 19 60 33 17 69 42 26
60 33 17 64 37 21 67 40 24 58 31 15 57 30 14 55 28 12 63 36 20 68 41 25 66 39 23 62 35 19 70 43 27 72 45 29 70 43 27 79 52 36 73 46 30 82 55 39 70 43 27 76 49 33 69 42 26 69 42 26 68 41 25 68 41 25 60 33 17 63 36 20 69 42 26 59 32 16 56 29 13 60 33 17 70 43 27 69 42 26 73 46 30 65 38 22 76 49 33 75 48 32 77 50 34 79 52 36 69 42 26 78 51 35 73 46 30 71 44 28 69 42 26 66 39 23 66 39 23 62 35 19 54 27 11 62 35 19 50 23 7 54 27 11 49 22 6 57 30 14 53 26 10 61 34 18 59 32 16 67 40 24 57 30 14 66 39 23 69 42 26 67 40 24 63 36 20 63 36 20 69 42 26 62 35 19 56 29 13 67 40 24 54 27 11 57 30 14 63 36 20 53 26 10 49 22 6 48 21 5 59 32 16 59 32 16 62 35 19 67 40 24 62 35 19 67 40 24 63 36 20 68 41 25 78 51 35 79 52 36 74 47 31 69 42 26 66 39 23 74 47 31 69 42 26 70 43 27 63 36 20 67 40 24 70 43 27 66 39 23 65 38 22 62 35 19 67 40 24 69 42 26 66 39 23 70 43 27 70 43 27 73 46 30 69 42 26 81 54 38 70 43 27 77 50 34 76 49 33 81 54 38 81 54 38 67 40 24 65 38 22 68 41 25 60 33 17 59 32 16 56 29 13 68 41 25 62 35 19 55 28 12 54 27 11 64 37 21 63 36 20 66 39 23 66 39 23 68 41 25 65 38 22 75 48 32 67 40 24 65 38 22 65 38 22 65 38 22 66 39 23 60 33 17
59 32 16 64 37 21 59 32 16 64 37 21 57 30 14 65 38 22 63 36 20 69 42 26 66 39 23 73 46 30 72 45 29 67 40 24 69 42 26 78 51 35 81 54 38 73 46 30 74 47 31 74 47 31 76 49 33 66 39 23 72 45 29 74 47 31 64 37 21 58 31 15 64 37 21 63 36 20 56 29 13 65 38 22 57 30 14 66 39 23 72 45 29 74 47 31 64 37 21 71 44 28 79 52 36 79 52 36 68 41 25 70 43 27 68 41 25 69 42 26 65 38 22 72 45 29 70 43 27 64 37 21 61 34 18 61 34 18 55 28 12 54 27 11 61 34 18 54 27 11 57 30 14 59 32 16 60 33 17 62 35 19 66 39 23 67 40 24 72 45 29 71 44 28 64 37 21 66 39 23 67 40 24 68 41 25 68 41 25 66 39 23 55 28 12 53 26 10 57 30 14 54 27 11 50 23 7 50 23 7 49 22 6 50 23 7 63 36 20 56 29 13 61 34 18 68 41 25 70 43 27 69 42 26 69 42 26 78 51 35 77 50 34 76 49 33 74 47 31 67 40 24 72 45 29 68 41 25 62 35 19 69 42 26 66 39 23 57 30 14 62 35 19 69 42 26 67 40 24 68 41 25 67 40 24 67 40 24 76 49 33 74 47 31 80 53 37 76 49 33 80 53 37 72 45 29 73 46 30 82 55 39 70 43 27 75 48 32 65 38 22 71 44 28 66 39 23 70 43 27 57 30 14 58 31 15 58 31 15 57 30 14 60 33 17 58 31 15 64 37 21 67 40 24 72 45 29 66 39 23 62 35 19 67 40 24 72 45 29 67 40 24 75 48 32 62 35 19 64 37 21 65 38 22
63 36 20 55 28 12 59 32 16 58 31 15 53 26 10 63 36 20 66 39 23 62 35 19 67 40 24 62 35 19 67 40 24 68 41 25 77 50 34 78 51 35 82 55 39 83 56 40 71 44 28 73 46 30 78 51 35 65 38 22 68 41 25 75 48 32 59 32 16 69 42 26 69 42 26 58 31 15 68 41 25 61 34 18 63 36 20 65 38 22 65 38 22 74 47 31 70 43 27 73 46 30 66 39 23 76 49 33 72 45 29 76 49 33 77 50 34 68 41 25 75 48 32 66 39 23 59 32 16 55 28 12 57 30 14 62 35 19 54 27 11 48 21 5 59 32 16 59 32 16 60 33 17 62 35 19 64 37 21 55 28 12 60 33 17 72 45 29 62 35 19 68 41 25 60 33 17 68 41 25 68 41 25 58 31 15 59 32 16 61 34 18 61 34 18 56 29 13 62 35 19 49 22 6 57 30 14 56 29 13 62 35 19 56 29 13 52 25 9 54 27 11 58 31 15 66 39 23 66 39 23 69 42 26 75 48 32 79 52 36 72 45 29 73 46 30 68 41 25 74 47 31 65 38 22 67 40 24 61 34 18 59 32 16 69 42 26 61 34 18 65 38 22 63 36 20 62 35 19 71 44 28 71 44 28 72 45 29 64 37 21 73 46 30 73 46 30 81 54 38 73 46 30 72 45 29 77 50 34 73 46 30 80 53 37 79 52 36 74 47 31 63 36 20 62 35 19 60 33 17 58 31 15 67 40 24 67 40 24 58 31 15 59 32 16 68 41 25 67 40 24 69 42 26 63 36 20 66 39 23 70 43 27 63 36 20 74 47 31 67 40 24 63 36 20 64 37 21 65 38 22 70 43 27
68 41 25 56 29 13 57 30 14 57 30 14 64 37 21 58 31 15 61 34 18 69 42 26 67 40 24 73 46 30 65 38 22 75 48 32 77 50 34 74 47 31 80 53 37 80 53 37 73 46 30 75 48 32 73 46 30 78 51 35 77 50 34 72 45 29 61 34 18 66 39 23 61 34 18 56 29 13 57 30 14 57 30 14 57 30 14 58 31 15 66 39 23 74 47 31 69 42 26 78 51 35 66 39 23 72 45 29 79 52 36 77 50 34 65 38 22 77 50 34 69 42 26 61 34 18 63 36 20 66 39 23 62 35 19 59 32 16 50 23 7 59 32 16 55 28 12 55 28 12 56 29 13 57 30 14 59 32 16 61 34 18 70 43 27 69 42 26 64 37 21 60 33 17 74 47 31 71 44 28 71 44 28 64 37 21 60 33 17 60 33 17 66 39 23 56 29 13 60 33 17 61 34 18 59 32 16 50 23 7 49 22 6 59 32 16 58 31 15 61 34 18 60 33 17 62 35 19 63 36 20 72 45 29 76 49 33 74 47 31 72 45 29 71 44 28 78 51 35 68 41 25 65 38 22 67 40 24 64 37 21 61 34 18 63 36 20 69 42 26 68 41 25 66 39 23 70 43 27 67 40 24 71 44 28 74 47 31 75 48 32 73 46 30 76 49 33 75 48 32 76 49 33 75 48 32 82 55 39 80 53 37 77 50 34 73 46 30 66 39 23 62 35 19 62 35 19 61 34 18 61 34 18 66 39 23 54 27 11 54 27 11 54 27 11 65 38 22 59 32 16 63 36 20 65 38 22 73 46 30 68 41 25 73 46 30 72 45 29 69 42 26 76 49 33 66 39 23 60 33 17 68 41 25
58 31 15 60 33 17 60 33 17 57 30 14 64 37 21 65 38 22 59 32 16 63 36 20 62 35 19 69 42 26 66 39 23 69 42 26 76 49 33 71 44 28 70 43 27 78 51 35 80 53 37 73 46 30 69 42 26 71 44 28 74 47 31 64 37 21 63 36 20 68 41 25 62 35 19 59 32 16 59 32 16 67 40 24 58 31 15 71 44 28 64 37 21 68 41 25 67 40 24 76 49 33 72 45 29 76 49 33 67 40 24 71 44 28 77 50 34 67 40 24 64 37 21 63 36 20 62 35 19 66 39 23 61 34 18 58 31 15 54 27 11 56 29 13 57 30 14 60 33 17 54 27 11 54 27 11 66 39 23 61 34 18 68 41 25 63 36 20 62 35 19 64 37 21 62 35 19 67 40 24 70 43 27 68 41 25 65 38 22 63 36 20 59 32 16 52 25 9 51 24 8 50 23 7 53 26 10 50 23 7 54 27 11 57 30 14 60 33 17 64 37 21 66 39 23 66 39 23 61 34 18 72 45 29 76 49 33 78 51 35 67 40 24 79 52 36 79 52 36 66 39 23 76 49 33 61 34 18 69 42 26 60 33 17 68 41 25 67 40 24 62 35 19 57 30 14 64 37 21 66 39 23 62 35 19 63 36 20 77 50 34 74 47 31 68 41 25 74 47 31 71 44 28 80 53 37 82 55 39 76 49 33 68 41 25 70 43 27 67 40 24 72 45 29 60 33 17 67 40 24 67 40 24 58 31 15 66 39 23 56 29 13 55 28 12 62 35 19 63 36 20 58 31 15 60 33 17 73 46 30 74 47 31 76 49 33 73 46 30 73 46 30 67 40 24 70 43 27 71 44 28 67 40 24
57 30 14 64 37 21 59 32 16 62 35 19 64 37 21 61 34 18 65 38 22 64 37 21 69 42 26 72 45 29 70 43 27 76 49 33 72 45 29 80 53 37 70 43 27 83 56 40 69 42 26 82 55 39 74 47 31 79 52 36 71 44 28 69 42 26 67 40 24 71 44 28 69 42 26 69 42 26 58 31 15 56 29 13 62 35 19 60 33 17 62 35 19 64 37 21 68 41 25 76 49 33 78 51 35 73 46 30 74 47 31 74 47 31 78 51 35 74 47 31 74 47 31 68 41 25 60 33 17 65 38 22 62 35 19 55 28 12 55 28 12 48 21 5 54 27 11 55 28 12 63 36 20 62 35 19 62 35 19 68 41 25 59 32 16 70 43 27 68 41 25 66 39 23 60 33 17 68 41 25 68 41 25 70 43 27 67 40 24 58 31 15 60 33 17 54 27 11 59 32 16 61 34 18 50 23 7 60 33 17 59 32 16 53 26 10 59 32 16 66 39 23 59 32 16 66 39 23 68 41 25 68 41 25 77 50 34 79 52 36 79 52 36 78 51 35 71 44 28 64 37 21 63 36 20 63 36 20 67 40 24 67 40 24 70 43 27 58 31 15 59 32 16 59 32 16 57 30 14 68 41 25 63 36 20 66 39 23 65 38 22 71 44 28 78 51 35 71 44 28 71 44 28 79 52 36 74 47 31 73 46 30 77 50 34 79 52 36 72 45 29 67 40 24 69 42 26 68 41 25 69 42 26 60 33 17 55 28 12 55 28 12 66 39 23 61 34 18 66 39 23 63 36 20 71 44 28 62 35 19 72 45 29 64 37 21 73 46 30 71 44 28 71 44 28 73 46 30 71 44 28 71 44 28
66 39 23 59 32 16 55 28 12 66 39 23 55 28 12 66 39 23 66 39 23 61 34 18 71 44 28 73 46 30 71 44 28 77 50 34 79 52 36 81 54 38 71 44 28 76 49 33 82 55 39 75 48 32 75 48 32 77 50 34 67 40 24 65 38 22 61 34 18 66 39 23 60 33 17 67 40 24 58 31 15 62 35 19 62 35 19 58 31 15 62 35 19 63 36 20 64 37 21 77 50 34 66 39 23 68 41 25 73 46 30 74 47 31 78 51 35 69 42 26 65 38 22 72 45 29 62 35 19 57 30 14 56 29 13 58 31 15 49 22 6 54 27 11 57 30 14 55 28 12 60 33 17 59 32 16 66 39 23 63 36 20 69 42 26 66 39 23 67 40 24 68 41 25 65 38 22 70 43 27 65 38 22 66 39 23 66 39 23 64 37 21 60 33 17 56 29 13 53 26 10 50 23 7 48 21 5 61 34 18 50 23 7 62 35 19 64 37 21 58 31 15 61 34 18 69 42 26 73 46 30 72 45 29 71 44 28 74 47 31 75 48 32 75 48 32 78 51 35 73 46 30 74 47 31 74 47 31 71 44 28 61 34 18 61 34 18 63 36 20 61 34 18 56 29 13 58 31 15 70 43 27 71 44 28 66 39 23 74 47 31 65 38 22 80 53 37 77 50 34 80 53 37 84 57 41 74 47 31 70 43 27 78 51 35 74 47 31 69 42 26 62 35 19 65 38 22 61 34 18 66 39 23 67 40 24 66 39 23 55 28 12 56 29 13 65 38 22 68 41 25 67 40 24 67 40 24 70 43 27 67 40 24 65 38 22 74 47 31 65 38 22 64 37 21 67 40 24 67 40 24 59 32 16
43 16 0 43 16 0 43 16 0 43 16 0 43 16 0 43 16 0 43 16 0 43 16 0 43 16 0 43 16 0 43 16 0 43 16 0 43 16 0 43 16 0 43 16 0 43 16 0 43 16 0 43 16 0 43 16 0 43 16 0 43 16 0 43 16 0 43 16 0 43 16 0 43 16 0 43 16 0 43 16 0 43 16 0 43 16 0 43 16 0 43 16 0 43 16 0 43 16 0 43 16 0 43 16 0 43 16 0 43 16 0 43 16 0 43 16 0 43 16 0 43 16 0 43 16 0 43 16 0 43 16 0 43 16 0 43 16 0 43 16 0 43 16 0 43 16 0 43 16 0 43 16 0 43 16 0 43 16 0 43 16 0 43 16 0 43 16 0 43 16 0 43 16 0 43 16 0 43 16 0 43 16 0 43 16 0 43 16 0 43 16 0 43 16 0 43 16 0 43 16 0 43 16 0 43 16 0 43 16 0 43 16 0 43 16 0 43 16 0 43 16 0 43 16 0 43 16 0 43 16 0 43 16 0 43 16 0 43 16 0 43 16 0 43 16 0 43 16 0 43 16 0 43 16 0 43 16 0 43 16 0 43 16 0 43 16 0 43 16 0 43 16 0 43 16 0 43 16 0 43 16 0 43 16 0 43 16 0 43 16 0 43 16 0 43 16 0 43 16 0 43 16 0 43 16 0 43 16 0 43 16 0 43 16 0 43 16 0 43 16 0 43 16 0 43 16 0 43 16 0 43 16 0 43 16 0 43 16 0 43 16 0 43 16 0 43 16 0 43 16 0 43 16 0 43 16 0 43 16 0 43 16 0 43 16 0 43 16 0 43 16 0 43 16 0 43 16 0 43 16 0 43 16 0
43 16 0 43 16 0 43 16 0 43 16 0 43 16 0 43 16 0 43 16 0 43 16 0 43 16 0 43 16 0 43 16 0 43 16 0 43 16 0 43 16 0 43 16 0 43 16 0 43 16 0 43 16 0 43 16 0 43 16 0 43 16 0 43 16 0 43 16 0 43 16 0 43 16 0 43 16 0 43 16 0 43 16 0 43 16 0 43 16 0 43 16 0 43 16 0 43 16 0 43 16 0 43 16 0 43 16 0 43 16 0 43 16 0 43 16 0 43 16 0 43 16 0 43 16 0 43 16 0 43 16 0 43 16 0 43 16 0 43 16 0 43 16 0 43 16 0 43 16 0 43 16 0 43 16 0 43 16 0 43 16 0 43 16 0 43 16 0 43 16 0 43 16 0 43 16 0 43 16 0 43 16 0 43 16 0 43 16 0 43 16 0 43 16 0 43 16 0 43 16 0 43 16 0 43 16 0 43 16 0 43 16 0 43 16 0 43 16 0 43 16 0 43 16 0 43 16 0 43 16 0 43 16 0 43 16 0 43 16 0 43 16 0 43 16 0 43 16 0 43 16 0 43 16 0 43 16 0 43 16 0 43 16 0 43 16 0 43 16 0 43 16 0 43 16 0 43 16 0 43 16 0 43 16 0 43 16 0 43 16 0 43 16 0 43 16 0 43 16 0 43 16 0 43 16 0 43 16 0 43 16 0 43 16 0 43 16 0 43 16 0 43 16 0 43 16 0 43 16 0 43 16 0 43 16 0 43 16 0 43 16 0 43 16 0 43 16 0 43 16 0 43 16 0 43 16 0 43 16 0 43 16 0 43 16 0 43 16 0 43 16 0 43 16 0 43 16 0 43 16 0 43 16 0
