P3
128 128
255
29 70 30 34 79 33 32 74 30 36 80 32 42 94 39 39 86 34 36 80 32 39 88 36 32 71 28 32 73 29 35 82 34 31 73 30 31 74 31 24 58 24 19 47 19 18 47 19 19 51 21 15 42 18 13 39 16 12 35 15 11 35 15 15 44 19 12 35 14 15 41 16 18 47 19 24 58 24 27 63 25 30 69 27 41 92 38 38 84 34 43 96 39 39 86 35 42 93 38 34 76 30 37 85 35 27 63 24 28 66 27 25 60 24 23 56 23 27 67 29 19 48 20 22 58 25 15 41 17 13 37 15 16 45 19 18 50 22 11 33 13 13 38 15 14 38 15 21 54 22 26 65 27 29 68 28 32 74 30 32 72 28 40 90 37 36 79 31 42 93 38 39 86 34 41 93 38 38 86 35 31 71 28 32 74 30 24 56 22 27 66 28 19 49 19 21 52 22 17 45 19 22 59 26 16 45 19 21 56 25 13 38 16 15 41 17 21 57 25 19 51 21 17 45 18 21 53 21 33 79 33 32 75 30 41 92 39 42 95 39 43 95 39 43 96 39 36 78 30 36 80 32 40 91 38 37 86 36 33 76 31 28 66 27 28 68 29 28 70 30 21 55 23 22 57 24 22 59 26 21 55 24 18 49 21 15 43 18 15 41 17 15 42 17 21 55 24 25 63 27 29 71 30 29 69 29 29 68 27 37 85 35 37 82 33 44 97 40 46 101 42 44 96 39 42 93 38 39 87 35 33 74 29 30 68 27 25 60 24 25 61 25 21 52 21 24 61 26 23 58 25 20 52 22 21 55 24 17 46 19 20 55 24 15 42 17 21 55 24 15 40 16 20 52 22 23 57 23 32 76 32 29 67 27
32 76 32 36 83 35 36 82 33 33 74 29 42 94 39 34 76 30 37 85 35 29 65 25 34 79 33 29 68 27 28 67 27 22 53 21 24 59 24 21 52 21 25 61 26 26 65 28 26 66 28 16 42 17 22 58 25 18 49 21 16 45 19 15 40 16 18 48 20 23 57 24 26 63 27 31 75 31 29 68 27 37 83 34 39 87 35 40 89 36 41 89 36 45 100 41 39 85 34 40 90 37 34 76 30 30 68 27 25 60 24 24 59 24 24 60 25 18 46 19 15 42 17 13 38 16 11 34 14 14 41 18 13 39 17 14 42 18 18 51 22 19 53 23 23 60 26 23 57 24 27 65 27 35 82 34 33 75 30 33 73 28 43 96 40 39 88 35 41 91 37 35 78 31 36 82 33 33 76 31 30 69 28 26 61 25 31 74 32 29 72 31 20 50 20 19 49 20 22 56 23 25 64 27 18 48 20 18 48 20 15 40 16 21 55 23 16 42 17 23 58 24 24 60 25 24 58 23 32 74 31 38 88 37 38 85 35 41 91 37 44 98 40 45 100 41 39 86 34 39 87 35 38 86 35 33 75 30 33 78 33 32 76 32 25 62 26 20 52 22 13 37 15 18 50 22 12 37 15 9 30 12 14 42 18 15 45 19 16 45 19 22 58 25 22 57 24 27 66 28 29 71 30 27 63 25 33 75 30 33 74 29 39 85 34 37 81 32 39 85 34 42 95 39 37 82 33 36 82 34 31 72 29 27 63 25 23 56 22 20 49 19 25 62 26 23 57 24 22 55 23 26 66 29 23 59 25 22 57 24 26 65 28 23 58 24 18 47 19 27 67 29 20 50 20 27 65 27 27 63 25 28 63 25
33 77 32 29 67 27 38 88 37 37 83 34 37 83 34 29 67 26 34 80 33 27 64 25 23 55 22 31 74 31 23 55 22 22 54 22 30 73 31 28 68 28 22 54 22 25 60 25 24 59 24 24 60 25 22 55 23 19 48 19 24 60 26 22 57 24 18 46 18 26 64 27 27 65 27 27 63 25 34 79 32 33 74 29 35 76 30 43 94 38 44 97 40 45 100 41 45 99 41 35 78 31 36 83 34 34 78 33 27 65 27 26 65 28 17 46 19 17 47 20 11 35 14 13 40 17 7 27 11 12 37 17 7 26 11 13 39 17 11 34 14 18 48 20 27 68 29 29 69 29 35 81 34 29 67 26 38 87 36 37 82 33 40 91 38 41 94 39 33 74 30 35 82 34 31 71 29 24 56 22 26 61 25 28 68 28 21 52 20 21 51 20 30 74 31 30 72 30 25 61 25 27 65 27 24 59 24 26 64 27 28 68 29 28 69 29 22 54 22 24 60 25 30 72 30 33 78 33 26 60 24 35 81 33 34 77 31 36 80 31 44 96 39 46 101 42 36 78 30 43 97 40 34 75 30 31 71 29 25 59 23 29 70 30 23 58 25 21 55 24 19 52 23 14 41 18 16 47 21 7 25 10 10 32 14 14 43 19 14 40 17 21 56 24 19 49 20 21 52 21 29 68 28 32 73 30 40 91 38 40 89 37 42 93 38 40 89 36 38 86 35 32 71 28 29 66 26 28 65 26 24 57 22 30 71 30 30 73 31 24 58 24 28 68 29 27 65 27 21 50 20 30 73 31 28 68 29 25 61 25 25 62 26 22 54 22 23 57 23 25 61 25 28 68 28 24 57 23 28 67 27 30 70 28
31 72 29 30 68 27 28 65 26 27 63 25 26 60 24 29 69 28 32 76 32 29 70 30 30 73 31 24 60 25 23 56 23 27 65 27 23 56 22 29 68 28 27 63 25 29 69 28 26 61 24 31 73 31 24 56 22 27 66 27 27 66 27 29 70 30 30 72 31 22 53 21 27 64 26 33 79 33 32 74 30 34 76 30 35 77 31 40 89 36 39 85 34 43 97 40 39 88 36 33 73 29 30 67 27 30 70 29 20 50 19 22 55 23 14 40 16 19 52 23 11 36 16 10 32 14 13 41 19 15 45 21 8 29 12 17 48 21 21 55 24 21 53 22 26 63 26 24 58 23 32 73 30 39 89 37 39 90 37 33 74 29 36 81 33 32 74 30 31 73 30 32 75 32 28 68 28 23 55 22 30 73 31 30 73 31 24 59 24 23 55 21 25 60 24 31 73 30 33 77 32 27 63 25 27 65 26 27 63 25 25 60 24 30 72 31 29 70 30 30 72 31 23 55 22 24 58 23 34 79 33 37 85 36 32 73 29 39 87 36 34 75 29 40 89 36 34 74 29 32 71 28 33 76 31 35 82 35 28 67 28 22 55 23 17 45 19 20 54 24 16 47 21 11 36 16 11 35 16 10 33 15 13 40 18 17 48 21 14 39 16 24 62 27 21 53 22 30 73 30 32 75 31 39 90 38 38 85 34 34 76 30 42 95 40 38 86 35 37 85 35 30 69 28 26 61 24 31 73 31 24 57 23 29 70 30 22 53 21 27 66 27 29 69 29 32 75 31 26 61 24 26 61 24 28 66 26 34 80 34 27 65 26 29 69 29 27 65 27 24 57 23 26 63 26 27 65 27 23 55 21 30 70 29
28 65 26 32 74 31 26 60 24 24 58 23 26 62 26 28 68 29 19 47 19 22 56 23 19 49 20 29 70 30 22 53 21 25 59 23 31 74 30 30 70 28 32 74 30 38 89 37 30 69 27 31 70 28 30 69 28 32 75 31 31 74 31 23 54 22 28 68 29 28 68 28 30 71 30 33 79 34 36 83 35 37 85 36 40 92 38 36 80 32 41 92 38 35 79 31 32 71 28 34 78 32 30 70 28 22 53 21 27 67 29 18 48 20 16 46 20 11 34 14 9 30 13 14 44 20 7 28 12 12 37 16 14 42 18 21 57 25 19 49 20 22 55 23 28 68 28 31 72 30 27 62 24 32 73 29 31 71 29 29 66 26 34 80 34 29 68 28 22 54 21 24 59 24 24 59 24 26 63 26 24 60 24 30 72 30 25 59 24 28 66 26 36 84 35 37 84 35 34 77 31 39 89 37 32 73 29 29 68 27 31 73 30 31 75 31 28 68 28 30 73 31 21 52 21 27 65 27 29 69 29 26 61 24 36 84 35 34 77 32 35 79 32 40 91 38 33 73 29 30 67 26 35 82 34 25 58 23 24 60 25 22 56 24 13 37 15 18 52 23 12 38 17 14 44 20 7 27 12 7 27 11 12 38 16 16 45 19 18 49 21 23 59 25 27 65 27 30 71 29 29 66 26 30 68 27 38 87 36 31 70 27 35 80 33 29 67 27 30 71 29 24 56 22 22 54 21 23 56 22 29 70 29 27 65 27 23 55 22 27 63 25 36 84 35 33 75 31 34 77 31 39 89 37 39 88 37 35 81 33 27 61 24 27 64 26 26 61 25 29 70 30 27 67 28 29 72 31 24 60 25 28 68 29
32 76 32 23 56 23 24 58 24 20 50 20 18 46 19 25 65 28 23 60 26 20 51 21 19 49 20 26 64 27 28 67 28 25 59 23 30 68 27 31 69 27 34 75 30 35 78 31 40 91 38 36 82 33 36 83 34 36 84 35 31 73 30 24 57 23 30 71 30 24 60 24 28 68 29 24 57 23 27 65 26 33 76 32 36 83 35 37 86 36 39 89 37 30 67 26 33 76 31 32 73 30 29 69 29 20 49 19 22 56 23 20 54 23 15 44 19 16 47 21 8 28 12 9 32 14 12 37 16 10 32 13 21 56 25 17 46 19 22 57 24 25 60 25 24 58 23 34 79 33 26 61 24 34 80 34 27 63 25 27 64 26 27 64 27 23 56 23 24 60 25 23 58 24 28 69 30 22 55 22 26 63 26 27 65 26 32 75 31 30 67 26 38 86 35 34 74 29 41 91 38 39 88 36 36 81 33 35 81 33 27 61 24 27 63 25 23 56 22 20 49 19 27 66 28 21 53 21 29 70 30 23 57 23 31 73 31 34 79 33 34 78 33 33 75 31 31 72 29 32 75 31 26 63 25 21 51 20 27 68 29 23 59 26 13 37 15 12 37 16 7 26 11 16 47 21 16 48 22 18 51 23 18 49 22 14 40 16 20 52 22 22 54 22 27 65 27 33 78 32 30 70 28 32 74 30 29 66 26 33 76 31 33 76 32 30 71 30 24 59 24 22 54 22 22 55 23 27 66 28 21 51 20 28 66 27 26 61 24 29 65 26 32 73 29 40 90 37 33 74 29 41 92 38 42 95 39 37 84 35 34 79 33 27 63 25 29 68 28 25 62 26 23 57 24 23 59 25 25 64 27 21 53 22
29 70 30 21 53 22 16 42 17 18 47 20 17 47 20 20 54 23 20 53 23 15 40 16 19 49 20 21 51 20 27 63 25 33 76 31 36 82 33 41 93 38 35 76 30 36 78 30 35 77 30 34 75 29 34 75 30 31 71 28 36 83 35 30 73 30 28 68 29 27 67 29 27 68 29 25 61 26 25 62 26 21 51 20 24 57 22 27 63 25 26 60 24 33 78 32 31 73 30 27 64 26 27 64 26 27 68 29 23 60 25 14 38 15 17 48 21 13 39 16 15 45 20 16 47 20 14 40 17 18 49 21 24 62 27 25 64 28 24 60 25 22 53 21 23 55 22 27 64 26 24 57 23 29 69 29 24 60 25 19 49 20 21 55 23 17 45 19 18 47 19 17 44 18 26 66 28 24 59 24 30 72 30 35 80 34 35 79 32 39 87 35 34 75 29 39 86 34 40 87 35 42 93 38 40 90 37 30 68 27 30 70 28 31 72 30 30 72 31 26 64 27 20 52 22 23 59 25 23 58 25 26 65 28 22 55 23 25 62 25 22 53 21 24 56 22 31 73 31 29 68 28 31 75 32 21 52 21 19 49 20 19 50 21 15 43 18 15 42 18 11 34 14 14 42 18 17 48 21 14 40 17 20 53 23 16 42 17 20 50 20 24 60 24 26 62 25 30 70 29 34 80 33 29 67 27 30 71 29 25 60 24 30 72 31 24 60 25 21 53 22 24 59 25 24 59 25 26 63 26 25 61 25 33 78 33 33 77 31 34 76 31 38 84 34 44 99 41 41 91 37 40 89 36 41 91 37 41 93 39 34 78 32 32 75 31 29 71 30 21 52 21 25 63 27 17 46 19 16 44 18 14 38 15
20 51 21 20 52 22 13 37 15 14 41 17 13 38 16 12 35 14 17 46 20 18 47 19 20 51 21 31 74 31 26 62 24 36 82 34 35 77 31 43 95 39 40 88 35 46 102 42 42 91 37 43 97 40 39 87 36 34 78 32 30 70 29 23 55 22 26 64 27 22 56 23 15 41 16 22 57 25 20 51 21 17 44 17 19 47 19 30 73 31 22 54 21 27 65 27 27 65 27 26 62 25 29 70 29 26 64 27 26 66 29 23 60 26 23 60 26 21 56 24 12 36 14 15 42 18 14 39 16 21 54 23 17 44 17 26 66 28 22 55 22 22 52 20 31 74 31 24 58 23 21 51 20 27 68 29 22 56 24 20 54 23 16 43 18 20 54 24 22 57 25 21 55 24 22 56 23 21 52 20 29 68 28 33 76 31 34 77 31 42 95 39 37 80 31 37 80 31 39 86 34 42 92 38 41 93 38 36 80 33 32 75 30 30 70 29 21 51 20 22 57 24 18 47 20 20 53 23 12 35 14 18 48 20 14 39 16 20 51 21 26 64 27 23 56 23 31 74 32 26 63 26 31 74 31 23 57 23 28 68 29 22 56 23 20 52 22 20 53 23 16 44 18 12 35 14 14 40 16 17 46 19 20 52 22 27 67 29 27 67 28 25 61 25 30 72 30 30 70 29 25 59 24 22 54 21 22 53 21 25 63 27 18 47 19 17 45 18 21 55 23 18 47 19 26 65 28 26 63 26 24 57 23 34 80 33 34 77 31 34 75 29 36 80 31 45 99 41 40 87 35 37 80 31 38 84 34 38 85 35 30 69 27 30 69 28 21 51 20 25 62 26 15 41 17 13 37 15 19 53 24 14 41 17
20 53 23 18 50 22 12 38 16 12 37 16 13 41 18 16 47 21 19 51 22 15 41 16 27 66 28 25 60 24 32 75 31 31 69 27 35 79 31 40 88 36 39 86 34 47 103 42 39 84 33 42 94 38 37 82 33 34 78 32 34 80 34 29 70 30 19 48 19 21 55 23 13 36 14 21 57 25 16 45 19 20 53 23 21 55 23 20 51 21 21 53 22 26 64 27 26 62 26 21 52 20 22 53 21 22 54 22 20 50 20 20 50 20 22 56 24 19 48 20 25 64 28 18 47 19 25 62 26 23 58 24 23 57 24 28 68 29 26 62 26 21 51 20 29 72 31 22 56 23 19 49 20 16 42 17 19 53 23 14 41 17 19 53 24 10 32 13 15 42 17 17 46 19 18 46 18 30 72 30 32 75 31 39 88 37 41 92 38 39 85 34 38 84 33 43 94 38 38 83 33 44 97 40 35 79 31 40 91 38 31 71 29 24 58 23 22 54 22 19 51 21 18 49 21 20 54 24 12 36 15 19 52 23 13 39 16 14 40 16 20 52 22 19 47 19 20 50 20 25 61 25 31 75 32 28 68 29 21 52 21 27 66 28 26 65 27 23 57 24 17 44 18 21 55 23 20 52 21 18 47 19 28 68 29 24 60 25 22 54 21 30 71 30 29 70 30 27 65 27 20 50 20 27 68 29 24 61 26 19 50 21 15 41 17 13 38 16 21 55 24 22 58 25 19 48 19 29 71 30 32 75 32 36 84 35 40 90 37 43 97 40 38 83 33 37 80 31 43 93 38 42 92 37 44 98 41 33 74 29 36 84 35 27 64 26 22 55 22 21 54 22 17 47 20 16 46 20 15 45 20 12 37 16
18 50 22 10 33 14 15 46 21 10 34 15 8 28 12 10 33 14 19 52 23 15 41 16 25 62 26 28 67 28 34 80 33 37 84 35 38 84 34 35 77 30 44 97 40 39 86 34 36 79 31 36 79 31 32 72 28 29 66 26 35 81 34 25 60 25 25 62 26 21 54 23 16 44 19 15 43 19 9 30 12 17 48 21 15 43 18 18 49 21 16 44 18 27 67 29 26 65 27 24 59 24 24 58 24 26 63 26 28 67 28 22 53 21 22 54 22 22 55 22 21 52 20 27 65 27 28 67 28 23 56 22 27 65 27 25 59 24 30 73 31 24 59 24 26 64 27 18 47 19 16 45 19 16 44 19 11 35 15 14 43 19 12 38 16 14 42 18 16 45 19 19 49 21 26 66 28 24 58 23 30 69 28 32 73 29 33 74 29 35 76 30 41 91 37 39 85 34 44 98 40 41 90 37 33 73 28 37 83 34 30 69 28 29 69 28 21 53 22 17 45 18 13 38 15 9 29 12 7 26 11 14 43 19 16 46 20 11 35 14 12 36 14 21 55 23 23 58 24 25 63 26 22 54 21 23 54 22 24 56 22 32 76 32 29 71 30 28 67 28 23 56 22 22 53 21 22 53 21 22 53 21 24 59 24 27 65 27 30 74 31 30 72 30 22 54 22 27 67 29 22 57 24 14 38 15 15 42 17 11 34 14 18 51 22 18 50 22 12 36 15 14 38 15 23 57 24 25 61 25 32 75 31 36 82 34 36 82 33 37 83 33 36 79 31 38 82 32 45 99 41 44 99 41 39 87 36 39 88 36 29 66 26 30 70 29 29 72 31 18 48 19 13 37 15 15 43 18 10 34 14 12 38 17
16 46 20 13 40 18 12 40 18 15 45 21 11 36 16 18 52 23 20 53 23 23 60 26 21 53 21 32 75 32 35 82 35 36 83 34 31 70 27 35 78 31 39 87 35 36 79 31 43 98 40 38 84 34 32 71 28 34 78 32 29 67 27 28 67 28 20 50 20 18 47 20 17 47 20 11 35 15 16 48 22 15 44 20 10 33 14 17 49 22 21 57 25 24 61 27 22 55 23 22 54 22 26 63 26 24 56 22 30 72 30 31 74 31 28 66 27 26 61 24 32 76 32 34 79 33 27 63 25 28 65 26 25 59 23 32 77 32 24 57 23 28 70 30 22 55 23 19 50 21 11 34 14 17 49 22 7 27 11 10 34 15 16 48 22 18 50 23 20 56 25 15 41 16 26 64 27 23 55 22 35 81 34 37 85 35 38 87 36 33 72 28 38 85 34 42 95 39 35 77 30 33 73 28 38 85 35 31 70 28 34 79 33 27 65 27 27 66 28 17 45 18 18 50 21 10 33 14 10 34 15 13 41 18 6 25 10 13 41 18 17 49 21 14 40 17 17 45 18 28 69 29 24 57 23 24 57 23 27 63 26 33 77 32 26 60 24 30 71 29 33 77 32 30 70 29 26 62 25 34 80 34 31 73 31 23 54 21 30 72 30 21 52 20 25 63 27 25 65 28 21 57 25 19 52 23 9 29 12 9 30 12 12 38 17 9 31 13 16 46 20 17 46 19 21 53 22 22 55 22 29 69 28 34 79 33 32 71 28 35 77 31 39 87 35 42 94 38 36 79 31 39 86 35 33 74 29 35 81 33 36 83 35 28 65 27 24 60 25 19 49 20 23 60 26 12 35 14 11 35 15 12 38 17
11 34 14 11 37 16 8 29 12 9 30 13 8 29 12 17 49 21 19 51 22 17 44 17 27 66 28 23 55 22 34 79 33 28 65 26 28 65 25 36 83 34 35 78 32 34 76 30 32 72 28 40 91 38 37 85 35 29 66 26 35 81 34 30 71 30 20 49 20 15 40 16 14 40 17 14 43 19 8 28 12 15 46 21 11 36 16 10 34 14 16 46 20 13 36 14 18 47 19 19 47 19 29 71 30 30 72 30 33 76 32 30 69 28 33 77 31 36 82 34 34 77 31 35 80 33 32 73 29 33 76 31 35 81 34 29 67 27 32 76 32 25 62 26 19 48 20 12 36 14 18 51 22 10 34 15 7 26 11 5 23 10 14 44 20 10 32 14 16 46 20 16 42 17 26 65 28 21 52 21 27 64 26 31 71 29 38 87 36 30 67 26 34 77 31 39 89 37 38 87 36 31 70 28 31 70 28 30 69 28 26 60 24 25 59 23 27 67 28 21 54 23 14 38 15 13 40 17 16 47 21 15 45 21 6 23 10 9 32 14 13 40 17 13 39 16 23 60 26 26 66 28 21 50 20 33 78 33 32 74 30 28 64 25 29 67 26 37 86 36 33 74 30 32 74 30 34 78 32 29 66 26 28 64 25 25 58 23 25 59 24 21 52 21 18 46 18 18 48 20 16 44 19 9 29 12 9 32 14 6 24 10 8 29 12 17 49 22 18 50 22 16 45 19 19 48 20 26 63 26 32 75 31 27 63 25 33 75 30 38 87 36 33 74 29 41 93 39 40 90 38 33 75 30 35 80 33 28 65 26 34 80 33 32 76 32 23 56 23 20 50 20 15 41 16 19 51 22 14 41 18 13 41 18
15 43 19 16 46 21 12 38 17 15 43 19 17 47 21 18 50 22 21 55 24 18 46 19 20 50 20 23 56 22 28 68 28 27 65 26 31 73 30 31 73 30 36 83 35 33 77 32 35 82 34 37 84 35 33 76 31 28 64 25 26 60 24 24 58 23 23 56 23 19 49 20 17 46 20 19 53 23 16 48 22 11 36 16 8 28 12 6 23 10 14 41 18 19 54 24 21 54 23 24 61 26 30 74 32 27 63 25 28 64 25 35 81 33 36 82 34 38 86 35 34 75 30 39 87 36 40 90 37 36 81 33 31 70 28 34 79 33 29 68 28 28 68 29 22 57 24 18 50 21 17 48 21 12 38 16 13 40 18 8 29 12 14 43 19 10 31 13 17 46 19 17 44 18 23 58 24 21 52 21 26 62 25 26 61 24 28 66 26 31 71 29 28 65 26 29 67 27 36 84 35 34 80 33 28 66 26 31 72 29 26 62 25 30 72 30 26 64 26 21 53 22 20 52 22 20 53 23 12 37 16 11 36 16 14 43 19 14 42 19 15 44 20 17 49 22 14 39 16 22 57 24 26 63 26 29 68 28 26 61 24 34 78 32 32 71 28 36 80 32 37 84 34 39 87 36 41 92 38 40 91 38 35 80 33 35 82 34 24 57 22 30 74 31 22 55 23 18 49 21 18 51 22 18 51 23 12 37 17 11 37 16 15 46 21 7 26 11 18 51 23 18 49 21 22 57 24 27 65 28 25 61 25 28 65 26 28 66 26 32 73 30 30 70 28 37 86 36 32 74 30 34 79 33 26 60 23 30 70 29 33 77 32 32 76 32 28 68 29 24 60 25 21 53 22 19 50 21 14 39 16 19 52 23
19 53 23 10 32 13 17 47 21 16 46 20 14 41 17 18 47 20 23 60 25 28 69 30 24 60 25 21 51 20 26 64 26 24 59 24 24 58 24 28 68 28 29 69 29 24 56 22 28 67 27 30 71 29 30 72 30 28 67 27 27 64 26 32 76 32 25 61 25 22 54 22 25 63 27 13 38 15 17 48 21 13 39 17 8 29 12 8 29 12 7 26 11 12 37 16 19 51 22 24 63 27 20 51 20 25 60 24 29 67 27 38 87 36 38 86 35 40 90 37 43 96 39 37 82 32 38 85 34 42 95 39 37 83 33 36 82 34 34 81 34 22 54 22 26 66 28 20 54 23 11 34 14 16 47 21 9 30 12 11 35 15 12 37 16 13 39 16 21 54 23 17 45 18 27 67 29 21 50 20 29 71 30 28 66 27 23 54 21 30 72 30 30 71 30 29 69 29 24 58 23 27 66 27 29 69 29 26 62 25 25 59 23 30 72 30 23 57 23 27 66 28 26 65 28 24 62 27 16 45 19 13 39 17 12 38 16 10 33 14 16 48 22 16 45 20 15 43 18 21 54 23 28 70 30 28 67 28 30 70 29 37 84 35 34 75 30 41 91 37 41 90 36 43 95 39 36 78 30 38 85 34 40 89 37 35 81 33 28 64 26 29 69 29 26 64 27 22 58 25 18 50 22 11 35 15 16 47 21 10 33 14 16 47 21 9 29 12 17 48 21 22 58 25 26 66 28 26 64 27 25 61 25 31 74 31 25 58 23 26 60 24 25 60 24 24 57 22 27 65 27 30 71 30 30 71 30 28 68 28 28 66 27 24 57 23 24 57 23 26 63 26 27 67 28 23 59 25 18 48 20 21 55 24
16 44 18 16 43 18 14 39 16 16 43 17 18 48 20 27 67 29 29 70 30 27 67 28 29 69 29 27 65 27 23 56 22 27 66 28 20 49 20 27 68 29 21 53 21 27 67 29 21 51 21 26 63 26 28 69 29 25 60 24 26 62 25 27 65 27 31 76 32 26 63 26 22 55 23 21 54 23 16 44 18 17 47 21 10 32 13 11 35 15 7 26 10 14 43 19 17 49 21 16 43 18 20 51 21 22 53 21 28 65 26 30 67 26 41 92 38 42 94 39 36 79 31 40 88 35 40 88 35 38 83 33 42 94 39 37 85 35 29 68 27 27 64 26 27 66 28 19 50 21 13 37 15 16 44 19 16 45 19 11 34 14 15 42 17 23 61 27 21 53 22 27 67 29 27 67 28 29 70 29 25 62 25 29 71 30 28 69 29 27 66 28 21 52 21 19 47 19 20 50 20 23 57 24 20 49 19 22 55 23 27 65 27 23 55 22 27 65 27 27 66 28 23 56 23 18 46 18 19 49 20 14 38 15 18 50 22 19 53 24 15 43 19 17 50 22 15 43 18 21 57 25 18 47 19 23 56 23 33 77 32 29 66 26 39 89 37 34 75 29 43 94 38 44 98 40 40 88 35 40 87 35 34 75 29 31 70 27 37 86 36 30 72 30 20 50 20 20 51 21 22 59 26 14 41 17 15 43 19 9 30 12 11 33 14 18 50 22 15 42 18 16 42 17 24 60 25 23 58 24 25 60 25 24 57 23 29 69 29 22 54 22 20 49 19 25 63 27 22 56 23 22 55 23 21 52 21 23 58 24 28 70 30 20 49 19 25 60 25 27 66 28 26 64 27 29 70 30 27 68 29 19 49 20
25 62 27 27 67 29 22 55 23 26 64 27 24 59 24 29 69 29 26 63 25 25 60 24 24 57 22 29 68 28 28 68 28 26 63 26 19 48 19 17 45 18 24 63 27 24 63 27 23 61 26 21 54 23 21 53 22 22 56 23 26 65 27 30 72 31 28 68 28 27 65 27 30 73 31 27 67 29 24 60 26 21 56 24 14 41 17 11 33 14 13 40 17 16 46 20 13 39 16 16 44 19 19 48 20 28 68 29 29 68 28 34 78 32 32 73 29 36 81 32 45 100 41 40 86 34 41 90 36 37 80 31 35 76 30 34 75 30 33 76 31 30 70 29 22 54 21 20 51 20 24 62 27 21 55 24 22 56 24 20 52 22 25 63 27 25 62 26 21 52 21 30 72 31 29 69 29 30 72 30 25 61 25 29 70 30 27 68 29 19 48 19 18 46 19 16 43 17 24 61 27 19 51 21 20 53 22 18 48 20 19 48 19 24 60 25 24 60 25 22 54 22 25 60 24 26 64 27 20 49 20 26 66 28 24 63 27 15 40 17 17 48 21 13 37 16 13 39 16 20 53 23 17 46 19 21 52 21 29 71 30 32 75 31 32 72 29 33 73 29 36 78 30 41 90 36 40 88 35 46 102 42 43 95 39 38 86 35 33 75 30 35 82 34 30 72 30 24 60 25 16 42 17 15 41 17 16 46 19 16 44 18 14 39 16 17 47 19 24 61 26 23 58 24 24 58 24 24 59 24 29 70 29 23 55 22 21 51 20 26 65 28 19 49 20 22 58 25 19 50 21 18 47 20 23 61 27 18 47 19 23 59 25 27 67 29 28 70 30 25 61 25 30 73 31 25 60 24 28 67 28 30 73 31
20 51 20 25 62 26 26 63 26 31 73 31 32 75 31 34 80 33 33 75 31 35 80 33 27 63 25 26 59 23 27 63 26 27 65 27 22 54 22 18 47 19 19 50 21 18 48 21 18 50 22 13 37 15 15 41 17 22 59 25 20 52 22 26 64 27 27 66 28 21 52 20 26 62 25 29 71 30 20 49 19 21 53 22 20 51 22 22 57 25 13 38 16 18 49 21 16 46 20 16 45 19 17 44 18 18 47 19 22 53 21 30 71 29 31 71 29 34 77 31 37 83 33 35 77 30 40 88 35 43 94 39 39 88 36 41 92 38 30 68 27 32 75 31 32 77 33 27 65 27 20 50 20 26 64 27 23 57 23 23 58 24 21 51 20 31 75 32 26 62 25 34 79 33 27 64 26 32 75 31 29 68 28 30 73 31 23 57 24 22 57 24 24 62 27 14 39 16 17 48 21 16 46 20 15 42 18 18 50 22 18 47 20 19 50 21 19 47 19 28 67 28 29 70 30 29 69 29 27 64 27 22 55 22 19 48 19 19 48 19 16 42 17 23 61 27 13 36 15 18 48 20 23 61 26 23 59 25 20 50 20 25 60 24 35 82 34 35 80 32 43 96 40 35 76 30 41 89 36 38 84 33 39 85 34 43 96 40 39 88 37 36 83 35 28 65 26 23 55 22 21 53 22 24 61 26 17 45 18 19 49 20 23 58 25 24 60 25 27 66 28 30 72 30 23 55 22 30 72 30 27 64 26 31 73 31 23 57 23 20 50 20 23 59 25 14 38 15 12 35 14 18 49 21 17 48 21 12 35 14 17 48 20 17 45 19 17 44 17 22 56 23 26 63 26 25 59 24 29 68 28 32 75 32
27 65 27 28 68 28 34 80 34 29 67 27 32 74 30 34 77 31 36 80 32 40 90 37 31 69 27 31 70 28 30 71 29 32 75 32 21 51 20 19 50 20 17 46 19 17 48 21 14 40 17 18 51 23 10 33 14 10 31 12 22 58 26 15 40 16 17 44 17 20 50 20 24 58 23 28 68 28 24 58 23 26 63 26 25 63 27 20 51 21 16 43 17 18 47 20 13 36 14 20 53 23 17 44 18 23 59 25 20 51 20 27 64 26 35 81 34 36 83 34 32 72 29 35 79 31 36 81 32 35 78 31 36 80 32 36 82 33 36 82 34 30 70 29 25 60 24 22 53 21 23 55 22 27 66 27 28 67 28 27 64 26 30 70 29 31 72 29 33 76 31 31 70 28 39 89 37 31 71 28 31 71 29 33 78 33 23 55 22 18 45 18 17 45 19 14 40 17 12 35 15 13 40 18 12 37 16 17 49 22 12 36 15 16 43 18 22 58 25 21 52 21 23 57 23 31 74 31 29 68 28 30 72 30 26 61 25 29 70 29 23 57 24 19 49 20 19 50 21 23 60 26 24 62 27 22 56 23 24 59 25 30 72 30 31 73 30 28 65 26 31 69 27 38 86 35 34 75 29 34 76 30 37 81 32 32 71 28 34 77 31 33 76 31 27 64 25 32 77 33 26 64 27 26 64 27 22 56 23 28 69 29 21 52 21 23 55 22 29 69 28 27 62 24 28 65 26 33 76 31 29 68 27 28 66 27 30 72 30 20 51 20 16 42 17 20 54 24 16 46 20 11 34 15 17 50 22 9 30 12 9 29 12 19 53 23 16 44 18 20 51 21 23 56 23 26 63 26 25 59 24 26 59 23
27 64 27 33 79 34 34 80 34 29 65 25 32 72 28 34 76 30 36 79 31 38 85 34 38 84 34 35 79 32 37 83 34 35 81 34 26 63 26 26 65 28 22 58 25 19 53 23 10 32 13 9 29 12 11 34 15 15 46 21 10 32 13 15 43 18 20 53 23 22 56 24 27 67 28 23 56 22 27 64 26 28 67 28 29 69 29 28 69 29 28 69 30 26 66 28 23 58 25 19 48 20 19 51 21 22 55 23 25 62 26 27 67 28 31 73 31 32 76 32 32 74 30 37 85 35 38 88 36 30 67 26 37 85 35 31 72 29 36 83 35 33 77 32 27 64 26 30 73 31 28 67 28 27 66 27 28 67 28 26 60 24 31 72 29 37 84 34 32 71 28 39 87 35 41 92 38 35 78 31 34 77 31 30 69 28 31 75 32 28 70 30 21 54 23 13 37 15 18 52 23 10 32 13 14 44 20 15 45 20 7 26 11 14 40 17 19 51 22 24 61 26 20 51 21 27 66 28 31 74 31 29 67 27 26 62 24 32 76 32 27 64 26 29 70 29 26 64 27 24 59 25 25 64 27 23 57 24 24 60 25 22 54 22 22 54 21 27 63 25 36 83 35 31 72 29 39 89 37 38 86 36 31 68 27 30 69 27 31 70 28 34 80 33 28 66 27 30 72 30 28 67 28 26 63 26 21 51 20 31 75 32 32 76 32 31 73 30 35 79 33 33 75 30 38 86 35 38 87 36 39 88 37 35 82 34 29 68 28 25 61 25 25 62 27 20 52 22 15 42 18 17 50 23 6 24 10 14 43 19 16 47 21 12 37 16 20 54 24 14 39 16 23 59 25 27 66 28 25 60 24 35 81 34
28 69 29 32 76 32 35 82 34 35 79 32 39 87 36 38 84 34 40 87 35 42 93 37 45 99 41 41 92 38 34 76 30 29 67 26 28 66 27 30 73 31 27 67 29 19 51 22 18 51 22 8 27 11 10 34 15 5 23 9 13 40 18 14 41 18 12 36 15 16 43 18 23 57 24 28 68 29 30 72 30 27 64 26 29 69 28 34 80 34 28 66 27 30 73 31 30 74 31 22 55 22 27 68 29 20 51 21 22 54 22 24 60 25 26 63 26 32 77 33 29 67 28 34 80 34 35 82 34 27 62 25 33 78 33 30 71 29 26 62 25 29 71 30 23 56 23 27 66 28 24 59 24 29 69 29 25 60 24 34 80 33 34 77 31 41 92 38 42 93 38 36 78 31 38 83 33 36 80 31 38 85 35 36 82 34 33 78 32 30 73 31 24 60 25 19 50 21 19 52 23 16 47 21 13 41 18 13 40 18 8 29 13 16 47 21 15 45 20 13 36 15 20 52 22 20 49 20 27 65 27 33 78 33 36 85 36 31 71 29 34 78 32 33 77 32 32 76 32 28 67 27 29 69 29 29 71 30 24 59 25 20 49 20 22 54 22 28 68 28 28 65 27 30 69 28 30 69 28 28 64 25 33 77 32 27 62 24 29 68 28 25 60 24 31 74 31 25 61 25 25 61 25 28 68 28 26 61 25 33 77 32 31 71 29 30 69 27 40 91 38 42 95 39 36 80 32 43 97 40 41 92 38 37 85 35 35 80 33 29 70 29 24 60 25 17 45 18 14 39 16 18 52 23 13 40 18 15 46 21 9 30 13 15 46 21 8 28 12 19 54 24 19 51 21 27 67 29 25 61 25 25 58 23
25 62 26 28 68 28 32 74 31 34 79 32 38 85 34 36 80 31 42 91 37 41 91 36 46 103 42 41 91 37 37 81 33 31 69 27 32 73 30 26 62 25 26 65 27 18 46 19 15 42 17 14 41 18 13 39 17 7 26 11 6 24 10 8 30 13 10 33 14 12 35 14 21 54 23 22 57 24 23 56 23 28 65 27 30 70 29 36 84 35 35 82 34 28 65 26 33 76 32 28 66 27 27 65 27 25 61 25 22 53 21 21 51 20 27 65 27 27 65 27 31 74 31 25 59 24 22 53 21 29 70 30 25 61 25 28 68 29 23 59 25 23 59 25 18 46 19 25 63 27 23 59 24 21 53 21 23 55 22 29 68 27 32 72 28 39 87 36 44 99 41 38 83 33 45 99 41 41 91 37 36 79 31 40 91 38 32 73 30 28 65 26 29 70 30 18 45 18 18 48 20 15 42 18 10 33 14 6 24 10 13 41 18 8 30 13 9 31 13 9 30 12 16 45 19 22 57 24 24 59 24 30 73 30 33 77 32 35 81 33 37 85 35 32 73 29 36 83 34 36 85 35 27 63 25 28 67 27 32 77 33 26 62 26 29 70 29 25 60 24 31 75 32 32 76 32 26 63 26 28 67 28 23 54 21 28 68 29 29 71 30 25 61 25 20 50 20 24 59 24 28 68 29 30 72 31 29 70 29 29 67 27 32 74 30 36 82 33 40 90 37 38 83 33 46 102 42 44 97 40 42 94 38 37 84 34 32 72 29 34 79 33 26 63 26 21 52 21 21 56 24 19 52 23 10 32 13 15 44 20 11 37 16 9 31 13 8 29 12 14 42 18 12 36 15 16 43 18 24 60 25 31 75 32
17 44 18 28 70 30 28 68 28 27 63 25 34 76 31 36 80 32 39 86 34 38 84 33 38 83 33 37 82 32 43 96 40 34 76 30 30 69 28 27 63 25 31 74 32 21 52 21 17 44 18 17 47 20 13 40 17 15 45 20 11 36 16 13 40 18 15 45 20 15 45 20 18 49 21 24 63 27 19 47 19 26 63 26 27 63 25 36 84 35 38 87 36 37 86 35 35 79 32 35 81 33 33 76 31 29 69 28 31 74 31 30 71 30 27 66 27 23 55 22 22 53 21 23 56 23 21 52 21 24 59 25 21 54 23 18 47 19 18 48 20 20 54 23 17 47 20 16 44 18 22 56 24 23 57 24 24 58 23 25 59 23 29 66 26 33 74 29 44 99 41 37 80 31 40 87 35 42 92 37 38 84 33 37 83 34 33 76 31 35 82 35 26 61 25 24 59 24 24 60 26 14 38 15 15 43 18 12 38 16 8 27 11 15 45 20 8 29 12 15 44 20 11 33 13 16 43 18 25 64 27 26 63 26 27 63 25 33 76 31 37 83 34 33 74 29 36 81 33 40 90 37 39 89 37 32 73 30 34 79 33 26 61 25 26 61 25 22 54 21 23 55 22 25 62 26 24 59 25 24 59 25 20 51 21 26 65 28 20 51 21 24 62 27 18 46 19 25 63 27 24 61 26 21 52 21 23 56 23 31 73 30 34 78 32 35 80 32 42 94 39 39 87 35 45 100 41 46 101 41 39 86 34 41 93 38 37 84 34 31 70 28 26 61 24 30 73 31 24 60 26 22 59 25 20 54 24 19 53 23 13 39 17 12 38 16 17 49 22 12 38 16 15 44 19 13 37 15 24 62 27 30 72 31
22 57 25 20 51 21 22 55 22 33 78 33 35 81 34 33 75 30 40 91 37 40 88 36 37 83 33 40 90 37 39 89 37 30 68 26 35 81 34 29 69 28 23 56 22 22 55 22 27 67 29 17 45 18 22 59 26 11 34 14 16 46 21 11 35 15 16 48 22 12 38 17 19 53 24 17 47 20 23 60 26 25 62 26 33 78 33 33 77 32 30 67 26 32 71 28 36 80 32 33 73 29 38 86 35 29 66 26 31 72 29 27 61 24 28 65 26 32 76 32 28 68 28 23 57 24 19 47 19 23 59 25 23 60 26 14 39 16 15 44 19 18 51 23 12 37 16 15 42 18 14 40 17 25 64 28 24 59 24 30 72 30 34 78 32 39 89 37 38 86 35 41 92 38 44 99 41 36 79 31 37 83 33 38 86 35 32 74 30 35 82 35 25 60 24 24 59 24 28 69 30 26 66 28 20 52 22 18 49 21 10 31 12 15 45 20 14 42 18 12 36 15 13 39 17 14 40 16 16 42 17 21 54 22 30 71 30 34 78 32 38 86 36 34 75 29 36 80 32 43 96 40 35 77 31 35 78 31 30 69 27 33 75 31 27 64 25 29 68 28 24 59 24 20 49 19 26 66 28 26 67 29 15 41 16 22 58 25 21 57 25 15 41 17 18 50 22 13 37 15 21 55 24 24 60 26 20 51 21 26 63 26 29 68 27 30 68 27 39 87 35 42 93 38 37 80 31 44 98 40 35 77 30 39 86 35 31 68 27 29 65 26 29 67 27 29 69 29 20 50 20 17 44 17 22 56 24 18 48 20 12 35 14 20 55 24 12 37 15 16 45 20 16 46 20 16 43 18 22 57 25 21 53 22
15 43 18 17 46 19 21 54 22 27 65 27 31 73 30 37 85 36 37 84 35 38 86 36 30 68 27 39 90 38 31 71 28 30 69 28 33 78 32 32 75 31 33 79 33 23 55 22 26 64 27 21 52 21 20 52 22 15 41 17 11 34 14 10 31 13 13 40 17 11 36 15 18 50 22 19 53 23 17 45 19 20 50 20 30 72 30 30 70 28 35 81 33 35 79 32 39 87 36 34 75 29 43 96 40 35 77 30 33 73 29 36 82 33 36 83 35 33 79 33 25 59 24 20 51 20 24 61 26 20 54 23 17 47 20 12 37 16 9 31 13 8 27 11 17 49 22 10 32 13 15 43 18 17 47 20 17 44 17 26 64 26 32 74 31 35 80 33 32 72 29 41 94 39 38 85 34 33 73 29 34 76 30 36 83 34 34 79 33 29 67 27 33 79 33 23 55 22 27 66 28 21 51 21 20 50 20 16 43 17 17 45 19 18 50 21 19 52 23 19 53 23 15 42 18 14 40 17 22 57 25 22 56 23 26 64 26 32 77 32 30 69 28 32 72 28 39 87 35 43 96 39 42 94 38 44 98 41 42 93 39 32 72 28 33 76 31 27 62 24 30 71 30 22 54 22 25 62 26 20 52 22 15 41 17 14 39 16 14 42 18 10 32 13 17 49 22 9 29 12 10 32 13 20 53 23 24 61 26 28 68 29 33 78 33 31 70 28 38 86 35 40 89 37 37 82 33 37 82 33 41 93 38 34 76 30 30 69 27 29 67 27 30 70 29 31 74 31 25 60 25 26 64 27 27 67 29 17 45 18 24 61 27 18 47 20 14 39 16 21 57 25 16 44 19 22 58 25 18 49 20 19 49 20
18 50 22 17 46 19 23 57 24 28 68 28 23 55 22 32 76 32 27 63 25 27 63 25 28 65 26 25 59 23 32 76 32 27 63 26 23 56 22 25 59 24 24 59 24 24 58 24 24 58 24 20 50 20 26 65 28 17 44 18 19 51 21 14 39 16 12 35 14 20 54 24 16 46 20 16 46 20 14 40 16 21 53 22 21 52 21 27 63 26 31 72 29 37 84 34 42 95 39 36 80 31 42 94 38 44 97 40 42 93 38 38 86 35 35 80 32 30 70 28 30 71 30 23 55 22 19 47 19 19 51 22 19 53 23 15 45 20 12 38 17 6 25 10 10 34 15 10 32 14 11 33 14 21 56 24 20 53 22 27 66 28 29 70 29 32 74 31 37 85 36 35 80 33 33 76 31 36 83 35 31 71 29 28 65 26 29 69 28 27 64 26 32 76 32 22 53 21 22 54 22 23 55 22 27 67 28 21 51 21 21 53 22 16 43 17 18 47 20 15 41 17 20 53 23 17 47 20 21 56 24 16 43 17 21 52 21 24 57 23 27 62 25 39 90 38 38 85 35 43 96 39 41 91 36 43 94 38 40 88 35 35 76 30 38 85 35 31 71 28 30 69 28 22 52 21 23 58 24 16 41 16 12 35 14 11 35 14 13 40 17 13 40 18 9 30 13 9 30 13 12 36 16 16 46 20 19 51 21 20 50 20 30 71 30 34 79 33 37 85 36 35 80 33 39 89 37 40 92 38 32 72 29 35 81 34 27 62 24 31 74 31 24 56 22 29 70 29 22 54 21 30 74 31 22 55 22 21 51 20 27 67 29 20 51 21 26 65 28 19 48 20 15 41 16 17 44 18 15 41 16 22 57 24
16 44 18 24 62 27 21 54 22 27 67 28 27 66 27 26 63 25 33 78 33 29 70 29 29 69 29 23 55 22 29 71 30 29 72 31 19 48 19 26 64 27 27 65 27 22 53 21 29 71 30 31 75 32 23 57 23 25 61 25 28 69 30 20 50 20 17 45 18 19 49 21 21 55 24 18 50 21 20 54 23 23 59 25 23 57 23 28 67 28 32 74 31 35 79 32 38 85 34 44 97 40 45 100 41 45 98 40 36 79 31 40 87 35 39 88 36 35 80 33 30 69 28 26 61 25 21 53 22 18 47 19 19 52 23 14 42 18 10 33 14 7 27 11 6 23 10 13 40 17 14 41 17 18 49 21 17 43 17 23 57 23 22 53 21 28 67 28 33 79 33 30 71 29 27 64 26 24 58 23 26 63 26 29 71 30 23 57 23 22 53 21 27 66 28 21 52 21 22 54 21 29 70 29 24 58 23 28 67 28 31 75 32 21 51 20 28 70 30 24 60 26 20 52 22 24 62 27 24 61 26 19 49 20 27 67 29 26 64 26 27 64 26 36 82 34 37 83 34 39 85 34 41 89 36 46 101 41 43 94 38 41 91 37 33 73 28 33 75 30 31 71 29 26 62 25 24 60 25 23 59 25 18 50 22 11 34 14 13 40 18 14 43 19 5 23 9 13 40 18 9 29 12 18 51 22 14 38 15 17 45 18 22 54 22 29 69 29 30 70 28 32 75 31 33 76 31 36 84 36 33 77 32 32 75 31 28 67 28 29 69 29 25 61 25 27 65 27 21 51 20 26 62 25 28 66 27 24 57 23 28 68 28 27 65 27 30 73 31 22 54 22 28 68 29 24 60 25 24 59 25 18 46 18
22 58 25 20 52 22 21 52 21 20 50 20 27 66 28 24 58 23 21 51 20 22 55 22 23 58 24 21 54 22 22 57 24 18 48 20 24 63 27 18 47 19 24 59 25 25 62 26 25 62 25 30 73 31 32 76 32 33 78 33 30 71 30 26 63 26 23 56 23 24 60 25 22 57 24 17 44 18 24 60 26 17 45 18 22 56 23 29 70 30 27 64 26 31 71 28 33 74 29 36 80 32 41 91 37 41 89 36 41 90 36 38 84 33 41 92 38 37 85 35 37 85 36 23 56 22 23 57 23 21 54 23 17 46 19 9 30 12 16 47 21 9 31 13 10 33 14 13 39 17 18 50 22 16 42 17 17 45 18 20 50 20 27 66 27 24 58 23 25 59 24 25 61 25 28 68 29 21 51 21 19 48 19 23 59 25 24 61 26 20 52 22 25 63 27 28 69 30 24 59 24 28 68 29 26 61 25 30 71 29 24 57 22 32 75 31 32 77 33 28 67 28 22 54 22 20 50 20 26 65 28 21 54 22 26 65 28 26 64 27 33 78 33 28 64 26 38 88 36 38 85 35 36 80 31 42 92 37 46 102 42 45 101 42 34 76 29 39 87 36 36 82 34 24 57 22 25 60 25 22 56 24 20 53 23 12 36 15 14 43 19 11 35 15 13 41 18 16 48 22 10 32 13 14 40 17 22 56 24 24 61 26 29 71 30 24 57 23 30 70 29 28 65 26 33 78 33 31 74 31 31 74 32 26 65 27 19 49 19 18 47 19 27 68 29 20 50 20 22 55 22 29 70 30 30 72 30 32 75 31 33 77 32 32 76 31 29 68 27 34 81 34 30 71 29 30 73 31 29 71 30 22 53 21
20 51 21 27 66 28 23 57 23 24 57 23 24 59 24 24 60 25 27 67 29 23 59 25 23 60 26 14 39 16 20 53 23 12 36 15 19 51 22 13 37 15 21 55 24 24 62 26 22 53 21 29 68 28 32 75 31 29 68 28 32 74 31 31 73 30 33 78 33 27 64 26 27 65 27 29 70 30 22 55 23 23 58 24 20 50 20 26 64 27 25 59 24 29 67 27 34 78 32 40 90 37 44 99 41 42 92 38 38 82 32 39 86 35 36 79 32 40 90 37 34 78 32 26 62 25 24 60 25 21 54 23 18 48 20 13 39 16 14 42 18 17 50 22 19 54 24 13 38 16 21 54 23 25 65 28 21 52 21 25 61 25 27 66 28 23 56 23 22 55 22 27 67 29 26 67 29 17 45 18 22 57 25 16 43 18 15 41 17 14 39 16 16 42 17 19 50 20 24 60 25 23 56 22 27 65 26 34 80 33 34 78 32 35 80 33 37 86 36 27 62 24 25 60 24 30 71 29 27 66 28 25 61 25 21 53 21 30 72 31 31 73 31 25 58 23 34 78 32 31 70 28 34 75 29 43 96 40 36 79 31 35 78 30 34 75 29 39 89 37 36 83 35 26 60 24 28 69 29 18 47 19 21 56 24 12 35 14 17 48 21 17 50 23 11 34 15 15 43 19 15 43 19 20 54 23 18 46 19 27 68 29 25 60 25 22 53 21 32 76 33 26 62 25 21 53 21 28 69 30 26 66 29 25 63 27 18 47 20 22 58 25 16 42 17 17 44 18 27 67 29 24 58 24 26 61 25 29 68 28 29 66 26 29 65 25 31 70 28 33 75 30 36 84 35 32 75 31 34 80 34 31 75 31
28 68 28 26 61 25 32 77 32 27 64 26 23 55 22 22 54 22 25 64 28 20 54 23 20 55 24 11 35 14 11 35 15 17 50 22 12 37 16 14 39 16 14 39 16 17 43 17 29 70 30 25 60 24 32 74 31 34 80 33 33 76 31 33 74 30 28 64 25 33 77 32 32 74 31 28 68 28 30 74 31 21 51 20 20 50 20 25 60 25 23 55 22 26 61 24 37 85 36 38 87 36 41 93 39 42 95 39 41 90 37 38 84 34 36 80 32 35 80 33 36 83 35 32 75 32 27 65 27 18 45 18 21 54 23 18 50 21 12 35 14 21 55 24 23 59 26 21 54 23 18 47 19 29 71 31 28 68 29 28 67 28 27 65 27 30 73 31 28 70 30 26 65 28 18 49 21 19 52 23 20 55 24 17 47 21 11 35 15 17 47 21 16 44 19 22 56 24 22 56 23 25 60 24 35 82 35 29 67 27 36 83 34 40 91 38 40 91 38 34 78 31 38 88 37 30 69 28 28 67 27 30 71 30 24 59 24 30 73 31 31 74 31 30 73 30 35 82 35 30 69 28 37 84 35 36 82 33 37 83 33 38 85 34 34 75 30 39 89 37 31 70 28 26 61 24 25 61 25 18 47 19 23 59 25 16 44 18 18 49 21 11 34 14 14 41 17 13 38 16 15 42 17 19 49 20 27 66 28 22 54 22 26 62 26 25 61 25 25 60 25 19 48 19 25 64 27 19 51 21 15 41 17 17 47 20 15 44 19 13 37 15 14 39 16 23 59 25 23 57 24 21 51 20 25 60 24 29 66 26 39 89 37 39 88 36 40 90 37 37 83 33 35 79 32 37 85 35 32 73 30 27 63 25
32 75 31 33 77 32 26 60 24 25 58 23 26 63 26 21 53 22 18 47 20 17 48 20 9 30 12 16 47 21 7 27 11 8 29 12 14 42 19 17 47 21 17 46 19 25 63 27 29 71 30 29 69 29 28 64 25 37 85 35 34 77 31 42 94 39 39 89 37 40 91 38 36 84 35 29 66 26 33 79 33 28 68 28 28 67 28 30 74 31 27 64 27 28 67 28 27 64 26 36 84 35 38 86 36 31 69 27 40 90 37 31 69 27 30 67 26 33 76 31 31 73 30 24 57 23 26 63 26 19 48 19 20 52 21 16 42 17 18 48 20 25 63 27 18 46 18 25 61 25 22 54 21 30 73 31 30 71 30 28 66 27 26 62 25 28 70 30 18 47 19 19 51 22 19 52 23 11 35 15 16 46 21 12 39 17 11 36 15 15 43 19 20 55 24 17 45 19 25 63 27 26 62 25 27 63 25 34 79 32 32 72 28 35 77 30 39 86 35 38 84 34 41 93 38 37 84 34 35 81 33 29 69 28 32 76 32 24 58 23 23 56 23 26 63 26 32 76 32 27 64 26 26 60 24 31 72 29 36 83 35 31 71 28 34 79 32 32 73 30 26 60 23 29 68 28 27 65 27 19 48 19 17 44 18 24 61 27 15 42 17 18 49 21 14 39 16 25 63 27 22 56 24 23 58 24 24 58 24 29 70 29 29 70 30 28 68 29 25 63 27 17 44 18 18 48 20 11 33 13 12 35 15 9 30 13 14 42 18 19 52 23 16 45 19 20 53 23 22 55 23 27 65 27 30 71 29 35 81 33 34 77 31 35 78 31 43 95 39 42 93 38 42 93 38 34 75 29 35 80 33 29 67 27
36 82 34 31 71 29 26 60 23 29 69 28 27 66 28 25 63 27 19 52 22 15 44 19 11 35 15 14 43 19 5 22 9 15 46 21 14 43 19 17 49 22 14 39 16 21 53 22 21 53 21 33 78 33 32 74 30 40 91 38 35 77 30 42 93 38 41 92 37 38 83 33 34 77 31 31 70 27 35 82 34 30 72 30 29 71 30 22 53 21 24 59 24 29 69 29 25 59 24 28 67 28 27 64 25 27 62 24 31 72 29 35 81 34 35 81 34 34 80 34 33 79 34 24 57 23 28 68 29 22 55 22 22 56 23 23 58 24 24 60 25 27 65 27 31 75 32 33 79 33 25 58 23 32 76 31 33 77 32 30 72 30 24 58 24 22 56 23 22 56 24 18 50 22 9 30 12 14 43 19 14 44 20 7 27 12 11 35 15 11 34 14 12 35 14 18 47 19 23 58 24 26 62 25 33 76 31 33 76 30 37 83 33 43 96 40 37 80 31 40 88 35 43 96 40 40 91 38 39 90 37 35 81 34 24 57 22 30 72 31 20 49 19 23 58 24 28 69 29 29 71 30 24 58 24 30 72 30 30 71 29 35 83 35 27 63 25 30 71 29 32 76 32 28 68 28 21 51 20 22 55 22 23 59 25 19 48 20 21 53 22 26 65 28 22 55 22 25 61 25 21 51 20 26 62 25 29 70 29 31 74 31 28 67 28 26 65 27 21 53 22 14 39 16 15 42 18 18 52 23 14 43 19 8 29 12 13 39 17 14 42 18 19 53 23 22 58 25 19 48 19 26 62 25 29 66 27 30 68 27 37 83 34 38 84 33 37 80 31 37 80 31 42 93 38 39 86 35 35 80 32 29 66 26
37 84 35 35 79 33 26 60 23 31 73 31 27 66 28 24 61 26 20 54 23 9 30 12 8 28 12 13 41 19 6 23 10 9 32 14 11 34 15 12 36 15 16 44 18 23 58 24 25 60 25 31 72 30 29 66 26 42 95 40 44 99 41 38 82 32 43 94 38 45 101 42 41 91 37 41 93 39 36 82 34 34 80 34 23 54 21 28 69 29 28 69 30 26 64 27 28 69 30 28 69 29 25 60 25 28 66 28 25 60 24 28 67 27 31 73 31 27 64 26 23 54 21 29 69 29 26 62 26 29 71 30 27 66 28 29 70 30 25 60 24 31 73 30 26 61 24 32 73 29 32 73 29 30 70 28 27 63 25 25 60 24 29 71 30 18 47 19 17 46 19 19 52 23 12 37 16 14 43 20 5 22 9 6 25 10 17 48 22 14 40 17 15 42 17 22 55 23 25 62 26 25 59 24 29 67 27 35 78 31 43 96 40 37 80 31 43 93 38 40 87 35 40 88 35 39 86 35 34 76 30 30 69 28 32 75 32 26 64 26 22 54 22 20 50 21 25 65 28 23 58 24 23 57 24 24 60 25 22 53 21 25 61 25 31 73 31 26 63 26 23 56 22 28 68 28 28 67 28 23 56 23 28 69 29 26 63 26 21 51 20 23 56 22 30 71 30 29 68 28 28 66 27 28 65 26 33 78 33 26 62 25 28 67 28 22 55 23 19 51 22 15 43 18 13 40 17 16 47 21 6 25 10 9 31 13 12 39 17 18 52 23 21 57 25 20 51 21 24 60 25 25 60 24 33 77 32 32 71 28 42 95 39 43 96 39 46 102 42 39 85 33 39 86 34 36 78 30 40 89 37 38 86 36
32 72 28 32 74 30 34 80 34 30 73 31 26 66 28 21 56 24 13 39 16 11 36 15 9 30 13 10 33 14 7 27 11 12 38 16 12 37 15 15 41 17 20 53 22 22 55 22 27 63 26 29 68 27 36 82 34 33 72 28 43 96 39 46 102 42 38 82 32 46 102 42 38 85 34 39 89 37 32 74 30 32 76 31 27 66 27 19 47 19 20 52 21 25 63 27 23 60 26 20 51 21 26 65 28 26 65 28 20 51 21 20 50 20 21 53 21 21 52 21 24 58 23 30 73 31 25 60 24 27 65 27 26 62 25 31 73 30 31 71 29 35 80 33 38 86 35 38 87 36 30 68 26 32 73 30 33 77 32 22 53 21 20 50 20 22 58 25 15 43 18 14 41 18 16 48 22 14 44 20 8 28 12 9 31 13 12 36 15 21 57 25 23 59 25 27 67 29 28 68 29 28 65 26 34 79 32 34 75 30 44 98 41 43 96 39 45 99 41 45 99 41 36 79 31 39 86 35 31 70 28 31 72 29 29 69 29 28 70 30 19 48 20 22 59 25 22 59 26 23 60 26 19 51 22 15 40 16 24 62 26 20 51 21 19 47 19 29 72 31 22 54 21 29 71 30 27 64 27 27 65 27 29 69 28 30 72 30 30 71 29 35 81 34 28 64 25 31 71 28 33 75 31 31 72 29 31 72 30 31 75 32 27 67 29 19 50 20 14 40 16 19 53 24 15 46 20 8 29 12 6 25 11 9 31 13 9 30 12 19 53 23 16 44 18 22 55 23 25 62 26 25 59 23 27 63 24 40 91 38 40 89 36 39 85 34 45 101 42 45 99 41 41 91 37 35 78 31 34 77 31 34 79 33
38 85 35 29 67 27 29 69 29 21 53 22 16 42 17 19 51 22 11 33 14 19 52 23 16 47 21 16 47 21 14 42 18 20 55 24 18 48 20 17 45 18 27 66 28 30 73 31 25 59 23 32 75 31 31 71 28 33 72 28 40 90 36 40 88 35 41 90 36 36 79 31 35 76 30 33 74 29 35 80 33 29 69 28 25 61 25 17 45 18 19 50 21 21 56 25 18 50 22 16 45 19 17 47 20 18 48 20 20 53 22 21 53 22 22 55 23 23 58 24 24 58 24 26 62 25 33 77 33 33 76 31 28 64 25 32 73 29 40 91 38 33 74 29 33 74 29 36 81 33 31 69 27 34 77 32 26 61 24 30 72 31 25 64 27 19 50 22 17 49 21 14 41 18 12 37 16 12 38 17 16 46 20 14 41 18 21 55 24 22 56 24 21 53 22 22 54 22 26 63 25 29 67 27 36 83 35 39 90 37 35 78 31 38 84 34 42 94 38 36 78 30 43 97 40 35 80 32 36 83 34 32 75 31 26 63 26 24 61 26 17 47 20 20 55 24 16 45 19 11 34 14 18 49 22 17 47 20 17 46 20 20 51 22 17 44 17 24 60 25 27 65 27 24 57 23 28 65 27 27 64 26 31 71 29 28 65 25 38 87 36 30 68 26 33 75 30 31 69 27 34 77 31 33 77 32 34 81 34 24 58 23 20 50 20 21 56 24 18 49 22 11 36 15 8 29 12 9 30 13 9 32 13 11 34 15 17 47 20 18 48 20 21 53 22 29 70 30 27 65 27 30 71 29 31 71 28 37 84 35 41 93 39 38 85 34 41 91 37 43 97 40 35 77 30 38 86 35 31 71 28 31 73 30
30 69 27 33 77 32 24 59 24 20 51 21 19 50 21 17 46 19 15 42 18 13 37 15 14 39 16 20 55 24 21 55 24 19 51 21 18 46 18 22 54 22 29 70 30 25 60 24 30 70 29 36 83 35 28 65 25 31 70 27 39 86 35 42 94 39 40 90 37 43 96 40 40 92 38 36 81 34 28 65 26 25 60 25 18 47 19 23 60 26 21 56 25 10 32 13 10 32 13 11 34 14 17 49 22 19 52 23 20 54 23 23 59 26 21 54 22 21 53 21 32 76 32 25 59 23 34 78 32 33 74 30 36 81 33 43 97 40 37 81 32 35 77 30 38 85 34 39 89 37 34 78 31 31 73 30 25 61 25 24 59 25 17 45 18 21 56 24 13 38 16 17 49 22 19 52 23 11 33 14 15 42 18 22 57 25 22 57 24 19 48 19 21 53 21 30 73 31 30 72 30 30 70 28 29 68 27 33 76 31 38 85 35 41 93 39 41 93 39 40 90 37 40 91 38 32 73 29 34 80 34 23 56 22 20 49 20 15 41 16 13 38 16 10 32 13 8 27 11 8 29 12 11 35 15 15 43 19 19 51 22 17 46 19 22 57 24 26 63 27 26 63 26 28 65 26 32 74 30 33 75 30 38 87 36 36 82 33 33 73 28 39 88 36 41 92 38 34 77 31 33 75 30 27 62 24 31 74 31 29 71 30 19 50 21 16 45 19 14 41 17 12 37 16 12 36 16 14 41 18 18 51 22 21 56 25 19 50 21 24 60 25 24 60 25 29 71 30 28 67 28 25 57 22 28 65 26 34 79 32 30 68 27 32 73 29 30 68 26 38 87 36 30 68 27 34 77 31 35 82 34 29 69 29
34 79 33 30 71 30 24 61 25 26 65 28 21 55 23 19 51 22 20 53 23 16 43 18 20 53 22 18 46 18 18 46 18 23 58 24 29 72 31 26 63 26 28 68 29 23 54 21 28 68 28 28 65 26 36 84 35 28 63 25 38 88 37 31 70 27 36 82 33 38 86 36 29 65 25 33 76 31 25 60 24 22 55 23 16 43 17 17 47 20 17 49 22 12 38 16 12 39 17 13 40 18 14 41 18 12 37 16 19 52 23 21 55 23 22 55 23 28 67 28 24 57 22 35 80 33 32 73 29 38 86 35 36 80 32 45 99 41 38 83 33 38 84 33 39 86 35 36 80 33 34 79 33 28 67 27 26 64 27 23 59 25 20 53 22 21 56 25 12 35 14 13 37 15 19 51 22 22 59 25 20 51 21 26 65 28 28 70 30 22 53 21 24 59 24 26 64 26 24 58 23 29 68 28 27 63 25 32 75 31 30 69 28 33 77 32 38 87 37 35 81 33 36 84 35 27 62 24 28 68 28 23 56 23 17 43 17 19 50 21 14 42 18 14 43 19 14 43 19 6 25 11 11 36 16 10 31 13 18 51 22 14 39 16 17 44 18 30 72 31 26 62 25 27 63 25 37 85 35 35 79 31 38 84 34 43 96 40 45 100 41 41 90 37 38 84 34 32 71 28 33 76 31 28 66 27 23 57 23 24 62 26 22 57 25 19 53 23 13 38 16 9 30 12 13 39 17 17 47 20 13 37 15 22 56 24 22 56 23 26 64 27 23 57 23 26 63 26 25 60 24 23 56 22 24 57 22 33 77 32 30 69 28 35 82 35 31 73 30 28 64 25 30 70 28 31 74 30 26 62 25 26 63 26
30 71 29 29 70 30 24 61 26 25 63 27 25 64 27 20 52 21 22 56 23 28 69 29 21 51 20 27 66 27 24 59 24 23 56 22 25 60 24 28 68 28 26 63 26 28 67 28 30 72 31 31 74 32 29 70 29 28 65 27 34 81 34 34 79 33 36 85 36 32 74 30 32 75 31 24 56 22 26 63 26 20 52 21 23 61 27 11 34 14 15 44 19 7 26 11 6 25 10 15 46 21 10 32 14 11 34 14 16 45 19 17 45 18 28 69 29 25 60 24 27 63 25 40 92 38 34 76 30 36 78 30 44 96 39 41 89 36 45 100 41 37 82 33 35 77 31 31 72 29 32 76 32 26 63 26 22 56 23 19 49 20 23 60 26 15 42 17 17 45 19 25 64 28 21 53 22 18 46 18 22 53 21 22 54 22 30 73 31 25 60 25 26 63 26 29 70 30 22 53 21 22 53 21 29 70 30 26 63 26 26 62 25 25 59 23 34 80 34 25 58 23 33 77 33 26 63 26 22 54 22 22 56 23 25 64 28 21 56 25 17 48 21 16 47 21 9 32 14 11 36 16 9 31 13 13 38 16 14 39 16 24 62 27 23 58 24 24 58 23 33 77 32 33 76 31 36 80 32 43 96 40 43 94 38 41 89 36 38 83 33 40 90 36 35 79 31 33 75 30 35 83 35 22 52 21 22 54 22 19 51 21 20 54 23 19 51 22 19 53 23 16 45 19 22 59 26 18 47 19 17 44 18 22 54 22 23 57 23 25 60 25 29 69 29 29 69 29 30 72 31 25 61 25 22 55 22 26 63 26 26 64 27 27 65 27 27 66 27 24 57 23 26 62 25 27 64 26 25 60 25 25 62 26
28 68 28 29 71 30 18 46 18 26 64 27 27 66 28 29 72 31 29 70 30 25 60 24 26 61 24 29 68 28 32 75 31 23 55 21 30 71 30 26 63 26 21 51 21 21 52 21 22 55 23 26 64 27 20 50 20 27 67 28 25 60 25 23 56 22 24 56 22 24 58 23 25 59 24 23 55 22 20 50 20 17 44 18 23 60 26 13 39 17 9 30 13 13 40 18 9 30 13 16 48 21 10 31 13 13 39 16 15 41 17 24 61 26 29 71 30 31 72 29 33 74 30 36 81 32 42 93 38 43 95 39 45 98 40 41 91 37 38 85 34 41 93 39 32 73 29 33 78 32 22 53 21 19 47 19 18 45 18 23 59 25 17 44 18 17 45 18 20 50 20 22 54 22 21 52 20 23 56 22 28 66 27 28 68 28 22 53 21 26 63 26 26 65 27 21 53 22 26 66 28 16 43 17 25 63 27 22 56 23 25 62 26 21 53 22 26 62 26 29 71 30 28 67 28 23 56 22 27 66 28 23 56 23 20 52 22 20 53 23 15 44 19 12 37 16 8 29 12 13 39 17 14 41 18 14 40 17 14 39 16 21 53 22 30 73 31 28 65 26 36 83 34 37 82 33 43 95 39 38 83 33 43 94 38 44 97 40 40 88 35 36 79 31 40 91 38 30 68 27 26 62 25 22 55 23 23 59 25 21 56 24 18 50 21 17 45 19 17 44 18 21 55 23 23 57 24 20 50 20 30 72 31 28 66 28 24 59 24 31 74 31 24 58 24 21 53 22 24 61 26 23 58 24 16 42 17 25 64 28 21 54 23 26 66 28 19 47 19 23 57 23 29 71 30 27 66 27 29 70 29 22 53 21
24 59 24 21 51 20 21 52 21 23 55 22 25 59 24 31 73 30 32 74 30 27 62 24 29 67 27 34 78 32 32 76 32 26 62 25 28 69 29 26 65 28 21 53 22 24 62 27 21 54 23 20 53 23 21 55 24 19 49 20 23 59 25 19 49 19 23 56 23 25 60 25 24 58 24 28 69 29 22 54 22 26 65 28 24 61 27 17 47 20 19 53 23 15 44 19 18 51 23 10 31 13 15 43 18 22 58 25 18 46 18 30 72 30 25 59 23 36 82 34 35 78 31 39 87 35 38 82 32 37 80 31 40 88 35 44 98 41 40 90 37 36 83 34 31 71 29 29 69 29 25 61 25 22 55 23 21 52 21 23 58 24 23 58 24 24 58 23 26 63 26 31 74 31 25 59 23 25 58 23 25 60 24 24 57 22 24 59 24 25 62 26 19 50 20 17 44 18 14 40 16 19 52 23 13 37 15 16 43 18 19 50 21 20 52 21 25 63 27 26 64 27 28 67 28 27 65 27 23 57 23 25 60 25 19 49 20 23 59 25 18 47 20 17 47 20 17 48 21 18 49 22 14 40 17 14 39 16 24 60 26 21 52 21 29 70 29 33 77 32 41 93 39 34 74 29 42 93 38 39 84 33 42 91 37 44 98 40 37 82 33 35 80 32 33 77 32 32 76 32 21 51 20 22 56 23 24 61 26 17 44 18 18 47 19 17 44 17 25 63 27 25 61 25 30 73 31 23 56 22 26 61 25 27 64 26 31 74 31 29 70 30 26 64 27 17 45 18 20 54 23 20 54 24 19 52 23 21 55 24 19 50 22 19 51 22 18 46 19 23 57 24 29 72 31 25 62 25 32 76 32 28 67 28
26 64 27 29 70 29 31 73 31 35 82 34 33 76 31 38 88 37 35 79 32 39 90 38 38 87 36 30 68 27 28 66 27 31 75 32 27 67 29 22 58 24 16 44 18 13 37 15 10 31 12 15 44 19 13 38 16 17 48 20 17 46 19 20 51 21 27 66 28 26 63 26 24 59 24 24 58 24 29 69 29 28 69 29 24 60 25 16 42 17 13 38 15 12 35 14 15 41 17 16 44 18 17 46 19 18 46 19 24 58 24 32 76 32 34 80 33 33 75 30 35 78 31 39 87 35 37 82 33 38 85 34 42 95 39 40 90 38 34 78 32 27 62 25 25 59 23 29 70 29 26 64 27 27 65 28 25 62 26 28 68 29 24 58 23 29 68 28 27 63 25 28 64 25 29 66 26 32 74 30 33 78 33 24 58 23 23 56 23 19 50 20 21 55 24 14 39 16 15 43 18 10 32 13 10 31 13 17 47 21 15 43 18 21 55 24 20 52 22 21 52 21 28 67 28 26 63 26 24 58 23 27 65 27 29 69 29 27 66 28 18 46 19 23 59 25 19 50 21 24 62 27 23 60 26 21 53 22 28 68 29 27 65 27 35 82 34 32 73 29 38 85 35 40 90 37 38 83 33 38 84 33 37 82 33 37 81 33 33 75 30 28 63 25 31 73 30 25 60 24 22 55 22 20 51 21 23 58 25 25 64 27 26 65 28 22 53 21 31 74 31 33 78 33 28 65 26 32 75 31 27 63 25 32 76 32 21 51 20 25 62 26 23 60 26 15 43 18 18 51 22 10 31 13 12 36 15 14 40 17 20 55 24 20 54 23 22 58 25 25 62 26 22 53 21 30 71 30 24 57 23 26 60 24
24 58 23 31 74 31 27 62 24 37 84 35 34 76 30 34 77 30 38 85 35 39 87 36 34 78 32 31 71 29 32 76 32 25 61 26 24 62 27 19 51 22 11 35 14 11 36 15 9 31 13 13 39 17 9 30 12 14 40 17 16 43 18 17 44 18 23 57 23 29 71 30 27 65 27 27 65 26 26 61 24 26 62 25 25 61 25 24 59 24 26 65 28 20 52 22 17 44 18 17 43 17 27 67 29 29 70 30 25 59 24 34 81 34 28 65 25 37 85 35 33 75 30 39 89 36 36 81 33 38 87 36 38 87 36 34 78 32 31 73 30 26 61 25 23 56 22 21 50 20 27 67 28 22 52 20 30 70 29 31 72 29 32 74 30 34 78 32 37 84 35 34 77 31 30 69 27 34 79 33 29 68 28 26 64 26 26 64 28 22 57 25 11 33 14 12 37 16 11 36 16 14 43 19 15 46 20 11 34 14 15 43 18 15 42 17 19 49 20 21 52 21 26 62 25 34 80 34 32 75 31 33 77 32 34 80 34 33 78 33 31 75 32 27 67 28 28 69 30 18 46 18 25 62 26 23 56 23 29 70 29 32 77 32 26 60 23 37 85 36 33 74 30 37 83 34 41 91 38 34 76 30 39 89 37 34 77 31 28 65 26 33 77 32 28 68 28 30 73 31 26 65 27 25 61 26 29 71 30 22 54 21 27 65 26 29 68 28 29 67 27 37 85 36 35 82 34 27 63 25 24 57 22 30 73 31 21 53 22 20 53 22 15 42 17 13 38 16 11 36 15 16 48 22 14 42 19 17 50 22 10 31 13 15 42 17 25 63 27 24 60 25 26 62 26 33 77 32 30 70 28 34 78 32
26 60 24 32 74 30 40 91 38 37 82 33 35 77 30 43 96 40 42 95 39 40 91 38 32 74 30 31 74 30 26 63 26 19 50 20 19 50 21 13 37 15 8 27 11 16 48 22 6 24 10 6 23 9 16 48 22 15 43 19 16 45 19 24 62 27 24 60 25 26 61 25 28 65 26 30 70 28 34 78 32 32 74 30 34 80 33 26 62 25 24 58 24 30 73 31 27 67 28 20 49 20 24 58 24 30 73 31 28 66 27 29 67 28 26 61 24 28 64 25 31 71 28 33 76 31 35 80 33 31 71 29 29 68 28 32 76 32 31 74 31 22 54 21 31 74 32 26 63 26 27 64 26 31 73 30 28 65 26 37 85 35 38 85 35 38 85 35 36 79 32 35 79 32 30 67 27 28 64 26 30 72 30 25 62 26 18 47 20 18 50 22 9 30 12 11 36 16 14 44 20 6 25 11 12 38 17 13 38 17 11 33 13 22 59 25 26 64 27 28 67 28 32 74 31 31 70 28 35 79 32 35 79 32 33 76 31 36 83 34 31 72 30 33 78 33 31 74 31 24 58 24 24 58 24 24 58 24 24 57 23 26 61 25 32 75 31 35 81 34 35 80 33 31 69 27 33 75 30 31 72 29 35 82 34 33 76 32 27 63 25 30 71 30 27 66 27 27 66 28 25 60 25 26 63 26 29 69 29 26 61 24 34 79 32 32 72 29 35 79 32 34 77 31 35 81 33 34 78 32 32 77 32 24 59 24 17 43 17 20 55 24 11 34 14 9 30 12 7 27 11 13 42 19 14 43 19 11 35 15 18 50 22 22 59 26 26 65 28 22 54 21 32 76 32 37 86 36 38 87 36 32 71 28
30 69 27 41 93 39 34 75 29 45 101 42 37 82 32 43 95 39 38 86 35 39 89 37 36 84 35 26 63 25 24 60 25 16 42 17 14 39 16 13 39 17 7 26 10 14 44 20 11 35 16 12 37 17 11 35 15 16 47 20 18 50 21 22 55 23 25 60 25 25 60 24 28 65 26 31 70 28 39 88 37 34 77 31 33 76 31 31 72 29 29 66 27 29 68 28 27 66 27 22 54 22 24 57 23 23 55 22 24 57 23 30 70 29 29 69 28 34 80 34 34 81 34 30 70 29 33 78 33 32 76 32 30 71 30 23 56 23 25 60 24 25 61 25 23 54 21 32 76 32 26 61 24 33 75 30 33 75 30 33 73 28 37 81 32 36 80 31 37 82 33 35 78 32 31 71 28 26 62 25 24 59 24 23 59 25 18 48 20 14 41 18 10 33 14 9 30 13 9 32 14 15 45 20 11 36 16 15 43 19 19 50 22 21 54 22 27 66 28 30 71 29 33 77 32 35 79 32 39 89 36 39 87 36 40 89 37 34 76 30 33 74 30 30 70 28 29 68 28 30 73 30 29 71 30 28 67 28 21 51 20 24 59 24 29 69 29 31 74 31 25 59 23 31 73 30 26 62 25 30 70 29 26 61 25 24 58 23 29 69 29 28 67 28 22 53 21 22 53 21 25 60 24 35 82 34 34 78 32 36 83 34 35 79 32 40 89 37 36 80 32 32 72 28 36 82 34 30 71 29 23 56 22 19 49 20 18 49 21 16 45 19 16 48 21 6 25 10 12 38 17 6 24 10 8 28 11 10 31 13 21 57 25 21 55 23 27 67 29 24 58 23 27 62 24 30 68 27 37 83 34 43 96 40
37 83 34 39 88 35 40 87 35 41 91 36 41 89 36 40 89 36 37 82 33 33 76 31 34 80 34 29 71 30 21 53 22 23 59 25 22 58 26 16 46 20 8 28 11 14 42 19 9 30 12 13 40 18 18 50 22 13 38 16 19 50 21 27 67 29 24 57 23 30 71 29 33 74 30 39 88 36 38 85 34 35 78 31 37 84 34 37 84 34 31 71 28 33 77 32 25 59 23 24 58 23 25 62 25 26 64 26 25 60 25 25 60 25 27 65 27 30 73 31 26 63 26 24 58 24 20 49 19 25 62 26 23 57 24 23 56 23 25 61 25 29 70 30 30 72 30 33 77 32 30 68 27 37 82 33 42 94 39 39 86 35 40 88 35 43 95 39 42 95 39 35 79 32 35 82 34 32 76 32 25 62 26 19 49 20 20 53 23 11 33 13 12 37 16 13 39 17 15 46 21 13 39 17 15 43 19 14 41 17 14 38 15 18 47 19 25 60 25 33 77 32 38 88 37 37 84 34 34 75 29 39 85 34 42 93 38 42 94 39 37 84 34 30 67 26 34 78 32 25 58 23 25 60 25 26 63 26 21 51 21 25 62 26 22 54 22 24 59 24 28 67 28 22 55 22 30 73 31 21 52 21 30 73 31 20 49 19 21 52 21 25 59 24 28 66 27 31 74 31 29 68 27 34 77 31 39 88 36 40 90 37 40 90 37 44 98 41 41 93 38 36 81 33 35 80 33 24 57 22 23 56 23 25 63 27 16 44 19 18 49 22 16 48 21 15 44 20 15 46 21 12 36 16 10 32 13 20 55 24 23 60 26 25 64 28 30 73 31 29 68 28 29 66 26 33 74 29 43 96 40 41 91 37
35 78 31 37 81 32 37 80 31 45 99 40 40 89 36 40 88 36 38 87 36 35 80 33 30 70 29 21 51 20 19 48 19 17 44 18 19 51 22 14 39 16 18 50 22 14 40 17 10 31 13 13 39 17 21 56 25 17 45 19 26 65 28 28 69 29 29 69 28 32 74 30 32 71 28 39 86 35 43 94 39 40 88 35 43 95 39 40 90 37 38 86 35 30 67 27 28 64 26 30 73 30 30 74 31 28 68 29 19 49 19 26 64 28 18 47 19 21 54 23 25 63 27 17 45 18 19 50 20 24 60 26 21 55 23 27 67 29 24 59 24 27 65 27 31 73 30 38 86 36 32 72 28 34 75 29 39 86 34 44 98 40 43 95 39 44 97 40 35 79 31 32 73 29 30 71 29 23 56 22 27 67 29 16 43 17 15 41 17 19 52 23 14 40 17 14 40 17 16 45 19 11 34 14 16 46 20 15 41 17 20 52 21 24 59 25 32 76 32 29 66 27 31 69 27 34 77 30 37 81 32 38 83 33 41 89 36 45 100 41 42 95 39 38 87 36 33 77 31 33 77 32 26 64 26 24 59 24 21 54 22 22 55 23 20 52 22 18 47 19 17 45 18 22 57 24 18 47 19 18 45 18 22 56 23 21 52 21 27 66 28 25 61 25 25 58 23 29 67 27 31 70 28 33 74 29 37 82 33 43 96 39 36 79 31 35 77 30 37 82 33 39 89 37 28 66 26 26 61 25 22 56 23 21 55 23 18 48 20 20 54 24 11 35 14 10 31 13 13 39 17 14 40 17 14 39 16 21 56 24 24 62 27 21 53 22 29 71 30 32 76 32 37 86 36 41 92 38 40 90 37 37 80 31
42 94 38 39 85 34 46 102 42 39 85 34 34 75 29 41 94 39 38 88 37 26 60 24 32 77 32 23 57 23 19 48 19 17 45 18 17 46 19 15 40 16 15 42 17 15 42 17 18 48 21 19 52 22 22 57 25 16 41 16 22 55 23 30 73 31 26 61 24 37 85 36 36 81 33 37 81 32 42 93 38 40 86 34 39 85 34 42 93 38 37 83 33 37 84 35 29 68 27 32 76 32 22 54 22 18 45 18 25 63 27 18 49 20 18 49 21 22 59 26 22 58 26 19 52 23 13 38 15 22 57 25 16 44 18 27 68 29 25 61 25 33 79 33 35 82 34 37 83 34 35 78 31 44 97 40 45 99 41 38 82 32 37 80 31 37 81 32 33 74 29 36 83 35 28 67 27 23 57 23 20 51 21 23 59 25 16 42 17 16 44 18 22 59 26 15 40 16 21 55 24 22 59 25 22 57 24 17 44 18 21 53 22 26 64 27 25 60 24 34 79 33 33 75 30 39 89 36 39 87 35 37 80 31 44 98 40 45 99 41 42 94 39 32 71 28 34 78 32 28 66 26 24 57 23 20 51 21 19 50 21 19 50 21 21 56 24 18 49 21 17 48 20 21 56 25 14 39 16 14 39 15 21 55 23 23 57 24 28 68 29 25 60 24 30 70 29 35 80 33 39 89 37 39 85 34 38 82 32 41 90 36 43 96 39 35 77 30 35 78 31 37 86 36 25 59 23 30 72 30 27 67 28 22 56 24 14 38 15 19 51 22 16 43 18 22 59 26 19 52 22 16 43 18 19 49 21 26 65 28 25 63 27 29 71 30 29 70 29 33 77 32 33 77 32 39 88 36 34 75 30 39 86 34
35 78 30 37 82 32 44 98 40 35 78 31 37 82 33 37 84 35 30 70 29 31 73 30 28 67 28 28 68 29 20 49 19 19 48 19 27 68 29 19 48 20 22 57 24 19 50 20 18 48 19 21 54 23 22 56 24 26 66 29 19 48 19 26 64 27 30 71 29 34 79 33 39 89 37 41 93 38 45 99 41 40 86 34 44 98 40 42 92 37 41 92 38 38 87 36 33 75 31 32 75 31 25 61 25 23 59 25 16 42 17 16 45 19 16 46 20 14 41 18 16 47 20 16 47 21 10 31 12 13 37 15 22 58 25 17 45 18 20 50 20 31 74 31 30 70 28 35 78 31 40 89 36 39 84 34 46 102 42 40 88 35 42 95 39 40 90 37 37 84 35 35 82 34 26 63 25 26 63 26 20 49 19 26 66 28 24 60 25 20 51 21 22 56 23 22 56 23 20 50 21 17 44 17 26 65 28 23 58 24 21 51 21 24 58 24 24 58 23 33 77 32 35 80 33 39 89 37 40 89 36 43 96 39 37 81 32 44 97 40 40 89 36 39 89 36 29 67 26 26 61 24 25 60 25 18 45 18 22 57 25 14 40 16 16 47 20 14 41 18 9 30 12 15 45 20 15 43 19 11 34 13 22 59 25 22 56 24 24 59 25 29 69 28 34 79 33 33 76 30 40 89 36 42 92 38 45 99 40 44 97 40 37 80 31 40 88 36 39 87 36 29 66 26 25 58 23 23 56 23 26 64 27 20 52 21 22 57 24 23 60 26 21 54 22 20 51 21 23 57 24 17 44 17 23 58 24 26 64 27 29 70 30 27 66 28 29 71 30 26 62 25 34 80 34 34 79 33 32 73 29 40 91 38
33 73 29 34 76 30 38 85 35 39 89 37 34 78 32 32 74 30 27 64 26 30 72 30 25 60 25 21 52 21 22 53 21 25 60 24 24 57 23 28 67 28 24 58 23 24 59 24 26 63 26 24 58 24 22 53 22 26 64 27 28 70 30 27 65 27 31 74 31 34 79 33 36 82 34 33 73 29 42 95 39 42 92 37 44 98 40 43 95 39 35 77 30 35 79 32 35 81 33 27 64 26 24 60 25 23 60 25 14 39 16 19 53 23 17 49 22 9 31 13 7 26 11 14 42 18 12 36 16 10 31 12 15 42 17 20 51 21 27 66 28 28 65 26 37 86 36 39 89 37 38 85 34 42 93 38 39 87 35 42 93 38 32 72 28 36 81 33 29 66 26 32 75 31 28 66 27 26 64 26 30 72 31 21 52 21 24 58 24 22 53 21 31 75 32 29 71 30 31 74 32 30 72 30 22 54 22 25 62 26 28 69 29 30 73 31 22 53 21 29 68 28 33 77 32 35 80 33 37 85 35 41 94 39 40 90 37 44 98 40 37 83 33 38 85 35 30 68 27 33 77 32 25 62 25 19 47 19 17 45 19 14 40 17 15 43 19 10 33 14 11 35 15 8 29 12 14 42 19 16 47 20 22 58 26 19 50 21 21 52 21 27 65 27 35 82 34 34 77 31 36 79 32 42 94 38 41 90 36 37 81 32 43 95 39 39 87 36 35 80 33 28 66 26 27 63 25 25 61 25 20 50 20 27 67 28 28 69 29 19 48 19 26 64 27 27 65 27 25 61 25 25 60 24 30 72 30 22 52 21 28 68 29 26 63 26 26 62 26 28 68 28 29 68 28 26 61 24 29 66 26 35 81 33
35 80 33 34 78 32 31 71 28 35 82 34 27 63 25 28 68 28 22 54 21 23 56 23 26 63 26 22 54 21 24 58 23 29 69 29 31 74 31 27 62 25 27 63 25 26 60 23 31 74 31 31 74 31 23 55 21 26 63 26 22 53 21 30 72 30 30 73 31 24 56 22 29 67 27 30 68 27 31 69 27 41 92 38 39 86 35 36 78 31 37 83 33 36 82 33 36 82 34 29 67 27 23 56 23 19 48 19 22 58 25 15 43 18 15 45 20 9 30 13 10 34 15 8 29 12 14 42 19 14 42 18 19 52 23 23 59 25 22 54 22 24 56 22 32 73 30 33 75 30 37 83 34 33 74 29 33 72 28 36 81 33 30 67 26 30 70 28 32 75 32 24 57 23 26 63 26 25 60 24 29 69 29 22 53 21 32 75 32 30 71 29 30 71 29 32 75 31 29 67 27 26 60 24 26 62 25 31 74 31 28 68 28 25 60 24 22 53 21 28 66 28 32 77 32 32 74 31 28 65 26 37 85 35 37 84 34 34 77 31 41 92 38 39 90 37 31 70 28 32 76 31 30 72 30 19 47 19 21 56 24 15 43 18 12 37 16 14 43 19 5 23 9 9 32 14 10 33 14 15 44 19 14 40 17 21 56 24 18 47 18 29 70 29 35 81 34 33 75 30 32 72 28 42 94 38 37 83 33 40 89 36 40 91 37 37 85 35 32 74 30 27 64 26 27 63 26 22 53 21 22 54 22 26 62 26 32 76 32 27 65 27 33 79 33 33 78 33 31 72 29 33 78 33 27 62 25 28 66 27 23 55 22 29 70 29 24 58 23 25 61 25 21 50 20 25 59 24 28 68 28 31 74 30
29 68 27 26 60 24 31 73 30 22 54 21 29 71 30 23 57 23 23 58 24 21 53 22 23 58 24 30 73 31 27 65 27 30 70 28 33 76 31 32 73 29 33 75 30 30 68 27 32 72 29 34 79 33 34 80 34 32 76 32 30 73 31 27 64 27 25 62 25 26 63 26 32 76 32 25 58 23 35 82 34 36 83 34 32 73 29 40 90 37 38 86 35 30 68 26 34 78 32 33 77 32 27 65 27 24 59 25 23 61 26 14 40 17 17 48 21 7 27 11 11 35 16 13 40 18 9 30 13 10 31 13 12 34 14 15 40 16 25 63 27 24 57 23 28 65 26 30 70 28 33 75 30 34 78 32 34 78 32 35 80 33 29 69 28 25 60 24 29 71 30 28 69 29 29 71 30 23 57 23 28 67 28 24 57 23 34 79 33 30 68 27 34 77 31 30 67 26 33 74 29 32 74 30 31 70 28 28 65 26 24 57 22 31 73 31 26 63 26 23 55 22 27 65 27 26 62 26 32 76 32 32 76 32 35 80 33 33 76 31 30 68 27 31 71 28 37 86 36 35 82 35 28 67 28 19 48 19 15 41 16 12 34 14 16 47 21 16 48 21 6 24 10 7 27 11 15 46 21 15 44 19 20 55 24 19 51 22 24 59 25 25 60 24 27 63 25 36 84 35 31 69 27 36 82 33 32 71 28 40 91 38 36 81 34 29 66 26 32 75 31 30 72 30 29 70 29 27 66 28 23 56 22 31 74 31 32 74 31 29 67 27 35 82 34 34 77 32 33 75 30 33 74 30 32 72 29 28 65 26 27 62 25 28 67 27 24 59 24 21 51 20 21 53 22 27 68 29 25 61 25 30 73 31
32 77 32 26 64 26 28 69 29 18 47 19 19 49 20 17 46 19 16 42 17 17 46 18 23 58 24 27 66 28 25 60 24 34 80 33 32 73 29 40 92 38 40 90 37 41 91 38 35 79 31 35 77 31 36 82 34 31 72 29 25 59 23 28 67 28 22 53 21 23 55 22 27 67 28 23 55 22 26 63 26 28 66 27 33 75 31 34 79 32 37 84 35 31 70 28 29 66 26 26 59 23 24 58 23 22 54 22 20 50 21 16 44 18 15 43 19 12 37 16 14 42 18 10 34 15 8 29 12 13 39 16 19 52 23 16 42 17 22 55 23 25 62 25 32 76 32 26 61 24 26 61 24 30 70 29 29 69 28 29 70 29 30 73 31 25 61 26 25 62 26 22 56 23 26 64 27 28 69 30 23 56 22 30 71 29 32 73 30 33 74 30 38 85 34 40 90 37 42 94 39 35 78 31 40 91 38 39 89 37 33 76 31 32 77 32 28 68 28 23 56 23 25 63 27 24 60 25 28 69 30 22 54 22 28 68 28 28 66 27 27 63 25 30 69 28 35 80 34 31 73 30 25 58 23 22 53 21 22 57 24 22 58 25 18 49 21 10 31 13 11 35 15 11 35 15 15 45 20 15 44 19 12 36 15 17 45 19 24 60 25 24 59 24 32 76 32 28 66 27 31 71 29 37 86 36 31 72 29 31 71 29 34 81 34 32 75 32 27 66 27 25 62 26 27 66 28 24 58 24 23 56 22 30 72 30 35 82 35 31 70 28 34 76 30 34 75 29 39 87 36 41 93 39 35 79 31 36 81 33 37 86 36 35 81 34 31 73 31 27 66 28 20 52 21 21 55 23 25 64 27 26 66 29
29 71 30 19 49 20 20 52 22 15 40 16 20 54 24 15 43 18 12 35 14 19 50 21 21 55 24 25 63 26 26 64 26 33 76 32 36 83 34 35 79 32 40 89 36 41 90 37 44 98 41 37 81 32 40 91 37 32 73 29 34 77 32 32 75 31 23 55 22 27 66 28 25 63 26 23 59 24 23 57 23 21 52 20 30 72 30 26 61 25 27 64 25 30 68 28 30 70 29 32 75 31 26 62 25 27 65 27 21 54 22 23 59 25 15 42 17 20 55 24 10 33 13 18 52 23 19 52 23 15 43 18 23 60 26 23 59 25 24 59 25 27 65 27 30 72 30 31 74 31 29 69 29 22 53 21 29 72 31 19 49 20 17 45 18 20 52 22 22 57 25 16 44 18 23 60 26 18 46 18 23 55 22 29 68 28 36 84 35 31 69 27 35 77 30 38 84 34 38 83 33 37 82 32 39 88 35 35 79 32 30 67 26 35 80 34 30 72 30 22 55 22 23 57 24 19 48 20 20 52 22 21 55 23 19 48 19 21 51 20 27 64 26 26 61 24 24 57 22 30 72 30 24 58 23 28 69 29 19 48 19 23 59 25 24 62 27 15 42 18 15 44 19 15 44 19 19 53 24 17 49 21 21 57 25 15 41 16 22 56 23 29 72 31 22 54 22 31 73 31 31 72 30 32 76 32 24 56 22 24 57 23 25 62 26 24 59 25 22 56 24 17 45 18 20 50 21 23 57 24 24 58 24 29 69 29 35 83 35 38 86 36 33 72 28 44 98 40 35 77 30 41 91 37 44 97 40 43 96 40 35 80 32 31 71 29 31 73 30 30 73 31 26 65 27 20 53 22 14 38 15 21 54 23
18 46 18 16 44 18 21 57 25 13 39 16 16 46 20 14 41 18 18 51 23 19 53 24 17 46 19 23 58 24 27 66 28 25 60 24 29 67 27 35 80 32 34 75 29 36 78 30 44 97 40 38 82 32 39 86 35 39 87 35 32 71 28 30 70 28 31 74 31 28 69 29 28 68 29 23 59 25 19 50 21 26 67 29 28 69 30 26 64 27 27 65 27 23 56 22 30 72 30 26 62 25 26 63 25 26 62 25 25 60 25 18 46 18 18 47 19 18 47 20 14 39 16 16 45 19 21 56 24 18 48 20 21 55 23 25 63 27 24 59 24 23 55 22 28 68 28 23 56 23 25 61 25 22 54 22 16 43 17 14 39 16 16 44 19 13 37 16 12 36 15 18 51 22 19 50 21 25 63 27 19 48 19 29 70 29 35 82 34 32 72 29 39 86 35 44 98 41 43 96 39 38 82 32 39 85 34 38 83 33 40 90 37 36 82 34 30 70 29 30 72 30 26 66 28 22 57 24 18 49 20 16 43 18 15 42 17 24 61 26 24 61 26 21 52 21 25 61 25 31 76 32 32 76 32 30 72 30 28 69 29 21 53 22 23 58 24 19 50 21 23 59 26 20 53 23 15 41 17 19 51 22 22 59 25 21 55 23 19 48 19 21 52 21 30 73 31 30 72 30 27 66 27 23 56 22 28 69 30 23 58 24 16 43 17 17 46 19 21 55 24 18 48 21 22 57 25 22 57 24 27 68 29 22 52 20 30 71 29 38 87 36 33 72 28 41 92 38 42 92 37 43 94 38 43 96 39 36 79 31 37 83 33 32 72 28 29 67 27 31 73 31 27 66 28 23 60 26 23 60 26 16 45 19
27 67 29 19 51 22 11 34 14 18 51 23 14 43 19 13 42 19 9 31 13 10 32 14 19 52 23 14 38 15 19 48 19 23 55 22 33 79 33 39 88 37 41 93 38 36 80 32 43 94 38 44 96 39 45 99 40 40 87 35 33 74 29 32 71 28 36 83 35 32 77 32 22 55 22 18 46 19 25 64 28 18 47 19 23 59 25 23 59 25 21 54 22 23 57 24 26 64 27 24 58 24 22 54 21 30 73 31 25 61 25 21 52 21 25 61 26 22 54 22 17 45 18 18 47 19 19 49 20 24 59 25 21 53 21 22 55 22 24 59 24 29 71 30 29 69 29 23 57 23 27 68 29 18 47 19 18 48 20 19 53 23 15 43 19 9 30 12 14 42 19 14 41 18 18 50 22 18 50 21 17 45 18 27 65 27 34 81 34 37 85 36 40 91 38 37 82 33 44 99 41 43 95 39 45 99 40 39 85 34 36 78 31 35 78 32 34 78 32 30 70 29 29 70 30 22 56 24 21 55 23 20 54 24 13 37 15 19 53 23 15 42 17 19 49 21 25 62 26 25 62 26 21 51 20 22 53 21 28 68 28 27 65 27 24 59 24 28 68 29 27 66 28 24 60 25 21 54 23 19 48 19 25 64 27 21 52 21 28 69 30 28 69 29 26 64 26 26 64 26 24 60 25 28 69 30 18 46 19 20 53 22 16 45 19 15 43 19 16 46 20 19 52 23 11 34 14 21 57 25 22 56 24 27 66 28 32 76 32 35 81 34 37 84 34 35 76 30 38 84 33 46 102 42 44 97 40 45 100 41 40 90 36 38 86 35 37 86 36 27 64 25 29 70 29 18 46 18 20 54 23 13 37 15
28 69 30 23 59 25 13 38 16 16 47 21 7 27 11 10 34 15 8 29 12 10 33 14 15 43 19 16 45 19 24 62 27 25 62 26 23 56 22 29 66 27 37 84 35 38 85 35 41 91 37 43 95 39 37 80 31 46 102 42 44 98 41 41 92 38 31 70 28 26 60 23 28 66 27 21 52 21 21 55 23 14 40 16 18 50 22 17 48 20 21 56 24 19 50 21 21 54 23 24 59 25 24 60 25 21 51 20 29 71 30 21 51 20 22 54 21 31 74 32 25 61 25 28 67 28 23 55 22 26 62 25 27 64 26 33 78 33 25 60 24 30 72 30 24 58 23 28 67 28 29 70 30 17 45 18 21 56 24 17 47 20 9 29 12 11 37 16 11 36 16 12 37 16 9 31 13 19 52 23 16 43 18 22 56 23 23 55 22 31 71 29 35 81 33 38 87 36 43 96 40 38 84 33 40 88 35 42 92 37 42 94 39 39 87 35 30 68 27 31 73 30 32 76 32 22 54 22 19 51 21 14 40 16 11 34 14 17 48 21 14 42 18 20 55 24 20 54 23 24 62 27 25 63 27 28 68 29 27 67 28 25 60 24 28 68 29 22 52 21 30 73 31 22 53 21 22 54 21 26 62 25 27 64 26 26 63 26 25 59 24 26 62 25 30 72 30 23 56 22 26 62 26 20 51 21 20 52 21 20 53 23 10 31 12 16 48 21 11 36 16 10 33 14 13 39 17 14 42 18 22 59 26 21 54 22 30 74 31 28 66 27 37 86 36 32 71 28 42 95 39 37 80 32 38 83 33 44 98 40 36 78 31 40 90 37 35 80 32 34 79 33 32 77 32 25 62 26 24 61 26 17 46 20
20 49 19 20 52 22 21 56 24 15 44 19 10 34 14 8 29 12 8 28 12 11 34 15 14 42 18 15 43 18 20 52 22 18 46 18 30 73 31 25 60 24 29 66 27 35 79 32 35 78 31 33 73 29 41 91 37 38 83 33 43 96 39 41 91 37 41 93 39 29 67 27 29 69 28 23 56 23 21 54 22 17 45 19 20 55 24 16 44 19 19 52 23 12 35 14 21 56 25 14 39 15 21 54 23 25 62 26 22 55 22 24 59 24 26 63 26 26 61 25 26 61 24 34 79 33 34 81 34 32 74 30 30 68 27 35 81 33 38 87 37 31 71 28 30 69 28 32 75 31 29 71 30 26 65 28 14 38 15 14 40 17 12 37 16 8 28 12 13 42 19 15 45 20 11 35 15 18 51 23 17 46 19 24 62 27 29 71 31 24 56 22 27 62 25 31 72 29 32 73 29 42 95 39 42 95 39 40 89 36 36 79 31 41 91 38 33 73 29 33 76 31 29 69 28 23 55 22 25 62 26 19 51 21 16 46 20 14 41 18 15 43 19 8 28 11 16 47 20 15 42 18 19 52 22 16 42 17 24 61 26 30 73 31 31 76 32 24 58 23 28 67 27 27 65 26 31 72 30 34 80 33 29 68 27 32 74 30 35 82 34 29 67 27 29 67 27 27 65 26 31 74 31 24 61 25 20 51 21 12 35 14 17 48 21 16 48 22 10 33 14 13 40 18 16 48 22 13 40 17 19 52 23 24 63 27 27 68 29 25 61 25 32 75 31 37 86 36 31 70 27 33 73 29 41 91 38 38 85 34 41 92 38 39 87 36 36 80 32 35 79 32 30 70 29 25 59 24 22 54 22 19 49 21
32 77 32 20 50 20 24 61 26 12 36 14 19 54 24 14 41 18 17 49 22 14 41 18 12 36 15 13 36 15 16 42 17 26 67 29 22 54 22 29 71 30 33 79 33 30 70 28 31 72 29 36 83 34 34 76 30 40 90 37 40 89 36 38 85 34 37 82 33 38 87 36 28 64 25 25 58 23 19 48 19 16 42 17 19 52 23 12 35 15 9 29 12 14 41 18 16 45 20 12 36 15 20 54 23 20 54 23 22 56 24 25 62 26 28 67 28 31 74 31 33 78 32 28 64 25 31 71 28 38 87 36 32 72 28 42 95 39 32 72 28 35 79 32 35 80 33 28 63 25 32 76 32 27 67 28 19 49 20 22 59 26 15 45 19 8 28 11 7 25 10 15 45 20 14 41 18 15 43 19 13 38 15 17 45 18 20 50 20 30 74 31 29 70 29 25 58 23 31 71 29 37 85 36 37 84 34 39 88 36 39 88 36 36 80 32 35 78 31 38 87 36 31 71 28 31 73 31 28 69 29 23 58 24 14 40 16 18 50 22 11 34 15 14 43 19 7 25 10 10 31 13 14 40 17 19 51 22 23 59 25 20 50 20 20 50 20 27 65 27 33 79 33 35 82 34 31 72 29 38 87 36 31 70 28 36 82 33 40 91 38 37 84 34 35 80 33 32 74 30 31 72 30 27 65 27 20 50 20 18 48 20 15 44 19 8 29 12 13 40 18 7 26 11 7 26 11 11 35 15 11 33 13 14 39 15 19 49 20 28 68 29 32 77 33 28 66 27 28 64 25 38 87 36 38 88 37 30 69 27 33 73 29 36 81 33 36 82 33 36 82 34 32 73 30 31 73 30 23 56 22 21 53 22
28 65 26 30 73 31 19 48 19 20 52 22 16 44 18 22 58 25 21 57 25 17 46 19 21 54 23 21 54 23 19 50 20 27 68 29 20 50 20 26 64 26 24 58 23 25 60 24 28 66 27 33 77 32 37 85 36 31 69 27 36 82 33 32 72 28 40 91 38 37 85 35 30 67 27 33 78 33 27 66 27 18 47 19 22 57 25 19 52 23 15 45 20 11 35 15 9 32 14 11 35 15 13 39 17 18 49 21 23 60 26 24 62 27 27 67 29 23 55 22 25 59 23 32 74 30 40 91 38 41 92 38 40 89 36 43 95 39 40 88 35 44 97 40 34 76 30 32 72 28 36 84 35 24 58 23 19 49 19 21 53 23 15 42 17 12 36 15 11 35 14 15 44 19 18 50 22 17 47 20 20 54 23 21 53 22 21 53 22 23 57 23 25 60 25 28 67 28 32 76 32 29 69 28 36 84 35 34 79 33 33 76 31 31 70 28 36 82 34 35 81 33 37 87 36 30 70 29 29 69 29 19 48 19 24 62 27 20 54 23 14 41 18 12 39 17 14 44 20 14 44 20 14 44 19 12 37 16 12 35 14 18 47 19 21 52 21 26 63 26 32 75 31 28 63 25 33 76 31 39 89 37 35 79 31 38 86 35 37 81 32 35 78 31 39 87 36 32 72 29 28 65 26 27 64 26 26 64 27 23 60 26 15 41 17 12 37 15 11 34 14 15 45 20 9 29 12 14 41 17 21 56 25 16 44 18 19 49 20 21 53 21 30 73 31 27 65 27 32 75 32 26 62 25 34 79 33 29 68 27 36 83 35 31 70 28 28 64 25 32 73 30 34 79 33 32 76 32 32 77 32 27 66 28
32 75 31 24 57 22 21 52 20 25 64 27 24 62 26 17 46 19 17 45 18 17 44 17 27 68 29 21 53 22 25 62 26 23 57 23 30 73 31 30 72 30 25 61 25 29 70 30 24 58 23 26 62 25 30 71 29 26 60 23 29 67 27 36 82 34 32 72 29 39 89 37 34 78 32 35 82 34 33 79 33 27 66 27 25 63 27 21 55 24 10 32 13 13 41 18 8 29 13 9 32 14 8 28 12 16 46 20 15 44 19 19 51 22 25 63 27 29 72 31 31 75 31 35 82 34 38 87 36 36 81 32 44 97 40 44 97 40 47 103 43 42 91 37 42 93 38 36 80 32 32 72 29 31 73 30 27 65 27 25 63 27 21 55 23 21 56 24 17 47 20 20 52 22 17 46 19 25 64 28 22 55 23 29 70 30 24 60 25 26 64 26 21 52 21 24 59 24 27 66 28 26 62 25 30 72 30 32 76 32 32 76 32 34 81 34 27 63 25 27 63 25 32 74 31 34 80 34 33 79 33 28 67 28 27 66 28 19 51 21 15 42 18 11 33 14 15 46 21 6 25 11 14 43 19 15 44 20 14 42 18 16 45 19 16 44 18 29 71 30 31 75 32 35 83 35 30 68 27 40 90 37 35 77 30 38 83 33 43 96 39 42 92 37 35 76 30 41 92 38 33 75 30 30 70 28 27 64 26 24 59 25 23 60 26 17 46 19 19 53 23 13 37 15 19 51 22 16 45 19 23 59 26 23 59 25 27 66 28 29 71 31 30 72 31 31 75 32 27 66 27 22 54 22 23 55 22 22 54 21 26 62 25 31 75 32 29 69 28 34 80 34 32 76 32 27 64 26 26 61 25 30 72 30
32 75 30 31 73 30 23 56 22 23 57 23 20 50 20 20 51 20 24 59 24 24 58 24 29 71 30 30 72 30 24 58 23 29 70 29 26 62 25 27 63 26 26 63 26 25 62 25 27 65 27 24 59 24 26 64 26 22 54 21 22 53 21 27 64 26 35 82 34 28 64 25 34 78 32 26 61 24 28 67 27 29 69 29 27 66 28 19 50 21 20 53 23 15 43 19 7 25 10 10 33 14 11 36 16 13 41 18 11 35 15 19 53 23 22 59 25 22 55 23 28 67 28 30 71 29 29 67 26 33 74 29 41 92 38 46 101 42 45 99 41 41 90 36 35 77 30 34 77 30 36 82 34 32 75 31 24 58 23 21 52 21 27 68 29 19 49 20 22 55 23 24 61 26 26 64 27 23 56 23 31 74 31 27 65 27 29 70 29 25 59 24 28 67 28 23 56 22 22 54 22 23 56 23 21 52 21 27 67 29 23 57 23 28 68 29 27 66 27 31 74 31 26 61 24 26 62 25 31 73 30 29 70 29 24 59 24 19 49 20 19 50 21 20 54 24 15 44 19 14 42 19 13 42 19 9 31 13 9 30 13 19 53 23 20 54 24 25 64 27 29 71 30 29 69 28 29 66 26 39 88 36 38 83 33 44 98 40 40 88 35 46 101 42 41 90 36 35 78 31 37 85 35 35 80 33 25 58 23 23 55 22 19 48 19 24 61 26 16 44 18 23 61 26 18 47 19 21 54 22 22 54 22 20 49 19 23 57 23 25 61 25 31 75 32 24 59 24 24 60 24 23 56 23 26 65 27 19 48 19 24 59 25 28 70 30 25 61 25 26 65 27 27 66 28 22 53 21 23 55 22 25 61 25
31 73 30 27 64 26 22 54 21 31 74 32 21 51 20 32 76 32 31 74 31 34 79 33 28 65 26 28 65 26 31 72 29 37 85 36 36 84 35 35 81 34 31 74 31 30 72 30 24 59 24 22 55 23 19 49 20 22 57 24 27 67 29 24 58 24 28 69 29 24 58 23 24 57 22 34 80 34 33 79 33 27 65 26 30 73 31 24 60 25 19 49 20 13 36 15 11 33 14 15 46 21 11 35 15 11 36 16 14 42 19 10 33 14 15 43 18 25 64 28 19 49 19 29 70 29 34 78 32 32 72 29 41 92 38 44 98 41 43 96 40 39 86 35 34 74 29 39 88 36 36 82 34 32 75 31 28 68 28 28 69 29 25 61 25 20 50 20 28 68 29 29 70 29 25 59 24 31 73 30 34 79 33 29 67 27 36 83 35 27 63 25 28 65 26 26 62 25 23 57 23 23 57 24 24 61 26 24 62 26 21 55 23 22 55 23 21 52 21 23 57 23 24 59 24 23 55 22 29 69 29 29 69 29 26 63 26 25 61 25 21 54 23 22 57 25 18 50 21 10 32 13 8 28 12 10 33 14 15 45 20 10 31 13 14 39 16 15 40 16 23 57 24 25 59 24 28 66 26 36 82 34 41 92 38 35 76 30 40 88 35 40 87 34 41 91 37 38 85 34 38 86 35 30 68 27 32 75 31 23 55 22 26 63 26 21 52 21 26 65 28 22 54 22 27 67 28 31 74 32 24 58 23 27 65 26 32 74 31 25 59 23 33 79 33 23 56 22 29 70 29 24 60 25 20 50 21 24 61 26 16 44 18 15 41 16 17 45 18 19 50 21 25 62 26 19 48 19 21 52 21 26 62 25
30 72 30 23 55 22 23 57 23 25 62 25 29 71 30 24 56 22 35 81 34 29 67 27 35 79 32 40 91 38 36 81 32 41 94 39 39 89 37 29 66 26 30 69 28 32 76 32 24 58 24 23 58 24 22 57 24 19 50 21 20 52 22 21 54 23 18 47 19 25 63 27 28 68 29 22 53 21 24 57 23 28 68 28 23 55 22 20 49 19 25 62 26 14 39 15 19 52 23 15 42 18 14 42 19 10 33 14 16 46 21 16 47 21 12 36 15 21 54 23 26 64 27 30 73 31 30 71 29 37 85 35 34 78 31 36 80 32 35 79 31 42 95 39 34 76 31 31 70 28 34 80 33 29 67 27 28 67 28 28 69 29 26 63 26 28 66 27 29 68 28 26 61 24 36 85 36 32 73 29 39 88 37 36 83 34 38 86 36 30 69 27 29 68 27 27 63 25 22 53 21 20 49 20 19 48 20 20 54 23 15 42 17 13 37 15 23 60 26 15 40 16 24 62 26 24 61 25 29 71 30 28 68 29 26 63 26 26 64 27 27 66 28 20 51 21 23 59 26 14 39 16 19 54 24 15 45 20 17 48 21 10 31 12 20 55 24 20 54 23 17 44 17 26 63 26 34 80 34 36 82 34 34 78 31 35 78 31 42 94 39 35 76 30 40 89 36 38 85 35 38 86 35 28 64 25 30 71 29 28 67 28 22 53 21 29 70 30 24 59 24 29 69 29 25 58 23 33 76 32 31 72 29 29 65 25 38 87 36 32 72 29 36 84 35 27 63 25 26 62 25 29 71 30 24 62 26 15 42 17 13 37 15 19 51 22 11 33 13 17 48 20 14 39 16 25 64 28 22 55 23 24 59 24
25 61 25 28 69 29 23 57 23 27 66 28 29 70 29 26 62 25 28 65 26 39 90 37 33 73 29 35 78 31 37 83 33 43 97 40 41 91 37 34 77 31 37 84 35 30 71 29 26 63 26 23 58 24 16 43 17 20 52 22 20 53 23 18 49 21 21 56 25 20 54 23 26 65 28 20 50 20 29 71 30 26 64 26 22 53 21 26 62 26 28 68 29 20 51 21 18 48 20 21 57 25 16 44 19 14 41 17 19 53 24 12 36 15 18 48 21 19 49 21 20 52 21 21 51 20 25 60 24 28 66 26 32 73 29 32 72 29 39 88 37 38 88 37 34 79 32 35 81 34 30 71 29 25 60 24 26 63 26 28 68 29 25 61 25 24 57 23 30 70 28 29 67 27 38 86 35 37 82 33 38 85 35 39 87 35 41 92 38 32 72 28 33 76 31 28 65 26 23 54 21 26 63 26 16 43 17 21 56 24 16 44 19 13 38 16 12 35 15 12 36 15 19 50 22 18 47 19 20 51 21 28 68 29 30 73 31 23 56 22 26 62 26 25 62 26 20 52 21 21 55 23 15 41 17 12 35 14 18 50 22 16 44 19 19 52 23 20 52 22 19 49 20 29 70 30 29 69 29 28 64 26 30 67 27 30 68 26 37 84 34 34 75 30 36 82 34 32 73 29 29 67 27 26 62 25 31 75 31 29 69 29 22 54 22 31 74 31 23 55 21 34 81 34 34 80 33 37 83 34 38 85 35 40 91 37 36 80 32 35 80 32 34 77 31 29 67 27 26 61 24 26 64 27 26 67 29 22 59 25 18 49 21 17 47 21 8 28 11 12 38 16 10 31 13 18 49 21 24 62 27 23 59 25
21 54 23 18 48 19 23 58 24 28 69 29 31 75 32 26 62 25 34 77 31 38 86 35 37 82 33 39 86 34 39 86 34 38 83 33 38 83 33 35 78 31 39 89 37 36 83 35 31 73 31 19 47 19 19 50 21 16 44 18 19 52 23 19 52 23 19 52 23 13 38 16 20 53 23 18 48 20 21 53 22 21 52 21 26 63 26 26 64 26 22 53 21 21 52 21 24 60 25 17 44 18 16 42 17 17 45 19 13 36 15 18 50 21 20 52 22 20 51 21 27 67 29 22 54 22 28 68 28 27 63 25 34 80 34 30 69 28 34 79 33 30 71 29 24 56 22 26 62 25 24 59 24 22 56 23 27 67 29 21 52 21 21 52 20 28 66 27 35 82 34 34 78 31 36 80 32 43 96 40 39 85 34 41 90 36 38 82 33 33 74 29 35 79 32 28 63 25 25 60 24 29 71 30 16 43 17 14 40 16 19 52 23 18 51 23 11 35 15 9 31 13 15 44 19 15 43 18 23 59 26 20 51 21 21 53 21 23 55 22 27 66 27 25 60 25 29 70 30 29 71 31 19 48 19 24 61 26 16 43 18 21 56 24 19 51 22 19 49 20 19 49 20 27 67 29 30 72 30 29 70 29 34 81 34 36 83 35 33 76 31 33 75 31 35 81 34 26 61 24 27 63 25 25 60 25 29 69 29 26 63 26 25 61 25 27 65 27 27 64 26 28 63 25 36 83 34 39 88 36 37 81 32 37 81 32 43 96 39 36 80 32 41 93 39 37 84 35 28 66 27 24 59 24 26 65 28 18 48 20 20 54 24 13 38 17 15 45 20 16 47 21 8 29 12 14 42 18 16 45 19 20 54 23
15 42 17 18 47 20 18 46 19 20 51 20 26 64 26 26 61 24 34 77 31 38 85 35 43 96 39 41 90 36 43 96 39 40 88 35 43 95 39 41 92 38 38 87 36 32 73 30 28 66 27 23 57 23 19 49 20 17 47 20 17 49 21 15 44 20 12 37 16 9 29 12 15 42 18 14 41 17 14 39 16 23 59 25 24 59 25 25 60 24 25 59 24 27 65 27 26 62 25 21 52 21 28 68 29 25 62 26 23 59 25 18 45 18 19 49 20 25 62 26 23 58 24 21 51 20 23 55 22 24 57 22 28 66 27 26 62 25 29 71 30 25 61 25 26 64 27 20 52 21 24 62 27 25 65 28 24 62 26 23 58 24 25 61 25 33 79 33 37 86 36 36 80 33 35 78 31 37 81 32 38 83 33 40 88 35 39 86 34 43 97 40 38 87 36 38 87 37 25 58 23 21 52 21 18 48 19 15 42 17 19 53 24 17 49 22 16 48 22 9 32 14 17 49 22 9 30 12 14 40 16 22 58 25 19 49 20 24 59 24 32 77 33 30 71 30 32 75 32 30 72 30 27 66 27 27 66 28 24 61 25 25 61 26 25 63 27 21 52 21 21 53 21 25 62 26 26 63 26 29 68 28 33 79 33 29 68 28 26 62 25 24 56 22 28 67 28 22 54 21 28 68 29 19 47 19 24 61 26 26 65 27 20 50 20 32 76 32 27 64 26 37 86 36 39 89 37 35 78 30 45 99 41 41 90 36 44 98 40 36 79 31 38 86 35 32 72 29 27 64 26 22 53 21 20 51 21 23 61 26 11 34 14 9 30 12 8 29 12 13 42 19 13 40 18 10 33 14 13 40 17 17 48 20
11 33 13 17 48 20 23 60 26 17 45 18 23 56 22 34 79 33 36 81 34 34 75 30 37 83 33 45 99 41 40 87 35 40 87 35 40 90 36 34 75 30 30 68 26 36 85 36 26 62 25 23 57 23 17 45 18 13 37 15 17 48 21 12 38 16 15 45 20 6 24 10 9 29 12 10 32 13 12 35 14 23 58 25 21 54 22 27 66 28 24 58 23 28 66 27 28 66 27 24 56 22 26 61 25 27 64 26 24 59 24 25 61 25 26 63 26 29 71 30 21 52 21 29 70 30 25 61 25 25 61 25 24 58 24 22 54 22 27 67 29 18 47 19 15 40 16 19 50 21 21 55 24 16 45 19 23 59 25 26 64 28 24 59 24 27 64 26 30 69 27 39 87 36 36 80 32 37 80 31 38 82 32 45 98 40 45 100 42 42 94 39 40 92 38 30 69 28 32 76 32 26 63 26 23 59 25 22 59 26 10 32 13 12 38 16 10 35 15 12 39 18 11 37 16 17 48 22 12 35 15 14 38 15 18 47 19 20 50 20 24 57 23 27 63 25 32 75 31 32 74 30 33 77 32 26 61 24 27 65 27 28 68 28 28 68 29 22 53 21 23 57 23 24 59 24 30 72 31 22 54 21 30 72 30 27 65 27 24 60 25 28 69 29 18 46 18 17 43 17 21 54 23 21 55 23 21 53 22 17 45 18 24 58 24 31 74 31 31 72 29 38 87 36 41 92 38 45 100 41 45 98 40 41 90 36 42 93 38 38 83 33 40 90 37 38 87 36 26 61 24 28 68 29 20 51 21 23 59 25 16 46 20 9 29 12 11 36 16 14 44 20 10 35 15 14 44 20 16 46 20 20 53 23
9 30 12 19 51 22 14 40 16 23 57 24 31 74 32 28 65 26 34 77 31 39 88 36 37 81 32 36 80 32 35 78 30 37 82 33 41 91 37 40 91 38 37 84 35 30 69 28 32 77 33 27 66 28 17 44 18 22 59 26 13 39 17 10 32 14 15 45 21 14 44 20 11 36 16 15 44 19 12 35 14 18 48 20 23 58 24 24 58 24 28 67 27 27 64 25 31 71 29 31 71 29 30 70 28 28 64 25 25 59 23 31 74 31 33 77 32 26 61 25 31 74 31 29 70 29 30 73 31 24 60 25 20 50 20 20 52 21 14 39 15 19 51 22 18 50 22 19 53 23 18 51 22 14 40 17 19 50 21 20 51 21 22 53 21 31 72 30 33 76 31 39 88 36 43 96 40 41 91 37 44 98 40 42 94 39 34 75 29 37 83 34 34 78 32 29 67 27 33 78 33 28 69 29 24 60 25 23 60 26 12 35 14 16 47 21 11 36 16 10 34 15 13 40 18 16 47 21 14 40 17 22 59 26 17 43 17 27 65 27 30 72 30 34 80 33 33 77 31 38 86 36 35 80 33 33 76 31 29 66 26 27 63 25 32 75 31 32 76 32 23 56 22 31 74 31 29 70 30 25 61 25 26 64 27 27 67 29 25 62 27 18 48 20 23 61 26 14 40 16 21 57 25 15 42 17 16 43 18 25 64 28 25 60 25 29 68 28 36 82 34 39 89 37 42 95 39 40 89 36 46 101 42 44 98 40 39 87 35 37 83 33 38 86 36 35 80 33 34 81 34 28 68 29 20 51 21 20 52 22 13 36 15 18 49 22 12 38 16 9 32 14 13 40 18 9 29 12 15 44 19 17 48 21
12 37 16 14 41 17 21 56 24 28 70 30 26 63 26 28 64 25 32 73 29 36 81 33 36 80 32 40 89 37 35 78 31 41 93 39 34 76 31 34 78 32 33 77 32 27 64 26 31 76 32 28 69 30 19 50 21 17 47 20 10 32 13 17 49 22 16 47 21 7 27 11 15 46 21 10 32 13 17 47 20 16 43 18 27 68 29 30 73 31 31 74 30 33 76 31 37 85 35 37 84 35 38 86 36 32 72 28 32 72 28 28 64 25 30 68 27 26 61 24 31 73 30 27 64 26 28 67 29 20 52 21 15 41 16 16 43 18 12 35 14 13 40 17 16 47 21 12 36 16 12 36 15 12 35 14 22 59 26 25 62 27 24 58 23 32 76 32 30 68 27 34 77 31 37 82 33 38 86 35 43 96 40 35 78 31 34 77 31 36 82 34 32 73 30 29 68 28 23 54 21 27 65 27 25 63 27 16 42 17 21 57 25 11 33 13 18 50 22 15 44 19 8 27 11 9 31 13 10 32 13 23 60 26 19 48 19 22 53 21 31 74 31 37 86 36 36 81 33 32 72 28 42 95 39 41 93 39 39 88 36 34 77 31 29 65 26 30 70 28 26 61 24 30 73 31 22 53 21 22 56 23 23 57 24 22 57 24 19 51 22 17 47 20 16 45 20 19 53 24 12 36 15 17 46 20 18 48 20 24 61 26 25 61 25 24 57 22 32 73 30 37 84 34 36 80 32 39 86 34 40 89 36 39 86 35 35 77 31 32 71 28 29 65 25 29 67 27 31 73 31 24 58 23 24 61 25 18 46 19 16 44 18 21 55 24 14 41 17 9 30 12 10 32 13 14 41 17 19 52 23 22 59 26
13 38 16 21 56 25 25 65 28 23 57 23 28 67 27 28 64 26 34 78 32 33 75 30 31 70 28 38 88 37 33 77 31 36 84 35 28 64 25 33 79 33 28 67 27 26 63 26 24 58 24 27 66 28 24 60 26 16 43 17 19 52 22 19 53 24 11 34 14 15 45 20 12 37 16 17 49 22 18 49 21 19 50 21 27 66 28 28 67 28 36 85 36 37 84 35 36 80 32 42 95 39 39 87 35 39 87 35 38 85 35 34 77 31 32 73 29 32 75 31 32 75 31 30 73 31 27 67 29 24 61 26 21 55 24 15 44 19 13 40 17 11 36 16 8 28 12 11 35 15 12 37 16 12 36 14 21 54 23 27 66 28 32 77 33 28 66 26 34 78 32 34 77 31 34 77 31 37 83 34 33 75 30 32 73 29 33 76 31 31 71 29 30 70 29 28 67 28 29 70 30 22 54 22 19 48 19 23 59 25 18 48 20 15 42 17 20 55 24 20 54 24 16 46 20 15 42 18 13 36 15 21 54 23 26 65 28 28 67 28 30 69 28 34 77 31 39 87 36 42 95 39 36 80 31 40 88 35 42 94 39 35 79 32 35 79 32 31 70 28 34 81 34 22 54 21 23 56 23 26 65 28 15 42 17 12 36 15 15 42 18 14 42 18 12 39 17 11 34 15 18 52 23 11 34 14 21 56 24 18 47 19 27 66 28 26 60 24 38 87 36 33 75 30 37 83 34 40 91 37 38 85 35 40 91 38 38 86 36 32 73 30 32 75 31 29 68 28 31 75 32 24 59 24 22 55 23 19 49 20 25 64 28 24 61 26 18 48 20 14 39 16 21 56 24 17 47 20 13 37 15 17 46 19
19 51 22 19 51 21 26 65 28 29 70 29 26 62 25 31 72 30 31 73 30 32 75 31 29 67 27 29 69 28 33 77 33 29 70 29 26 62 25 24 57 23 24 58 23 29 71 30 30 74 31 22 53 21 25 62 26 23 58 24 18 47 19 22 58 25 16 44 18 19 51 22 15 44 19 20 53 23 15 41 16 26 65 28 28 67 28 29 67 27 38 88 37 34 76 30 40 90 37 41 91 37 38 83 33 43 96 39 39 87 35 33 73 29 37 84 35 34 78 32 32 76 32 22 54 22 16 43 17 15 42 17 20 54 24 10 32 14 7 27 11 9 32 14 12 39 17 11 36 16 16 46 20 17 45 19 27 67 29 28 69 29 28 67 27 31 72 29 32 73 30 35 81 34 34 77 32 36 83 35 27 64 25 30 70 29 26 61 25 27 64 26 29 71 30 27 66 27 27 64 27 29 72 30 24 58 24 21 52 21 23 57 24 16 43 17 24 61 26 18 48 20 21 55 24 20 53 23 18 47 20 23 59 25 26 65 27 31 73 30 30 69 28 34 77 31 34 74 29 43 95 39 42 91 37 40 88 35 36 79 31 36 81 32 33 74 30 36 84 35 33 79 33 24 59 24 23 58 24 18 47 19 11 33 13 15 43 19 10 32 14 6 25 10 15 45 20 10 34 15 10 32 13 18 50 22 23 59 25 24 59 25 25 59 24 31 71 29 32 72 29 35 79 32 37 85 35 33 74 29 32 73 29 29 65 26 29 67 27 24 57 22 24 57 23 29 69 29 27 66 27 30 73 31 24 59 24 21 53 21 29 70 30 25 62 26 20 51 21 18 46 18 18 48 20 20 53 22 26 66 28 26 65 28
19 50 21 23 57 24 22 55 22 24 59 24 24 56 22 32 77 32 29 69 29 23 56 22 25 61 25 22 55 22 26 64 27 24 59 24 20 49 19 29 71 30 22 53 21 31 74 32 30 73 31 23 56 23 30 73 31 30 73 31 26 65 27 26 66 28 17 45 18 23 60 26 22 58 25 21 53 23 24 60 26 20 50 20 23 54 21 32 75 31 38 86 36 35 78 31 42 93 38 38 83 33 47 103 42 43 96 39 42 92 38 39 88 36 39 89 37 34 79 33 27 66 27 22 55 23 23 61 27 16 44 19 9 29 12 12 38 17 14 43 20 13 41 19 11 36 16 18 52 23 21 57 25 25 63 27 22 55 23 26 63 26 25 59 24 27 62 25 28 65 26 31 74 30 31 73 31 25 60 24 23 55 22 27 65 27 27 66 28 27 65 27 28 67 28 27 64 27 27 65 27 25 60 24 26 61 25 27 65 27 25 61 25 23 57 23 24 59 25 20 51 21 26 66 28 25 62 26 18 45 18 26 63 26 23 56 23 33 78 33 34 78 32 36 80 32 40 89 36 38 83 33 46 101 42 37 81 31 45 101 42 42 93 38 36 82 33 28 65 26 24 58 23 24 59 24 16 43 17 21 57 25 16 47 20 7 26 10 9 31 14 14 44 20 6 25 10 9 31 13 16 45 20 14 38 15 19 49 20 25 62 25 26 60 24 31 71 29 30 68 27 36 83 34 32 74 30 31 72 30 32 75 31 32 77 33 28 67 28 22 54 21 22 53 21 29 71 30 24 59 24 23 54 21 27 65 27 26 62 25 26 63 25 26 61 25 28 68 28 30 73 31 23 55 22 25 62 26 25 63 26 26 65 27
27 67 29 21 52 21 22 54 21 23 55 22 26 62 25 23 56 23 26 64 27 19 47 19 19 50 20 17 44 17 16 41 16 21 54 23 19 49 20 22 54 22 28 69 29 28 68 28 30 70 29 29 68 28 27 63 25 29 68 28 30 72 30 26 62 26 26 65 27 24 59 25 19 47 19 27 68 29 29 70 30 29 71 30 27 65 26 27 62 24 30 68 27 36 79 31 44 98 40 42 92 37 37 81 32 36 79 31 34 75 29 38 87 36 36 84 35 25 60 24 27 67 29 21 54 23 13 38 15 17 47 21 13 41 18 16 47 22 13 40 18 14 42 19 17 49 22 13 37 15 15 41 16 26 65 28 29 70 30 29 70 29 23 55 22 31 73 30 26 63 25 26 62 25 27 67 28 27 68 29 20 51 21 27 67 29 22 55 23 25 62 26 27 65 27 25 61 25 33 79 33 28 67 27 29 67 27 33 76 32 34 79 33 34 80 34 32 77 32 30 71 30 30 72 31 25 61 25 28 69 29 30 72 31 27 65 27 30 71 29 30 69 28 40 91 38 43 97 40 41 91 37 36 78 30 37 82 32 35 77 30 34 76 30 37 84 35 31 74 31 30 72 31 21 54 23 22 59 26 13 38 16 14 42 18 13 42 19 6 24 10 10 34 15 16 46 21 16 46 20 15 42 17 21 53 22 22 55 22 24 58 23 26 62 24 33 76 31 31 71 29 29 69 28 33 79 33 26 62 25 22 55 22 28 68 29 25 62 26 24 60 25 28 68 29 24 58 24 31 73 31 27 65 26 34 80 34 29 67 27 33 76 31 36 82 34 30 69 28 32 76 32 27 63 26 32 76 32 29 71 30 28 68 28
26 63 26 22 54 21 22 54 21 29 72 30 21 52 21 21 54 22 18 48 20 15 40 16 16 44 18 21 55 24 14 39 16 22 58 25 22 56 24 22 56 23 27 65 27 31 73 30 36 83 35 35 81 34 36 82 34 34 77 32 37 86 36 33 77 32 29 67 27 29 70 29 29 71 30 27 66 27 28 68 28 25 60 24 32 75 32 31 71 29 35 80 33 36 81 33 41 93 38 40 90 37 37 81 32 34 75 30 37 84 34 35 80 33 26 61 24 22 54 21 23 58 24 18 49 21 18 50 22 15 43 19 11 36 15 12 38 17 12 37 16 17 48 21 20 54 24 24 62 27 18 46 18 27 66 28 22 54 21 31 74 31 29 69 29 30 73 31 27 67 29 17 44 17 16 44 18 19 51 21 20 53 22 20 53 23 21 54 22 23 56 23 23 56 23 29 68 28 31 73 30 29 65 26 38 87 36 32 71 28 31 71 28 36 81 33 36 84 35 35 83 35 33 78 33 24 58 23 23 55 22 27 65 27 29 69 29 29 68 28 27 63 25 34 79 32 39 89 37 42 94 39 40 90 37 40 90 37 36 81 33 34 77 32 35 83 35 30 73 31 26 65 27 20 52 22 13 37 15 14 42 18 8 29 12 15 46 20 9 31 13 14 43 19 18 51 22 15 41 17 22 55 23 26 63 27 27 64 26 24 56 22 29 68 28 32 75 31 27 66 27 31 74 32 22 55 22 19 49 20 24 62 26 24 61 26 23 57 24 26 66 28 27 67 28 27 64 26 28 65 26 36 82 34 32 73 29 33 74 30 40 92 38 32 72 29 36 81 33 30 68 27 28 64 25 30 70 29 26 63 26 28 69 29
27 65 27 29 70 29 23 57 24 20 52 21 16 41 16 21 55 24 16 44 19 11 33 13 10 31 12 12 36 15 12 36 14 19 49 21 20 52 21 28 69 29 31 74 31 31 72 29 32 72 29 32 70 27 38 85 35 36 80 32 39 89 37 35 81 33 33 75 31 27 62 25 29 69 29 29 69 29 23 56 23 31 75 32 23 55 21 31 73 30 36 84 35 35 79 32 40 91 38 36 81 33 33 75 30 33 75 30 30 70 28 32 76 32 32 76 32 25 62 26 22 56 24 14 38 15 13 37 15 10 31 13 13 38 16 17 47 21 14 40 16 22 59 25 20 51 21 23 57 24 23 56 23 23 55 22 26 62 26 24 60 25 24 61 25 24 61 26 20 52 22 16 44 18 16 45 19 20 53 23 14 39 16 19 50 21 17 44 18 29 72 31 32 77 33 28 65 26 33 74 30 38 85 35 39 87 36 35 76 30 38 84 34 40 90 37 40 91 38 33 77 31 33 78 33 31 75 31 28 67 28 27 66 27 25 61 25 27 65 27 26 61 25 26 62 24 30 68 27 35 80 33 39 89 37 36 82 34 28 64 25 35 83 35 25 59 24 21 51 20 18 47 19 21 56 24 14 41 17 11 35 15 9 30 12 10 31 13 10 30 12 15 41 17 21 56 24 19 49 20 28 70 30 25 61 25 27 65 27 32 76 32 23 56 22 25 62 26 26 64 27 20 51 21 23 60 26 14 38 15 23 60 26 21 56 24 26 66 29 22 54 22 25 60 24 28 65 26 38 87 37 32 72 29 42 95 40 39 86 35 36 79 31 37 82 33 37 83 34 31 70 27 34 79 33 26 61 24 22 53 21 23 58 24
23 56 22 27 66 28 26 64 28 21 55 23 21 57 25 14 40 17 10 33 14 9 30 13 14 41 18 17 49 21 22 58 25 21 54 23 22 55 22 32 76 32 32 75 31 35 80 33 33 72 28 40 89 36 40 89 36 35 76 30 39 88 36 32 72 28 29 66 26 33 77 32 26 61 24 27 65 27 27 66 28 30 72 31 29 71 30 31 75 32 25 59 23 27 62 25 26 61 24 36 82 34 28 64 25 31 73 30 30 71 29 24 58 23 24 59 24 21 52 21 19 49 20 22 58 25 21 56 24 18 48 20 19 51 22 19 50 21 16 43 17 20 49 20 27 67 28 22 54 21 25 59 24 24 59 24 20 49 19 22 56 23 21 54 23 16 44 18 19 53 23 16 45 20 9 30 12 19 52 23 13 37 15 20 53 22 21 53 21 30 73 31 34 80 34 32 73 29 39 88 36 44 98 41 42 92 37 42 93 37 37 82 32 36 79 31 34 76 30 31 70 28 28 66 27 29 70 29 25 61 25 24 60 25 26 66 28 25 63 27 27 65 28 24 58 24 32 76 32 28 65 26 33 77 32 30 70 29 31 74 31 30 71 30 29 71 30 19 47 18 18 46 19 24 61 27 19 50 22 14 40 17 21 56 25 14 41 17 18 48 20 23 60 26 20 51 21 23 57 23 23 56 22 26 62 25 28 68 29 28 69 29 20 50 20 19 50 20 23 61 26 13 38 15 20 55 24 18 49 21 20 53 23 16 42 17 22 55 23 21 51 20 31 74 31 30 69 28 40 91 38 34 76 29 44 97 40 37 81 32 37 80 31 40 88 35 42 96 40 31 69 27 36 85 36 27 64 26 29 70 30 22 55 23
24 59 24 19 49 20 15 42 17 16 44 19 13 39 17 10 33 14 13 41 19 10 34 15 12 36 16 16 44 19 21 54 23 18 46 18 24 57 23 35 81 34 30 68 27 34 75 30 36 79 31 43 95 39 42 91 37 45 99 41 43 96 40 38 86 35 36 82 34 30 70 29 32 76 32 27 66 28 22 55 23 25 63 27 25 64 27 18 45 18 21 52 21 22 55 22 27 64 27 31 73 31 24 56 22 31 74 31 26 62 25 22 53 21 23 57 24 26 64 27 19 49 20 22 56 23 24 60 26 16 42 17 26 66 28 26 65 28 25 62 26 25 60 24 29 71 30 31 74 31 27 65 27 26 63 27 26 66 28 17 45 19 17 48 21 18 52 23 9 31 13 12 37 16 13 39 17 11 34 14 20 53 23 18 46 18 22 53 21 33 77 32 28 64 25 33 73 29 35 76 30 39 84 33 43 94 38 40 87 34 44 98 40 37 81 32 37 84 34 31 70 28 27 64 26 25 60 25 24 61 26 19 49 20 23 61 26 17 45 19 15 40 16 23 58 25 20 50 20 27 66 28 26 62 26 32 76 32 26 62 25 22 54 21 29 70 30 28 69 30 22 55 23 18 46 19 23 59 25 24 62 27 18 46 19 19 48 20 21 53 22 22 55 22 23 56 23 30 73 31 26 64 26 23 55 22 21 52 21 21 54 23 20 54 23 21 56 24 12 37 15 18 51 23 13 38 16 18 49 21 20 54 23 23 59 25 26 63 26 33 79 34 33 77 31 41 93 39 35 78 31 38 82 32 44 96 39 44 97 40 42 93 38 39 86 34 32 72 28 32 73 29 33 79 33 24 58 23 25 62 26 16 42 17
23 57 24 17 45 19 19 53 23 15 44 19 8 29 12 8 30 13 7 26 11 10 32 14 18 50 22 14 39 16 22 57 24 26 63 26 25 58 23 34 79 33 34 77 31 40 88 36 40 89 36 46 101 41 45 99 41 38 84 33 39 87 35 35 79 32 28 64 25 29 68 28 28 69 29 17 44 17 19 49 20 18 47 20 13 37 15 15 41 17 21 55 24 23 60 25 24 60 25 26 65 27 25 61 25 30 74 31 22 53 21 28 67 28 29 71 30 28 70 30 27 67 28 24 60 25 23 57 23 30 74 31 27 66 27 24 57 23 30 71 29 27 64 26 31 75 32 21 51 20 26 63 27 20 51 21 22 58 25 16 45 19 14 42 18 15 46 21 12 38 17 9 30 12 17 48 21 15 43 18 25 64 28 22 54 22 32 75 32 28 64 25 34 76 30 38 84 34 39 85 34 43 96 39 44 97 40 38 82 32 37 81 32 33 73 29 38 86 36 35 81 34 22 54 21 22 56 23 20 52 22 16 45 19 11 32 13 11 34 14 16 45 19 14 40 16 20 52 22 20 51 21 24 59 25 26 65 27 25 62 25 22 52 21 23 55 22 24 58 24 25 61 25 27 68 29 27 67 28 24 61 25 22 55 22 27 67 28 30 74 31 22 54 21 31 74 31 28 67 28 29 72 30 26 65 28 23 59 25 17 46 19 13 37 15 11 34 14 13 39 17 14 42 18 15 44 19 14 39 16 22 57 24 27 67 29 30 71 30 36 83 35 34 78 32 41 91 38 35 76 30 40 89 36 40 88 35 41 91 37 36 79 31 33 73 28 35 81 33 30 69 28 30 71 30 28 69 29 19 50 21 15 42 18
21 54 23 11 34 14 17 50 22 14 42 19 11 36 16 8 29 13 13 39 17 10 33 13 14 40 17 24 61 26 26 64 27 27 64 26 33 76 31 29 66 26 41 93 39 41 92 38 43 95 39 41 90 37 38 84 33 36 79 31 40 89 37 37 85 35 34 79 33 24 59 24 21 54 22 19 50 21 21 57 25 19 52 23 13 39 17 17 49 21 17 47 20 19 52 22 23 59 25 25 64 27 26 64 27 29 72 31 25 61 25 30 71 30 32 77 33 29 70 29 25 59 23 30 72 30 30 72 30 26 61 24 27 63 25 29 67 27 25 59 23 26 62 25 27 66 27 21 52 21 24 62 27 22 59 26 18 51 22 8 28 12 15 46 21 15 45 21 16 47 21 16 46 20 19 53 23 19 51 21 23 58 24 22 53 21 30 71 29 34 78 32 35 80 32 36 81 32 39 87 35 44 98 41 44 97 40 42 95 39 34 75 30 32 73 29 30 69 28 28 68 28 28 69 30 24 61 27 14 39 16 17 50 22 7 27 11 11 34 15 17 50 22 13 38 16 21 55 24 17 46 19 19 48 20 22 54 22 22 54 22 30 72 30 33 78 33 29 70 29 28 67 27 32 77 32 29 68 28 31 74 31 28 67 28 30 71 29 33 79 33 25 60 24 27 65 27 29 72 31 23 59 25 17 46 19 18 48 21 12 37 16 14 42 18 14 42 19 7 25 10 14 43 19 19 53 23 16 43 18 17 44 17 22 54 22 29 68 28 32 73 29 33 75 30 39 88 36 37 82 33 41 92 37 38 84 34 35 77 30 37 83 34 33 76 30 30 69 28 26 62 25 29 71 30 19 48 20 20 53 23 16 47 21
20 55 24 18 52 23 15 45 20 8 28 12 13 41 18 16 47 21 14 42 18 16 45 19 21 55 24 26 64 27 28 67 28 32 76 32 28 66 26 29 65 26 34 77 31 32 71 28 41 91 38 37 83 34 37 83 34 39 87 36 35 81 33 27 62 24 25 59 23 24 60 25 23 58 25 20 53 23 15 43 19 12 38 17 7 27 11 15 46 20 12 36 15 14 40 17 17 45 19 18 46 19 21 53 22 21 51 20 32 76 32 31 74 31 29 68 28 31 73 30 34 79 33 36 82 34 37 86 36 31 71 29 35 81 33 32 73 30 34 80 33 24 57 23 23 55 22 22 57 24 19 51 22 19 52 23 17 48 22 10 34 15 6 26 11 10 33 14 15 45 20 17 47 20 14 39 16 19 50 20 23 56 23 27 65 26 32 74 30 35 80 33 38 88 36 41 92 38 32 71 27 35 77 31 32 71 27 32 72 28 35 81 33 35 80 33 32 75 31 27 66 28 18 47 19 20 54 23 16 47 20 8 27 11 12 38 17 10 35 15 16 47 21 17 48 22 12 35 14 20 53 22 23 58 24 30 73 31 23 56 22 28 65 26 35 81 34 31 72 29 34 78 32 37 85 36 37 87 36 30 69 27 35 82 34 31 72 29 30 69 28 29 68 28 31 74 32 20 50 20 24 61 27 20 54 23 10 33 13 10 34 15 10 33 14 14 44 20 16 48 22 10 32 13 21 57 25 19 49 20 28 68 29 26 63 25 33 78 32 30 69 27 32 73 29 38 85 35 32 72 28 41 93 39 33 73 29 37 84 35 39 89 37 28 64 25 28 67 27 21 52 20 24 59 25 20 53 22 19 52 23 17 48 21
12 36 15 14 42 18 10 33 14 12 37 16 10 31 13 15 43 19 21 55 24 20 53 22 20 50 20 27 67 28 25 61 25 26 61 24 28 66 27 32 75 31 31 72 29 35 80 33 36 83 35 37 85 35 29 65 25 31 71 28 32 75 31 27 65 26 31 75 32 19 49 20 23 59 26 18 49 21 9 30 12 11 35 15 14 45 20 12 39 17 8 28 11 12 36 15 13 37 15 21 55 23 23 57 24 25 61 25 25 59 23 27 62 24 38 88 37 35 79 32 35 78 31 36 80 32 33 74 29 32 72 28 38 88 36 37 84 35 27 63 25 24 58 23 26 65 27 16 43 17 13 37 15 9 29 12 16 47 21 9 30 13 8 29 12 12 38 16 19 52 23 17 47 20 21 53 22 22 56 23 23 55 22 30 71 30 35 82 34 36 83 35 37 86 36 32 73 30 28 64 25 34 77 32 37 87 36 30 69 28 31 72 29 26 62 25 27 64 26 22 55 23 24 60 26 18 50 21 18 50 22 10 32 14 6 23 9 9 31 14 10 33 14 13 41 18 13 38 16 23 59 25 26 65 28 24 59 24 28 67 27 30 70 28 31 71 29 32 72 28 38 87 36 32 71 28 38 87 36 40 90 38 36 83 34 30 70 28 34 80 34 29 68 28 28 68 29 20 51 21 13 36 14 14 42 18 10 33 14 15 45 21 5 22 9 15 45 20 17 49 22 16 45 19 17 46 19 20 51 21 22 54 22 34 80 34 33 78 32 35 80 33 30 70 28 29 66 26 34 79 32 34 79 33 31 70 28 29 68 27 27 63 25 25 59 23 26 63 26 27 66 28 21 52 21 24 62 27 16 45 19 10 31 13
17 49 21 15 44 19 13 39 17 17 49 21 15 42 18 14 40 16 22 56 24 23 59 25 25 62 26 27 66 28 27 66 27 25 59 24 23 55 22 29 68 28 32 77 32 30 70 29 27 64 26 28 66 27 27 64 25 27 64 26 24 57 22 24 57 23 30 74 31 26 66 28 24 61 27 15 43 18 15 44 19 9 32 14 12 39 17 7 26 11 9 32 13 16 45 19 19 51 22 22 55 23 27 66 28 32 77 32 37 85 36 37 85 35 41 94 39 43 97 40 42 93 38 36 79 31 37 82 32 33 72 28 32 72 28 37 85 35 33 78 33 22 54 22 25 63 27 23 60 26 15 44 19 9 31 13 12 38 17 13 41 18 17 48 21 14 41 17 20 53 23 23 60 26 20 49 20 21 53 21 25 60 24 28 66 27 31 73 31 31 73 30 28 66 27 33 78 33 32 75 31 27 63 26 28 65 26 30 72 30 30 71 29 32 76 32 25 62 25 24 60 25 17 45 18 22 58 25 11 34 14 16 47 21 8 29 12 13 40 18 17 49 22 19 52 23 14 40 17 17 44 18 25 61 25 24 58 23 28 65 26 38 88 37 39 87 36 43 97 40 38 85 34 39 86 35 40 90 37 38 86 35 34 77 31 35 80 33 26 60 23 21 52 20 25 62 26 21 55 24 20 56 25 14 41 18 13 40 18 15 46 21 10 32 14 11 35 15 15 44 19 16 44 18 25 63 27 23 57 24 23 55 22 28 67 27 30 70 29 30 70 29 29 69 28 33 77 32 25 59 23 26 62 25 30 70 29 29 68 28 26 62 25 24 57 23 24 59 24 29 71 30 25 63 26 20 51 21 22 57 25 14 39 16
11 33 13 16 46 19 18 50 21 22 57 25 24 61 26 20 51 21 20 51 20 28 69 29 30 73 31 27 66 28 23 56 23 26 63 26 25 62 26 24 59 24 27 67 28 26 63 26 29 71 30 26 64 27 25 61 25 32 76 32 23 54 21 24 58 24 28 68 29 24 60 25 22 56 24 21 55 24 18 50 22 13 39 17 14 42 18 12 38 17 9 31 13 17 49 21 14 38 15 26 66 28 29 71 30 32 74 31 30 68 27 33 73 29 40 88 36 45 100 41 40 87 35 44 97 40 36 78 30 38 86 35 36 81 33 35 80 33 31 73 31 25 61 25 24 60 26 15 41 17 13 39 17 14 41 18 12 36 15 14 41 17 15 42 17 22 57 25 26 65 28 20 50 20 27 66 28 27 65 27 31 74 31 24 59 24 23 57 23 28 68 29 26 64 27 21 51 20 20 51 20 29 71 30 24 60 24 22 53 21 31 75 32 25 60 25 30 72 30 29 71 30 24 60 25 17 45 18 15 40 16 15 42 18 17 47 21 9 30 12 18 51 23 17 47 20 15 41 17 20 51 21 26 64 27 30 71 29 33 76 31 36 82 33 34 74 29 41 92 37 40 87 35 43 94 38 45 100 41 43 96 40 33 74 29 32 75 30 31 73 30 23 57 23 23 59 25 19 50 22 11 34 14 12 37 16 13 39 17 15 44 20 14 42 18 17 47 20 21 56 24 17 45 18 19 48 19 25 62 25 27 65 27 30 71 30 24 57 23 24 59 24 29 71 30 29 71 30 23 58 24 26 65 27 21 52 21 28 68 29 26 64 27 24 58 23 22 53 21 24 58 24 21 52 21 25 63 26 20 51 21 19 51 21
20 52 22 22 58 25 20 52 22 21 53 22 26 64 27 24 59 24 28 67 28 23 55 22 23 56 22 28 67 28 27 67 28 22 56 23 23 58 24 18 47 19 21 55 23 19 50 21 18 46 19 25 63 27 28 69 30 29 70 30 30 73 31 26 64 26 24 58 24 20 49 19 19 48 19 16 42 17 17 47 20 18 50 22 10 32 13 15 43 19 13 39 17 19 52 22 17 44 18 21 52 21 24 58 23 31 73 30 36 83 34 36 80 32 37 82 32 42 91 37 46 101 42 44 98 40 36 79 31 39 87 35 32 72 28 30 69 28 29 70 29 25 63 27 17 45 18 21 55 24 14 40 17 15 44 19 19 52 22 20 53 23 17 44 18 26 65 28 26 63 27 21 50 20 23 57 23 25 60 25 22 54 22 28 70 30 25 64 27 22 56 23 20 51 21 22 57 24 18 48 20 18 46 19 21 54 23 26 65 28 24 58 24 26 62 26 24 59 24 24 57 23 21 50 20 23 57 24 18 46 19 19 49 21 16 43 18 18 48 21 17 46 20 21 55 24 19 50 21 26 65 28 28 67 28 32 74 31 38 88 37 37 83 33 42 94 39 45 101 42 44 97 39 42 93 38 44 97 40 36 80 32 33 74 30 35 81 34 30 70 29 22 55 22 20 52 22 18 48 21 19 52 23 9 30 12 15 45 20 18 50 22 20 54 24 17 46 19 17 45 18 22 56 23 21 51 20 29 71 30 28 68 29 24 60 24 25 61 26 27 68 29 23 59 25 16 42 17 16 41 16 21 55 23 18 47 19 22 56 24 25 62 26 24 58 24 31 75 32 25 60 24 25 60 24 29 69 29 30 72 31 21 54 22
18 47 19 23 58 24 22 55 22 25 60 25 25 60 24 30 71 29 34 80 34 26 62 25 31 75 32 23 56 23 27 66 28 16 42 17 20 52 22 15 43 18 19 52 23 20 55 24 13 38 15 17 47 19 20 53 22 19 48 19 24 59 24 23 57 23 27 66 27 28 68 29 28 67 28 25 62 26 24 60 25 19 49 20 16 43 18 16 45 19 17 47 20 15 41 17 24 62 27 25 63 26 28 68 28 35 82 34 35 80 33 42 95 40 44 98 41 43 95 39 37 80 31 44 98 40 37 83 33 39 87 36 37 85 35 30 70 29 24 57 23 22 54 22 18 46 18 22 58 25 18 48 20 24 62 27 22 58 25 24 60 25 26 65 27 28 67 28 24 57 23 30 71 29 24 57 23 22 53 21 21 52 21 26 65 28 20 53 22 20 54 23 19 53 23 20 55 24 13 38 15 20 55 24 21 56 24 16 43 17 26 65 28 26 63 26 29 71 30 32 75 32 28 66 27 25 59 24 22 55 22 28 69 29 18 46 18 24 61 26 22 57 24 22 57 25 19 50 21 19 48 19 28 67 28 33 78 33 37 86 36 33 74 30 36 79 31 39 86 34 38 83 32 36 79 31 35 77 30 38 84 34 35 78 32 35 81 34 23 55 22 22 53 22 20 53 22 17 45 19 20 55 24 12 36 15 16 46 19 21 57 25 17 46 19 23 57 24 25 62 26 22 53 21 23 56 22 24 58 23 27 65 27 21 52 21 21 53 22 19 49 21 16 44 18 12 35 14 11 34 13 17 46 20 20 54 23 21 55 23 18 47 19 24 58 24 30 71 30 26 62 25 28 66 27 30 69 28 29 68 28 31 73 31
27 65 27 25 60 24 27 63 25 26 60 23 33 77 32 29 66 26 34 78 33 32 76 31 28 66 27 29 72 31 21 53 22 15 41 17 12 34 14 17 48 21 17 48 21 11 35 15 16 46 20 15 43 18 21 56 24 17 45 18 21 52 21 26 63 26 31 73 31 31 74 31 24 56 22 25 59 24 29 72 30 28 69 29 20 52 21 24 61 26 23 59 25 19 49 20 19 49 20 27 66 28 29 70 29 30 70 29 37 86 36 39 88 36 43 96 40 41 92 38 37 82 33 42 94 38 40 91 37 32 71 28 32 74 30 31 73 30 27 64 26 26 63 26 22 56 23 23 58 24 24 60 25 24 61 26 23 56 23 24 58 23 27 63 26 31 74 31 29 68 28 31 74 31 24 58 23 22 53 21 19 48 19 17 45 19 16 43 18 10 32 13 13 39 17 12 37 16 17 50 22 12 36 15 21 56 25 18 49 20 27 67 29 29 71 30 31 74 31 34 79 33 35 82 34 31 73 30 32 74 31 32 77 32 23 55 22 29 71 30 18 46 18 22 55 23 24 61 26 23 57 23 27 66 27 24 56 22 28 65 26 33 74 30 36 80 32 41 92 38 36 79 31 44 97 40 41 91 37 41 93 39 39 89 37 33 77 32 25 59 24 27 66 28 18 46 18 22 56 24 24 61 27 21 55 24 20 51 21 27 68 29 21 51 21 30 74 31 31 74 31 31 74 31 24 57 23 26 63 26 20 50 20 22 56 24 21 55 23 15 43 18 14 41 18 12 38 16 16 47 21 16 45 20 17 49 21 19 52 22 17 44 18 22 56 23 22 53 21 31 73 30 30 68 27 34 78 32 29 66 26 37 85 36
27 64 26 31 71 29 32 73 30 30 68 27 38 85 35 31 71 28 31 71 28 32 74 30 29 68 28 21 51 20 19 49 20 17 46 19 15 42 18 16 47 21 7 26 11 8 28 12 15 44 20 8 28 11 15 42 18 14 39 15 25 64 27 27 65 27 26 62 25 28 66 26 35 81 34 26 61 24 32 75 31 25 60 24 29 70 29 26 63 26 21 52 21 20 51 21 23 56 23 25 61 25 29 71 30 30 71 29 31 72 29 36 83 34 37 83 34 37 84 34 42 94 39 35 79 31 33 75 30 33 76 31 34 80 33 30 72 30 29 70 29 29 70 30 20 50 20 25 60 25 28 68 29 25 60 24 24 57 22 28 64 25 32 74 30 29 67 26 30 69 27 34 80 33 32 75 32 29 71 30 25 63 27 18 47 20 16 45 19 18 50 22 7 26 11 10 33 14 14 44 20 16 48 21 14 41 18 22 58 25 21 54 23 29 71 30 23 56 22 30 70 29 31 72 29 30 69 28 31 71 29 34 79 32 27 63 25 33 79 34 28 68 28 23 57 23 28 68 29 30 73 31 23 56 22 23 54 21 33 77 32 35 80 33 31 70 28 38 86 35 40 89 37 39 88 36 39 88 37 32 71 28 31 72 29 31 73 30 25 58 23 30 74 31 20 50 20 22 56 23 20 51 21 23 58 24 26 63 26 24 57 23 27 64 26 29 68 27 35 81 34 29 68 27 32 77 32 23 55 22 23 57 23 21 54 23 16 43 18 11 34 14 16 48 21 13 40 18 8 30 13 11 36 16 15 43 19 14 41 17 16 43 17 20 50 20 22 54 21 27 64 25 34 78 32 34 77 31 38 87 36 36 81 33
36 83 34 39 89 37 38 87 35 41 93 38 35 78 31 35 77 30 41 93 39 34 78 32 34 79 33 23 56 22 20 50 20 19 50 21 20 54 24 16 46 20 9 31 13 12 38 17 11 37 16 16 49 22 16 47 21 14 40 16 22 58 25 23 57 23 27 65 27 32 76 31 29 67 27 38 86 36 33 76 31 30 69 28 30 70 28 24 56 22 23 56 22 30 72 30 30 72 31 26 62 26 26 64 26 31 74 31 27 63 25 34 79 33 27 62 24 37 86 36 31 70 28 29 65 26 36 83 35 28 64 25 27 65 26 27 64 26 22 52 20 23 55 22 28 67 28 30 72 30 33 78 33 31 71 29 33 77 31 36 81 33 33 74 29 33 75 30 37 83 34 36 82 34 31 72 30 28 67 28 20 50 20 23 61 26 12 36 15 12 37 16 10 32 14 12 39 18 14 45 20 8 29 12 12 36 15 20 54 24 23 60 26 25 63 27 24 57 23 33 77 32 32 73 30 36 82 34 35 78 31 34 76 30 39 90 38 30 69 28 29 67 27 29 68 28 22 54 21 28 69 29 21 52 21 27 64 26 25 60 24 27 63 25 26 60 23 33 76 31 34 78 32 29 66 26 29 67 26 32 73 30 28 64 25 26 60 24 31 75 32 27 66 27 22 54 22 27 65 27 23 55 22 24 58 23 27 64 26 30 69 28 31 71 28 35 81 33 35 79 33 37 85 36 34 80 33 27 65 27 28 69 29 23 58 25 13 37 15 14 40 17 15 45 20 8 29 12 14 44 20 11 35 15 17 50 23 12 36 15 14 39 16 20 52 22 21 51 20 33 77 32 36 84 35 32 73 29 35 78 31 33 73 29
39 88 37 36 81 33 35 77 30 44 99 41 36 79 31 37 81 32 39 88 36 34 76 31 34 78 32 26 61 25 21 52 21 18 49 20 15 43 18 11 34 14 9 30 12 13 42 19 8 28 12 6 24 10 14 43 19 13 38 16 20 54 23 22 56 23 27 64 27 32 76 32 33 76 31 38 87 36 34 76 30 35 78 32 36 82 34 38 87 36 33 77 32 28 65 26 24 59 23 25 60 24 24 58 23 28 67 28 26 62 25 28 66 27 28 65 27 24 57 22 24 57 22 32 77 32 29 69 29 23 54 21 30 72 31 22 55 22 27 67 28 22 53 21 30 71 30 24 57 22 29 68 27 32 73 29 35 79 32 38 85 34 38 83 33 40 88 36 39 87 35 40 91 38 30 69 28 30 72 30 24 60 25 21 55 23 15 41 17 17 48 21 14 43 19 7 25 10 15 46 21 10 34 15 9 29 12 16 46 20 14 39 16 17 44 18 22 54 22 32 76 32 31 71 28 36 81 33 39 88 36 38 84 34 36 79 31 38 85 35 38 87 36 35 80 33 25 59 23 23 56 22 22 53 21 25 60 24 28 67 28 29 70 30 27 64 26 30 71 30 32 77 32 34 80 34 28 66 27 26 62 25 25 61 24 22 53 21 30 73 31 28 68 28 27 64 27 26 62 25 32 75 31 33 77 32 36 83 35 33 74 30 38 85 35 38 85 35 39 87 36 31 69 27 35 81 33 28 66 27 25 60 25 23 58 25 17 45 19 15 44 19 12 38 16 16 47 22 10 33 14 7 26 11 15 46 20 18 50 22 15 41 17 18 47 19 22 56 23 32 75 32 36 83 35 35 79 32 43 96 40 37 82 32
31 69 27 36 80 32 45 100 42 38 81 32 45 100 41 37 81 32 39 87 35 41 93 39 35 81 34 30 70 29 26 64 27 17 45 18 16 44 18 20 55 24 10 31 13 16 48 21 11 35 15 17 49 22 11 35 15 18 51 22 17 48 20 18 47 19 26 63 26 29 69 29 33 77 32 33 75 30 32 72 28 42 94 39 42 95 40 37 82 33 38 87 36 33 76 31 30 69 28 33 77 33 23 56 22 23 57 23 28 67 28 27 66 28 23 55 22 27 67 28 28 69 29 23 57 23 28 69 29 26 64 27 21 52 21 28 69 30 25 61 26 23 57 23 29 70 29 30 70 29 34 79 33 39 90 37 40 88 36 40 88 35 40 87 34 39 86 34 42 94 39 34 75 30 39 89 37 33 76 32 26 63 26 18 46 18 20 53 23 19 52 23 16 47 20 9 30 12 9 31 13 8 29 12 14 43 19 12 37 15 13 38 15 24 62 27 25 61 26 30 73 30 34 80 33 34 77 31 38 85 35 42 94 39 44 97 40 39 86 35 39 87 35 38 86 35 29 65 26 26 61 24 32 76 32 29 71 30 26 64 27 23 56 23 25 62 26 21 52 21 20 49 19 24 58 24 22 54 22 27 67 28 23 56 23 29 70 30 28 69 29 23 56 23 27 66 27 29 70 29 34 81 34 34 78 32 36 80 33 35 77 30 36 80 32 42 94 39 38 84 34 33 73 29 33 74 29 35 81 34 29 70 29 23 58 24 22 57 24 19 51 22 15 43 18 9 31 13 15 45 20 13 39 17 17 48 21 11 34 14 13 37 15 22 58 25 20 50 20 31 75 32 30 70 28 39 89 37 40 89 37 37 80 32
31 69 27 34 75 30 36 79 31 39 85 34 40 87 34 38 83 33 43 96 39 38 87 36 31 71 28 29 67 27 23 55 22 25 62 26 25 64 27 22 57 25 20 55 24 12 35 14 13 39 16 18 52 23 9 30 12 18 51 22 20 54 23 19 50 21 24 60 25 26 62 26 28 64 26 29 66 26 39 87 36 42 93 38 36 78 30 40 89 36 40 90 37 34 75 30 37 85 35 36 83 35 25 59 23 24 58 23 23 57 23 27 66 28 18 47 19 17 44 17 24 60 26 17 45 18 15 40 16 20 54 23 22 58 25 23 59 25 22 56 23 19 47 19 26 62 26 28 67 27 37 86 36 36 81 33 37 83 33 39 86 34 41 90 36 45 98 40 39 86 34 39 87 36 31 69 27 35 82 34 30 72 30 22 54 22 23 58 24 21 55 23 16 45 19 18 50 22 14 42 18 19 52 23 13 39 16 15 42 18 15 42 18 18 47 20 21 53 22 20 50 20 33 77 32 37 86 36 40 90 37 42 94 39 41 90 36 42 91 37 38 83 33 43 95 39 40 89 37 31 70 28 30 71 29 26 61 25 23 55 22 22 54 22 25 63 27 19 49 20 18 47 19 25 64 27 20 53 22 19 49 20 20 51 21 19 49 20 24 61 26 27 67 29 20 50 20 26 61 25 29 66 27 37 85 35 32 72 28 39 87 35 38 83 33 41 90 36 42 93 38 43 96 40 37 83 34 36 82 34 34 80 34 25 61 25 25 64 27 15 41 16 15 41 17 18 51 22 11 34 14 14 40 17 10 32 13 11 34 14 16 44 19 21 56 24 21 53 22 26 64 27 25 60 24 29 68 27 37 84 34 42 95 40
36 82 34 37 83 34 39 87 36 43 96 40 41 91 37 35 78 30 41 93 39 33 76 30 34 79 32 27 62 25 32 77 33 22 52 21 24 59 25 21 52 21 23 58 25 21 55 24 15 42 17 20 54 23 20 54 23 18 49 21 13 38 15 23 61 26 18 47 19 20 50 20 31 75 32 35 81 34 33 74 30 42 94 39 39 87 35 41 91 36 44 96 39 44 97 40 39 88 36 39 90 38 30 68 27 26 60 24 31 75 32 26 64 27 26 65 28 23 59 25 17 45 19 14 39 16 12 35 14 17 48 21 19 52 23 14 39 16 15 41 17 21 54 23 25 62 26 24 58 23 30 69 28 39 88 37 43 96 40 41 92 37 45 99 41 38 83 33 36 78 31 37 82 33 34 78 32 33 75 31 31 73 30 26 64 26 28 69 30 27 68 29 25 63 27 24 61 26 20 53 22 21 57 24 16 44 18 22 57 25 21 56 24 20 53 23 18 46 19 21 53 22 30 71 30 27 64 25 38 87 36 36 82 33 40 88 35 43 95 39 45 98 40 45 101 42 41 92 37 34 76 30 36 82 34 34 80 33 27 66 27 27 65 28 24 60 26 23 60 26 18 47 20 18 49 21 14 40 16 17 46 20 20 53 23 12 36 14 18 48 20 22 56 24 28 69 29 31 74 32 33 77 32 37 85 35 38 84 34 38 84 34 39 86 34 43 94 38 43 94 38 42 93 38 33 72 28 33 75 30 32 74 31 29 69 28 22 55 22 19 49 20 16 42 17 18 48 20 21 56 24 16 42 17 13 37 15 15 40 16 19 51 21 17 45 18 24 60 26 26 65 28 26 63 26 28 67 27 34 78 32 37 85 35
32 75 31 29 67 27 37 84 35 40 91 38 38 85 35 39 89 37 35 79 32 35 82 34 34 79 33 34 81 34 29 69 28 25 61 25 21 51 20 28 68 29 20 51 20 25 63 27 19 49 20 16 42 17 21 56 24 24 62 27 21 55 23 15 40 16 16 42 17 18 45 18 26 63 26 29 68 28 33 75 31 36 82 33 34 75 29 45 99 41 39 84 33 46 101 42 39 85 34 33 74 29 36 81 33 37 85 36 25 59 23 20 50 20 23 58 24 24 62 27 16 44 18 15 44 19 17 48 21 14 43 19 15 45 20 16 46 20 10 32 13 17 47 20 20 51 21 29 71 31 29 70 29 37 86 36 32 72 28 35 78 31 34 75 29 39 87 35 37 83 33 40 91 38 30 68 27 36 83 35 33 79 33 30 72 30 24 58 24 27 66 28 20 49 20 24 59 25 26 64 27 19 47 19 18 45 18 19 50 20 18 48 19 24 60 26 22 57 24 24 60 25 25 62 26 31 74 31 34 80 33 36 83 34 40 90 37 37 80 32 46 103 43 46 103 42 43 95 39 41 92 37 32 72 28 38 88 37 30 71 29 25 60 25 22 55 23 20 52 22 16 45 19 13 38 16 15 44 19 16 47 21 15 45 20 11 33 14 18 51 22 21 56 24 16 42 17 24 59 25 28 67 27 31 72 29 37 85 35 39 87 36 42 94 39 37 81 32 38 85 34 41 91 37 37 83 34 33 75 30 30 69 28 32 76 32 30 73 31 28 67 29 26 64 27 28 69 30 27 67 29 27 68 29 21 53 22 27 67 29 19 49 20 24 61 26 25 62 26 22 55 22 22 55 22 31 75 32 30 72 30 30 68 27
30 71 30 26 61 24 28 65 26 34 78 32 33 77 32 29 67 27 28 66 26 29 69 28 30 71 30 30 71 30 31 74 31 28 69 29 25 60 24 23 56 22 27 66 27 30 73 31 22 52 21 24 60 24 27 65 28 21 52 21 18 45 18 25 63 27 17 44 18 23 59 25 24 60 25 31 76 32 32 76 32 32 74 30 38 86 35 37 81 32 44 97 40 46 102 42 43 94 38 37 82 32 40 89 36 40 90 38 31 71 29 25 61 25 27 66 28 24 61 26 21 57 25 12 37 16 15 46 20 12 38 17 10 34 15 11 36 16 16 46 20 13 37 15 15 41 17 18 46 18 27 64 27 31 72 30 33 77 32 31 70 28 31 69 27 33 75 30 38 86 36 34 77 32 31 73 30 27 63 25 26 63 26 31 75 32 25 59 24 28 67 28 22 52 21 22 54 21 31 74 32 25 60 24 27 64 27 30 72 31 20 49 19 27 67 28 22 54 22 23 58 24 27 67 28 29 71 30 24 57 22 33 76 32 39 89 37 38 86 35 40 90 36 44 97 40 44 97 40 40 88 35 41 92 38 40 90 38 29 66 26 31 74 31 22 54 22 18 47 19 16 45 19 12 36 15 15 45 20 10 32 14 10 33 14 15 46 21 13 41 18 10 32 13 13 38 15 19 49 20 28 69 29 29 68 28 28 65 26 39 88 37 39 88 36 39 88 36 40 91 37 39 89 37 32 72 29 32 74 30 32 76 32 29 69 29 25 61 25 26 63 26 27 65 27 28 68 28 22 53 21 29 71 30 27 65 27 28 66 27 28 68 28 30 72 30 22 53 21 27 65 27 27 66 28 27 65 27 23 56 23 30 71 29
21 52 21 23 54 21 27 65 26 25 58 23 28 67 27 25 59 24 22 53 21 22 54 22 27 66 28 28 69 30 26 65 28 26 64 27 27 66 28 28 67 28 30 71 30 25 58 23 28 65 26 30 70 29 32 76 32 26 62 25 26 62 25 26 63 26 26 63 27 27 66 28 28 70 30 28 69 29 32 76 32 32 75 31 32 74 30 36 81 33 41 92 38 36 79 31 42 92 37 40 87 35 41 90 37 38 84 34 36 82 34 26 61 24 24 57 23 21 53 22 21 54 23 20 54 24 10 31 13 9 30 13 14 44 20 11 36 16 12 37 16 14 41 18 19 52 23 16 43 17 25 61 25 27 65 27 27 64 26 35 83 35 34 80 33 28 64 25 33 77 32 23 56 22 23 56 22 29 70 29 21 52 21 28 69 30 22 54 22 25 61 25 27 66 27 25 59 23 30 70 29 27 63 25 26 62 24 27 63 25 31 74 31 29 70 29 27 64 26 28 68 29 30 72 31 20 50 20 24 58 24 23 55 22 27 61 24 33 76 31 34 76 30 37 82 33 42 94 38 44 98 40 43 96 39 36 81 32 36 82 33 29 67 27 26 63 26 27 68 29 21 55 23 17 46 20 16 47 21 11 36 16 7 26 11 9 31 14 12 38 17 17 50 22 16 45 19 17 45 18 26 64 27 30 72 30 28 66 27 29 67 27 30 68 27 33 74 30 31 71 28 36 83 35 31 72 30 29 69 29 24 58 23 22 54 22 29 72 30 26 63 26 27 65 27 28 66 27 31 74 31 30 70 29 27 63 25 28 66 26 30 71 29 33 78 32 24 57 23 24 58 23 25 61 25 30 73 31 31 75 32 29 70 29
23 56 23 27 65 27 24 57 23 25 59 24 30 73 31 27 67 29 25 63 27 18 46 19 23 59 25 18 49 21 17 44 18 24 61 26 20 51 21 21 52 21 28 66 28 24 57 22 30 69 28 30 70 28 31 71 29 34 79 33 30 70 29 26 60 24 26 63 25 25 61 25 29 70 30 22 55 22 21 52 21 31 74 31 27 64 25 29 67 26 38 87 36 40 89 36 39 87 35 44 99 41 36 79 31 34 75 29 34 76 30 32 73 30 32 74 31 27 65 27 22 57 24 18 49 21 14 40 17 18 50 23 10 33 14 8 28 12 9 31 13 16 47 21 19 51 22 20 53 22 19 48 19 21 51 20 28 66 27 29 69 29 26 62 25 30 71 30 21 52 21 27 66 28 26 66 28 17 44 17 24 62 27 24 61 26 22 56 23 19 48 19 24 57 23 26 62 25 34 79 33 35 81 34 35 81 34 32 73 29 29 66 26 37 85 36 34 81 34 24 58 23 26 62 25 27 66 27 24 59 24 25 60 24 29 70 29 28 67 27 31 72 29 36 81 33 32 71 28 40 90 37 34 75 29 36 79 32 37 83 34 32 74 30 34 81 34 27 66 27 19 49 20 22 59 26 12 36 15 18 51 23 16 47 21 14 42 19 7 25 10 8 27 11 12 35 15 18 49 21 24 62 27 26 63 26 30 72 30 29 69 28 27 64 26 30 70 29 29 68 28 25 59 23 31 75 32 21 52 21 20 50 20 25 63 27 23 59 25 26 65 27 28 69 29 29 70 29 34 80 34 31 71 29 30 68 27 38 88 37 34 77 31 32 72 28 36 84 35 30 70 28 27 63 25 30 72 30 30 71 30 23 56 22
26 64 27 22 53 21 24 59 24 23 57 23 20 50 20 19 48 20 19 51 22 22 58 25 20 56 25 16 46 20 18 50 22 20 54 23 17 44 18 21 53 22 24 58 24 31 75 31 35 81 34 34 78 32 31 69 27 38 87 36 39 89 37 35 80 33 29 67 27 29 68 28 26 63 26 23 56 22 30 72 31 25 59 24 27 65 27 32 74 31 28 63 25 32 73 29 32 71 28 34 74 29 38 84 34 36 80 32 39 89 37 34 78 32 28 64 26 32 75 32 28 70 30 25 64 28 13 37 15 19 53 23 12 37 16 19 53 24 13 40 17 16 45 19 17 46 19 17 45 18 20 51 21 22 54 22 30 73 31 26 63 26 29 70 29 28 70 30 20 51 21 24 62 27 21 57 25 17 47 20 12 35 14 13 37 15 22 57 24 26 66 29 23 58 24 28 67 28 32 74 31 38 87 36 39 89 37 40 89 37 35 79 32 38 86 36 34 76 31 36 83 34 27 63 25 28 67 28 24 57 23 26 62 26 26 63 26 24 58 23 27 63 25 31 73 30 32 74 30 39 90 37 37 84 34 35 80 32 35 78 31 36 81 33 31 72 29 30 71 30 25 60 25 22 56 24 15 40 16 13 38 16 15 45 20 9 30 13 17 49 22 11 35 15 13 38 16 23 60 26 22 56 24 19 47 18 29 70 30 29 70 29 24 58 23 31 75 32 30 73 31 21 52 21 17 45 18 19 49 20 23 59 25 16 43 18 22 57 25 22 56 23 27 66 28 29 71 30 34 81 34 28 63 25 39 90 37 37 82 33 41 92 38 34 74 29 41 92 38 36 81 33 38 87 37 35 81 34 27 64 26 24 59 24
28 67 28 23 54 21 27 66 27 29 72 31 17 45 18 16 43 18 14 39 16 19 53 24 17 48 22 14 42 18 10 31 13 14 40 17 15 42 18 23 60 26 23 59 25 23 56 23 30 71 29 36 84 35 32 71 28 40 90 37 34 74 29 33 73 29 41 92 39 34 77 31 30 70 28 29 67 28 25 60 24 25 60 25 27 66 28 25 59 24 32 77 32 33 77 32 37 87 36 36 83 34 40 90 38 32 71 28 36 82 33 35 81 33 29 66 26 27 63 25 23 56 22 25 62 26 16 42 17 22 58 25 13 37 15 22 58 25 20 54 23 19 51 21 19 49 20 19 47 18 24 59 24 29 70 30 26 62 25 31 74 32 24 59 24 20 52 21 15 41 17 21 57 25 12 35 15 11 35 15 9 31 13 14 42 18 18 50 22 19 51 22 27 67 29 30 72 31 33 77 33 29 67 27 37 83 34 33 73 29 43 97 40 42 94 38 36 79 31 38 85 34 30 69 27 31 72 29 29 68 28 25 60 24 25 61 25 21 51 20 22 54 22 23 54 21 27 63 25 32 74 31 28 64 25 36 82 34 37 84 35 33 76 31 36 84 35 28 66 27 26 62 25 28 69 29 23 59 25 22 59 25 21 56 25 16 44 19 19 52 22 18 50 22 16 44 18 19 51 21 22 57 24 26 65 27 27 65 27 22 53 21 25 60 25 26 64 27 20 51 21 21 55 24 14 38 16 19 51 22 11 34 14 18 50 22 20 54 24 23 60 26 17 45 18 29 71 30 23 56 22 36 83 35 39 88 37 34 75 30 36 78 31 37 81 32 42 94 38 39 87 35 34 76 30 31 71 28 26 61 24 24 56 22
32 74 31 26 62 24 25 59 23 27 66 28 23 59 25 22 59 25 12 36 15 10 32 13 7 25 10 7 27 12 9 31 14 15 46 20 15 42 18 14 39 16 16 43 17 29 72 31 28 67 27 30 69 28 36 81 33 35 77 31 44 99 41 43 96 40 36 80 32 38 86 35 39 89 37 29 66 26 29 68 28 32 77 33 28 67 28 29 71 30 28 68 29 30 71 30 26 61 24 32 75 31 31 72 29 30 69 28 33 76 31 31 72 29 33 78 32 29 68 28 31 74 31 27 65 27 25 61 26 21 53 22 24 60 25 23 59 25 25 62 26 24 59 24 23 57 23 24 59 24 25 61 24 29 68 28 28 67 27 23 56 22 25 61 25 23 58 25 21 56 24 17 48 21 16 47 21 13 41 18 15 46 21 15 44 20 13 40 17 16 46 20 18 48 20 19 48 19 27 64 26 27 63 25 31 71 28 33 74 29 44 97 40 41 89 36 42 94 38 36 80 32 41 92 38 39 89 37 27 62 24 28 65 26 26 63 26 23 56 23 23 57 24 29 71 31 26 64 26 25 61 25 24 57 22 34 79 33 28 65 26 30 69 28 28 66 27 28 67 27 29 70 29 23 55 22 23 56 23 18 47 19 20 52 22 19 50 21 15 40 16 16 42 17 24 62 26 25 62 26 21 51 20 30 72 31 22 53 21 28 69 29 26 65 27 24 59 25 16 42 17 20 53 23 15 44 19 18 50 22 15 45 20 12 38 16 11 34 14 18 50 22 15 42 17 26 66 28 24 58 23 28 65 26 37 84 35 32 71 28 40 90 36 46 102 42 40 88 35 41 90 36 39 86 35 36 82 33 31 71 29 31 72 29
36 83 34 29 68 27 30 69 28 23 56 22 20 50 20 24 62 27 14 40 17 11 36 15 9 31 13 11 37 16 12 39 17 6 25 10 10 32 13 20 54 24 22 57 25 26 66 28 27 66 27 35 83 35 30 67 26 36 79 32 44 98 40 39 86 34 45 101 42 43 95 39 40 89 36 39 90 37 30 70 28 29 67 27 28 67 28 27 67 28 27 67 28 28 69 30 27 65 27 21 51 20 25 60 24 30 70 29 32 76 32 31 72 30 31 74 31 27 65 27 29 69 29 26 63 26 28 68 29 25 62 26 30 73 31 25 61 25 30 73 31 30 72 30 25 59 23 28 65 26 34 80 33 29 67 27 32 75 31 29 70 29 20 49 19 22 57 24 21 57 25 13 39 17 14 44 19 12 38 17 12 39 18 12 38 17 12 36 16 12 36 15 17 46 19 19 49 20 27 65 27 28 66 27 32 74 30 34 76 30 38 84 34 44 98 40 39 85 33 44 98 40 35 77 30 36 80 32 39 89 37 31 71 29 30 70 29 21 52 21 19 48 19 21 53 22 23 58 25 19 47 19 24 60 25 24 59 24 27 66 27 24 56 22 32 76 32 30 73 30 31 74 31 31 74 31 26 63 26 25 63 26 27 66 28 27 67 29 25 62 26 26 64 27 23 57 23 23 56 22 33 79 34 27 64 26 31 73 31 31 73 31 27 65 27 25 63 27 17 45 19 19 51 22 12 36 15 16 48 21 7 28 12 8 28 12 12 38 16 17 49 22 20 55 24 20 53 22 21 52 21 28 67 27 35 80 33 36 81 33 43 97 40 44 97 40 37 81 32 38 82 32 39 84 33 37 82 33 38 85 35 34 79 32
33 73 29 40 90 38 32 74 30 27 65 26 27 66 28 24 61 26 22 58 25 10 31 13 17 49 22 10 32 14 9 31 13 10 32 14 13 40 17 19 52 23 22 57 25 18 47 19 23 57 23 29 69 29 32 74 30 36 82 33 36 80 32 40 88 35 46 101 41 41 89 36 36 80 31 41 92 38 38 87 36 33 76 32 27 63 26 29 70 29 24 61 26 18 45 18 19 50 20 18 47 19 27 68 29 24 59 25 21 51 20 22 55 22 24 58 24 24 58 23 29 69 29 22 54 22 26 63 26 27 65 27 24 58 23 27 63 25 30 71 29 36 82 34 35 81 33 36 83 34 31 69 27 36 82 34 32 73 30 29 69 28 29 69 29 26 66 28 22 59 26 20 54 24 14 42 19 13 41 18 11 36 16 15 45 20 16 48 21 20 54 24 14 38 15 18 48 19 25 62 26 27 65 27 36 83 35 33 74 29 37 81 33 37 81 32 39 85 34 41 90 36 46 102 42 42 93 38 40 90 37 35 79 33 33 79 33 29 69 29 21 52 21 24 61 26 16 44 18 19 49 20 23 59 26 19 50 21 26 65 28 22 55 23 25 62 26 29 69 29 30 74 31 23 55 22 31 75 32 22 53 21 22 53 21 24 58 23 23 56 22 25 60 24 33 76 32 28 64 25 31 72 29 37 86 36 32 74 31 26 60 24 28 68 29 22 54 22 16 42 17 15 43 18 8 28 12 9 32 14 15 45 21 11 36 16 15 45 20 12 38 16 14 40 17 17 45 18 25 62 26 24 58 23 31 72 30 36 82 34 32 71 28 37 81 32 38 84 33 39 86 34 45 100 41 38 84 33 34 76 30 32 72 28
40 88 36 37 84 34 37 86 36 28 66 27 30 73 31 17 43 17 15 42 17 18 50 22 13 38 16 12 36 15 10 33 14 13 40 17 19 53 23 22 58 25 22 58 25 25 64 27 20 50 20 30 70 29 36 83 35 34 78 32 36 79 32 35 76 30 45 100 41 47 104 43 41 90 36 38 85 34 32 71 28 37 86 36 28 66 27 23 57 23 24 59 25 25 64 28 19 50 21 21 56 24 16 44 18 20 52 22 21 53 22 21 55 23 24 62 26 23 58 24 22 55 23 29 72 31 28 66 28 27 65 26 33 78 33 29 67 27 38 87 36 39 88 37 40 90 37 40 90 37 37 83 33 40 90 37 37 85 35 30 71 29 26 63 26 24 60 25 20 52 22 17 47 20 15 43 19 13 40 17 14 42 18 15 44 20 18 52 23 14 40 17 18 47 20 26 66 28 20 50 20 25 60 24 25 59 23 34 78 32 36 82 33 37 81 32 42 93 38 41 91 37 37 82 32 39 85 34 36 80 32 37 85 35 26 61 24 23 56 22 18 46 18 21 55 23 21 56 24 19 52 23 15 41 17 20 54 23 15 40 16 18 48 20 22 56 24 18 46 18 20 51 20 27 65 27 30 72 31 32 77 32 30 71 29 30 71 29 35 82 34 36 82 34 38 88 36 32 72 28 37 83 34 40 90 38 32 72 29 27 62 24 27 64 26 20 50 20 20 52 22 14 41 17 11 35 14 15 44 20 11 37 16 12 39 17 17 50 22 15 44 19 22 59 26 25 64 28 23 58 24 31 75 32 26 61 24 37 85 36 38 86 35 38 86 35 41 91 37 39 85 34 41 91 37 36 80 32 41 92 38 38 87 36
38 84 34 37 82 33 30 67 27 30 70 28 26 63 26 27 67 29 20 53 22 20 54 23 18 49 21 17 48 21 19 53 23 19 53 23 22 57 25 20 53 23 24 62 27 25 64 27 29 72 31 31 74 31 32 76 31 36 83 34 37 83 34 33 73 29 41 90 37 42 93 38 40 88 35 40 89 36 38 85 34 31 69 27 26 61 24 21 52 20 22 56 23 16 44 18 20 54 24 11 33 13 16 46 20 17 47 20 19 52 23 20 53 23 18 48 20 21 55 23 19 48 19 23 58 24 24 58 24 34 80 34 33 75 31 38 87 36 39 89 37 43 97 40 38 84 33 44 98 40 43 97 40 39 87 35 35 80 33 34 80 33 28 67 28 20 51 21 22 56 24 15 43 18 20 54 24 14 40 17 18 50 22 11 33 13 17 46 19 23 60 26 21 53 22 21 54 22 22 55 22 25 61 25 28 65 27 28 64 25 31 71 28 34 76 30 40 89 36 40 88 36 39 85 34 37 82 32 42 96 40 35 78 32 34 78 32 24 56 22 28 70 30 20 52 22 14 40 17 11 34 14 10 31 13 14 41 18 15 43 19 20 55 24 20 54 23 22 56 24 25 62 27 21 53 22 23 56 22 32 76 32 35 82 35 31 72 29 38 87 36 41 93 39 37 83 34 37 81 32 42 93 38 42 94 39 35 81 33 30 68 27 28 66 27 20 50 20 17 45 19 12 36 14 11 34 14 10 33 14 12 36 15 17 48 21 20 55 24 14 40 16 21 55 24 23 59 25 23 58 24 24 59 24 23 55 22 26 62 24 33 76 31 30 68 27 37 83 34 41 93 39 41 93 38 38 85 35 40 91 38 36 82 34
41 91 37 33 75 30 32 73 30 26 61 24 28 67 28 20 51 20 24 61 26 22 58 25 20 53 22 16 43 17 19 51 21 20 53 22 20 51 21 18 45 18 19 49 20 29 71 30 26 64 26 28 67 28 28 65 27 29 67 27 34 79 32 39 88 36 41 92 38 41 91 37 42 93 38 38 86 35 36 81 33 35 80 33 31 72 30 27 64 26 25 62 26 21 54 23 14 41 17 11 35 15 18 51 23 9 30 12 14 42 18 17 48 21 13 37 15 20 54 23 17 44 17 23 56 23 28 68 28 30 70 29 31 70 28 38 87 36 36 79 31 42 92 37 42 92 37 46 102 42 38 83 33 37 83 34 30 67 26 35 82 34 32 77 33 21 54 22 25 64 28 14 38 15 15 40 16 16 44 18 20 52 22 20 54 23 22 56 23 18 46 18 20 51 21 19 48 19 30 72 31 24 59 24 28 67 28 28 66 27 29 67 27 29 67 26 38 88 37 37 83 34 38 85 34 41 94 39 39 90 37 38 88 37 32 75 31 24 57 23 23 58 24 21 54 23 15 42 18 15 44 19 8 28 12 8 29 12 11 35 15 11 34 14 19 53 23 22 58 25 16 43 17 23 58 24 24 58 23 29 69 29 32 74 30 39 88 37 32 72 28 34 76 29 37 82 32 36 79 31 36 79 31 38 85 34 37 84 34 27 62 24 25 59 23 21 52 21 22 56 24 18 48 20 12 34 14 16 45 19 17 48 21 21 55 24 16 43 18 21 55 23 25 64 27 21 52 21 27 66 28 26 64 26 30 71 30 33 78 33 25 59 23 33 76 31 31 72 29 38 87 36 36 83 34 32 73 29 38 87 36 30 69 28
36 81 33 31 71 28 34 80 33 23 55 22 27 65 27 26 63 27 22 54 22 23 58 24 21 52 21 23 57 23 27 66 28 22 53 21 27 66 27 24 58 23 24 58 24 23 57 23 28 69 29 25 60 25 27 64 26 32 75 31 34 79 33 34 79 33 39 88 37 38 86 36 38 85 35 35 79 32 39 89 37 32 72 29 26 62 25 23 57 23 26 65 28 15 40 16 12 35 14 8 28 11 14 43 19 8 29 12 14 42 19 12 38 16 12 36 15 17 48 20 19 50 21 27 68 29 29 70 29 33 78 32 40 91 38 39 87 36 35 77 30 40 87 35 39 86 34 44 97 40 37 81 32 32 72 28 30 68 27 30 72 29 23 55 22 22 54 22 26 65 28 20 51 21 19 48 20 25 64 27 27 68 29 22 55 23 25 61 25 25 61 25 23 57 23 30 72 30 23 56 23 23 55 22 29 69 29 25 59 24 24 57 23 33 77 32 32 75 31 31 71 29 30 68 27 32 72 29 31 70 28 36 83 34 34 79 33 32 76 32 26 64 27 19 51 21 16 45 19 13 40 17 11 35 15 7 26 11 11 37 16 11 36 16 17 49 22 14 39 16 17 46 19 27 67 29 30 73 31 31 72 30 38 88 37 33 74 29 35 77 30 38 84 33 41 90 36 43 95 38 45 100 41 40 89 36 31 70 27 34 79 33 29 68 28 24 59 24 17 43 17 23 60 26 20 54 23 21 54 23 15 41 16 17 46 18 21 52 21 29 70 30 25 61 25 23 56 22 27 65 27 24 59 24 23 56 23 29 69 29 28 68 29 27 66 27 30 70 29 27 63 26 35 82 34 28 65 26 34 79 33 32 75 31
30 69 27 34 78 32 34 80 34 29 70 29 26 64 26 28 69 29 25 60 25 26 62 26 26 62 25 30 71 30 25 60 24 30 71 29 30 71 29 34 79 34 27 65 26 30 71 30 22 52 21 25 61 25 21 51 20 30 73 31 26 64 26 28 66 27 34 80 33 31 71 29 32 74 30 38 87 37 37 85 36 31 71 29 27 64 26 23 56 23 21 53 22 16 43 18 13 38 16 7 26 11 9 32 14 12 39 18 13 41 18 14 43 19 9 30 12 22 59 26 18 46 19 21 53 21 28 66 27 33 77 32 40 92 38 39 87 35 42 92 37 39 85 33 39 86 34 40 88 36 41 93 39 37 85 35 35 82 34 27 63 26 28 68 29 25 62 26 20 51 20 26 63 27 28 68 29 26 62 26 27 65 27 26 61 25 31 74 31 27 63 25 27 64 26 23 55 22 27 66 27 25 60 24 27 65 27 22 54 22 21 52 21 24 58 23 26 63 26 27 63 26 30 70 29 30 70 29 29 66 27 25 59 23 29 68 28 29 69 29 27 67 28 17 46 19 15 43 18 12 37 16 11 35 15 10 34 15 6 24 10 10 33 14 13 40 17 19 52 23 22 57 24 26 63 27 31 75 32 27 62 24 35 80 33 39 88 36 39 87 35 38 82 32 45 99 40 38 84 33 41 91 37 36 81 33 29 66 26 32 76 32 28 66 28 23 57 24 21 53 22 26 65 28 19 50 20 23 58 24 20 50 20 28 67 28 30 72 30 26 63 26 32 76 32 24 58 23 29 69 29 28 68 28 25 62 26 22 54 22 25 61 26 28 69 30 21 52 21 26 65 27 25 61 25 28 68 28 24 58 23 33 78 33
26 61 24 26 61 24 27 66 27 23 55 22 23 55 22 28 68 28 32 75 32 34 80 34 30 69 28 33 75 31 34 79 32 29 66 26 35 80 33 34 79 33 29 68 27 25 59 23 29 71 30 21 53 21 25 62 26 19 49 20 25 62 26 26 64 27 21 52 21 26 62 25 29 69 28 34 81 34 26 61 24 33 77 32 29 70 29 22 53 21 19 49 20 14 38 15 16 46 20 10 32 13 8 28 12 7 27 11 9 31 13 11 36 15 14 41 17 16 43 17 22 56 24 28 68 29 33 78 33 29 67 26 34 77 31 41 92 38 42 94 39 44 97 40 41 91 37 38 85 35 31 69 27 36 83 35 27 64 26 23 54 22 21 51 20 23 57 23 22 54 22 25 61 25 29 69 28 33 77 32 30 68 28 28 64 25 31 71 28 32 75 31 31 72 30 31 73 30 23 54 22 22 54 22 26 66 28 18 48 19 16 43 17 19 48 20 18 45 18 21 54 22 21 52 21 29 70 29 24 57 23 26 63 25 26 62 25 28 69 29 19 48 19 25 64 28 14 39 16 12 35 15 9 29 12 9 32 14 9 32 13 17 49 22 14 41 17 14 40 17 16 43 17 20 50 20 28 67 27 30 68 27 39 87 36 39 87 35 36 78 30 45 101 42 40 89 36 43 96 40 35 78 31 29 66 26 34 80 33 29 68 28 23 55 22 21 53 21 20 49 20 23 57 23 26 64 27 30 72 30 30 72 30 30 69 28 28 64 26 36 83 35 31 73 30 24 57 22 26 63 26 26 64 27 27 67 28 20 53 22 19 49 20 19 51 21 15 40 16 20 52 22 18 45 18 21 52 21 20 50 20 26 63 26
31 74 31 22 54 21 23 56 22 22 53 21 22 53 21 29 68 28 31 73 30 35 80 33 38 87 36 35 79 32 42 95 39 35 78 31 30 68 26 36 83 34 34 80 33 24 56 22 24 59 25 24 61 26 24 61 26 20 52 22 18 49 20 18 49 20 23 58 25 27 67 29 23 57 23 27 65 27 32 76 32 30 72 30 31 74 32 29 72 31 18 47 19 20 53 23 19 52 23 9 30 12 16 48 21 8 29 12 14 42 18 15 43 19 18 49 21 18 47 19 23 58 24 32 76 32 30 69 28 38 87 36 37 84 34 36 80 32 38 84 34 33 73 28 39 89 37 30 67 26 32 74 31 24 56 22 25 60 24 22 53 21 21 51 20 29 71 30 24 56 22 33 76 32 35 81 34 36 82 34 36 82 34 39 89 37 31 70 28 35 80 33 27 62 25 27 64 26 24 58 24 23 59 25 22 56 24 17 47 20 17 46 19 13 37 15 14 38 15 21 54 23 20 51 21 24 59 25 25 60 25 26 63 26 26 62 26 22 53 21 20 49 20 18 46 18 18 48 20 12 35 14 15 43 18 17 48 21 13 38 16 15 44 19 18 50 21 18 47 20 24 59 25 30 73 31 31 72 30 29 66 26 33 73 29 38 86 35 40 90 37 36 78 31 41 93 38 34 75 30 29 65 25 32 74 30 33 77 33 31 76 32 28 68 29 29 70 30 27 66 27 30 72 30 26 61 24 30 71 29 34 77 32 37 85 36 35 81 33 37 86 36 33 78 32 30 70 29 27 64 27 23 59 24 25 64 28 15 41 17 14 39 16 12 36 15 14 40 17 12 35 14 21 55 24 17 45 18 21 54 22 29 71 30
27 66 28 24 59 25 23 57 23 29 70 29 28 67 27 28 65 26 32 73 29 41 92 38 41 91 37 36 79 31 39 87 35 34 74 29 36 81 33 28 65 25 28 65 26 29 70 29 24 59 25 20 53 22 12 35 14 12 35 14 19 52 23 20 54 24 17 47 20 18 47 19 24 60 25 24 60 25 30 73 31 30 73 31 26 63 26 29 70 30 25 61 26 24 61 26 22 58 25 20 54 23 19 52 23 11 34 14 13 37 15 15 41 17 23 58 25 19 49 20 24 59 24 25 60 24 32 75 31 30 68 27 34 77 31 32 72 29 36 82 34 36 83 34 35 81 34 31 73 30 29 69 29 27 65 27 25 61 25 30 72 30 30 71 30 32 74 31 30 69 28 31 69 27 40 91 38 40 91 37 42 95 39 42 95 40 31 70 27 38 88 37 26 60 23 29 70 29 20 51 21 22 57 25 21 57 25 14 41 17 12 36 15 16 47 20 16 47 20 19 53 23 21 56 24 23 60 26 27 67 29 23 56 23 22 53 21 27 64 27 22 54 21 22 55 22 18 45 18 15 41 16 14 40 16 20 53 23 21 55 24 15 41 17 20 52 22 19 48 19 23 57 23 30 71 29 30 69 28 30 68 27 31 69 27 35 77 31 41 93 39 38 86 35 39 89 37 34 77 32 33 76 32 31 73 30 32 76 32 27 67 28 25 62 25 28 67 28 33 77 32 28 65 26 31 71 29 37 85 35 33 74 29 34 75 30 34 76 30 39 89 37 32 74 31 30 72 30 23 56 23 16 43 17 22 59 26 19 52 23 17 49 22 8 28 12 14 42 19 15 45 20 12 34 14 18 48 20 20 51 21 20 50 20
23 57 24 28 70 30 29 71 30 33 77 33 28 63 25 39 89 37 42 94 39 37 81 32 40 88 35 42 93 37 38 85 34 34 76 30 33 75 30 35 82 34 29 70 29 22 56 23 16 42 17 16 45 19 10 32 13 16 46 20 8 28 11 16 46 21 19 52 23 16 44 18 20 53 22 21 53 22 24 58 24 24 59 24 28 68 28 28 67 28 25 61 25 26 63 27 18 45 18 16 42 16 22 57 24 18 49 20 21 56 24 19 50 20 22 54 22 25 61 25 29 69 29 29 68 28 32 75 31 31 71 29 29 67 27 36 84 35 31 72 30 28 65 27 28 67 28 27 66 28 21 51 20 26 63 26 23 57 23 29 68 28 31 72 29 33 76 31 40 90 38 36 79 31 39 87 35 45 100 42 35 76 30 33 74 29 39 89 37 35 80 33 27 64 26 20 50 20 16 43 17 18 50 21 18 50 22 10 31 13 11 36 16 10 34 15 10 32 13 15 44 19 16 43 18 16 43 17 27 68 29 28 67 28 26 61 25 28 67 27 32 76 32 32 76 32 23 57 23 24 59 25 20 51 21 17 44 17 23 60 25 25 64 28 18 46 18 25 62 26 31 74 32 32 75 32 27 63 25 29 67 27 34 79 32 38 87 36 34 78 32 27 63 25 31 73 30 31 73 30 31 74 31 28 67 28 28 69 29 26 64 26 31 73 31 29 68 28 35 80 33 31 70 27 33 73 28 34 75 29 34 75 29 36 81 32 37 84 34 34 78 32 32 76 32 28 67 28 17 45 18 19 51 22 13 38 16 8 27 11 15 44 20 10 33 14 11 35 15 14 42 19 11 34 14 20 53 23 16 42 17 25 61 25
24 61 26 23 57 23 30 72 30 28 65 26 30 68 26 38 84 34 44 97 40 37 80 31 39 84 33 39 86 34 42 94 39 32 71 28 33 75 31 30 72 30 29 69 29 23 59 25 18 48 20 10 31 13 10 32 14 14 42 19 7 26 11 8 29 12 15 44 20 11 33 14 19 51 21 25 63 27 22 55 22 25 59 24 33 77 33 26 60 24 29 69 29 24 57 23 26 63 26 21 51 20 24 59 24 21 52 21 28 69 30 24 60 25 25 62 26 25 61 25 31 74 31 29 69 29 28 67 27 31 73 30 24 57 22 31 74 31 29 70 29 22 54 22 25 62 26 23 57 24 22 56 23 27 67 28 29 70 29 33 78 32 32 74 30 31 70 27 36 80 32 37 80 31 41 90 36 38 83 33 37 81 32 41 92 38 30 67 26 35 82 35 24 58 23 20 50 20 17 47 20 11 33 13 17 50 22 10 34 15 5 23 9 8 29 13 8 28 11 14 42 18 19 52 22 22 56 24 24 59 25 23 54 21 29 68 28 29 68 27 34 78 32 28 65 26 27 63 25 26 61 25 30 72 30 25 61 25 27 67 28 23 57 23 28 69 29 22 54 21 32 76 32 29 68 28 31 72 30 29 68 28 28 65 26 32 75 31 32 75 32 27 65 27 23 55 22 26 63 26 26 64 26 26 65 27 27 66 27 24 58 23 30 69 28 29 66 26 34 77 31 38 85 34 38 84 34 43 94 39 40 89 36 37 82 33 31 69 27 29 68 27 23 55 22 26 63 27 22 58 25 15 43 18 16 46 20 15 44 20 13 41 18 13 41 18 11 37 16 15 45 20 14 41 17 20 54 23 25 62 26 23 56 22
21 53 21 24 59 23 33 78 32 35 79 32 40 90 37 36 78 31 46 101 42 44 97 39 43 94 38 37 81 32 35 79 32 35 81 33 27 63 25 29 70 29 25 62 26 17 45 18 12 35 14 10 33 14 7 27 11 8 29 12 9 33 14 16 48 22 10 32 13 17 46 20 17 46 19 26 63 27 22 53 21 30 71 29 36 83 35 35 81 33 33 75 31 36 83 34 27 63 25 32 75 31 30 70 29 22 54 21 28 67 28 29 70 29 25 60 24 25 60 25 27 66 27 23 56 22 29 69 29 26 64 27 29 72 31 28 69 30 24 60 25 19 48 20 17 44 17 21 53 22 20 50 20 30 73 31 25 58 23 33 75 30 35 78 31 41 92 38 45 99 41 38 82 32 40 87 35 42 94 38 35 78 31 36 82 34 33 77 32 27 65 27 27 66 28 23 60 26 16 44 18 10 33 13 12 36 16 14 43 19 10 33 14 15 46 21 16 47 21 15 44 19 17 46 19 22 55 23 30 72 30 34 80 34 28 65 25 31 71 28 33 74 29 38 85 35 36 83 34 28 64 25 27 63 25 27 63 25 27 65 26 25 60 24 30 72 30 29 69 29 25 62 25 27 64 26 31 75 32 28 68 29 28 68 28 24 59 24 22 55 22 28 69 30 19 48 19 22 56 23 22 55 22 27 65 27 23 56 22 27 62 24 30 69 27 40 89 37 43 96 39 37 81 32 46 102 42 41 89 36 36 79 31 32 70 28 32 74 30 29 68 28 24 58 24 25 64 27 19 51 22 14 41 17 9 29 12 8 27 11 14 42 19 10 33 14 12 38 16 13 38 16 19 50 21 22 56 24 29 70 30 26 62 25
24 59 24 31 71 29 37 84 35 41 92 38 40 90 36 44 98 40 46 102 42 44 98 40 43 95 39 37 83 34 32 73 29 33 76 32 31 75 32 29 72 31 17 45 18 18 48 20 12 36 15 18 51 23 8 27 11 14 43 19 10 32 14 14 42 19 14 41 17 19 52 22 17 45 18 30 73 31 25 59 23 33 76 31 38 86 35 39 89 37 37 83 33 34 76 30 38 87 36 30 68 27 27 63 25 33 77 32 24 57 23 29 70 29 29 71 30 26 65 27 29 71 30 19 48 19 24 61 26 20 51 21 21 54 23 22 58 25 21 55 24 19 50 21 25 63 27 25 63 27 24 59 24 30 70 29 32 74 30 32 71 28 41 91 37 37 80 31 37 80 31 38 82 32 38 84 33 39 88 36 33 74 30 32 73 30 30 71 30 24 60 25 18 46 18 15 40 16 15 42 17 15 44 19 10 33 14 11 34 14 17 50 23 14 42 18 13 39 16 20 53 23 25 63 27 26 63 26 33 79 33 29 66 26 35 79 32 40 89 36 34 75 29 40 88 36 34 74 29 38 87 36 34 79 32 35 82 34 27 63 25 30 72 30 30 73 31 22 53 21 29 71 30 26 65 27 24 59 25 19 48 19 20 52 21 21 54 23 24 61 26 21 54 22 25 64 27 24 60 25 22 55 22 25 59 23 34 80 33 30 68 27 34 76 30 36 79 31 43 95 39 40 86 34 37 81 32 35 78 30 39 88 36 34 77 31 30 71 29 24 59 24 24 60 25 16 43 17 16 44 18 18 51 22 13 40 17 11 35 15 11 34 14 14 42 18 13 39 16 16 44 18 25 64 28 19 48 19 27 64 26 30 70 28
28 66 27 35 82 34 37 84 35 43 96 40 36 79 31 43 97 40 42 94 39 41 93 38 38 87 36 38 87 36 34 81 34 24 58 23 28 67 28 22 55 23 23 59 25 15 42 17 19 52 22 15 44 19 12 37 16 13 39 17 12 36 15 11 34 14 20 54 23 22 56 24 20 49 19 28 66 27 35 81 34 40 90 38 38 85 34 39 85 34 37 82 32 38 84 34 41 92 38 31 71 28 32 73 29 29 68 27 33 78 33 26 62 26 26 64 27 23 58 24 19 50 21 22 57 24 18 49 21 15 43 18 19 51 22 21 56 25 16 44 19 17 46 19 22 56 24 21 53 21 26 61 25 28 65 26 35 80 32 40 88 36 36 78 30 42 92 37 37 80 31 38 84 34 39 89 36 38 86 35 34 79 32 31 74 31 27 65 27 20 50 20 22 57 24 15 41 16 14 38 15 13 37 15 20 53 23 12 36 15 20 55 24 15 41 17 17 46 19 20 53 22 24 60 25 23 55 22 34 78 32 37 84 34 35 78 31 42 93 38 40 88 35 38 83 33 40 89 36 36 81 32 30 68 26 30 70 28 30 71 29 31 75 32 26 63 27 19 49 20 24 62 26 18 48 20 23 60 26 21 55 24 16 45 19 13 37 15 23 60 26 23 60 26 25 63 27 19 48 19 27 65 27 31 73 30 35 79 32 35 78 31 45 100 41 37 81 32 38 82 32 40 87 35 44 98 41 34 75 30 33 76 31 32 76 32 23 55 22 26 63 27 25 64 27 15 41 16 18 48 20 22 58 25 17 46 20 13 38 16 13 38 15 22 58 25 14 39 16 19 49 20 22 55 23 23 57 23 32 76 32 37 84 35
32 75 31 33 75 30 41 93 39 37 82 33 42 94 39 36 80 32 39 89 37 30 68 27 31 70 28 27 64 26 23 55 22 24 59 24 26 65 27 24 61 25 23 58 24 22 56 23 17 46 19 19 51 21 23 60 26 18 50 21 19 51 22 24 62 27 26 65 28 26 64 27 22 54 21 31 71 29 34 77 31 33 74 29 40 89 36 37 80 31 41 90 36 37 80 31 39 86 35 40 91 38 31 70 28 26 62 24 25 60 24 26 64 27 24 61 26 17 46 19 12 35 14 15 43 18 11 35 14 17 48 21 11 33 14 19 53 24 12 36 14 18 48 20 27 67 29 26 62 26 34 79 33 32 73 29 34 75 29 41 91 37 39 85 34 42 93 38 39 86 35 39 89 37 38 86 36 33 77 32 30 71 30 23 56 22 21 50 20 26 65 28 21 54 22 17 44 17 22 56 24 17 45 18 20 52 22 20 52 22 16 42 17 23 58 25 26 66 29 19 47 18 23 56 23 24 57 22 29 66 26 41 92 38 38 84 33 36 79 31 41 89 36 45 99 41 43 95 39 39 87 35 38 86 36 34 79 33 29 68 28 25 61 25 19 50 20 18 48 20 17 47 20 14 41 17 19 52 23 16 46 20 18 51 23 20 54 24 21 55 24 22 57 25 22 56 23 25 62 26 33 77 32 34 77 32 38 86 35 39 87 35 44 97 40 41 89 36 36 78 30 34 75 29 36 81 32 29 66 26 34 79 33 28 67 28 24 58 24 27 67 29 22 56 23 22 55 23 22 57 24 20 51 21 21 54 23 25 64 28 25 64 28 25 63 27 25 62 26 23 58 24 22 55 22 28 67 28 35 81 34 34 79 32
37 85 35 34 77 31 38 85 35 37 84 34 32 72 28 35 81 33 27 62 24 32 76 31 26 61 24 25 61 25 28 67 28 23 56 23 29 70 29 29 72 30 21 51 20 21 52 21 23 58 24 25 62 26 26 65 28 26 64 28 17 45 18 24 60 25 27 68 29 23 55 22 30 71 29 27 62 24 32 72 29 38 85 35 40 89 36 37 79 31 38 84 33 37 81 32 43 97 40 39 88 37 35 80 33 28 68 28 27 67 28 20 50 21 18 47 20 13 37 15 10 31 13 12 37 16 7 25 10 7 26 11 15 44 19 16 45 19 15 41 17 16 42 17 22 55 22 33 78 33 38 87 36 35 78 31 33 73 29 41 92 38 38 84 34 40 90 37 36 81 33 37 87 36 26 60 24 27 63 26 22 53 21 27 65 27 26 64 27 24 58 24 25 60 25 29 70 30 24 60 25 20 49 19 28 69 30 25 63 26 24 61 25 20 51 20 28 69 29 24 58 24 25 60 24 27 63 25 30 68 27 39 87 36 35 77 30 41 90 36 45 100 41 40 88 35 35 77 30 37 84 34 37 86 36 30 70 29 22 54 22 26 66 29 16 43 18 11 33 13 18 51 23 8 28 11 17 49 22 10 33 14 12 36 15 13 38 16 19 52 22 25 64 28 22 56 23 32 77 33 27 62 24 34 76 30 33 74 29 38 83 33 37 82 32 44 99 41 37 83 33 31 70 28 30 69 27 29 67 27 32 76 32 25 60 25 24 59 24 27 66 28 22 55 23 29 71 30 26 65 27 27 65 27 24 58 24 25 61 25 22 55 22 27 66 28 23 56 23 21 52 21 22 53 21 23 56 22 30 70 29 29 66 26
34 78 32 37 86 36 33 75 30 34 78 32 33 77 32 27 62 25 25 60 24 23 55 22 22 55 22 23 55 22 23 55 22 27 64 26 28 67 27 29 68 28 30 70 29 29 68 28 27 65 26 24 58 23 25 60 25 21 52 21 25 60 25 27 66 28 22 55 22 30 71 30 32 77 32 36 84 35 38 87 36 38 84 34 41 90 37 37 81 32 40 87 35 37 81 32 36 80 32 37 84 35 35 83 35 24 58 23 19 48 19 17 46 19 12 35 14 11 35 15 16 48 22 11 36 16 6 24 10 13 41 18 13 40 17 19 52 23 19 50 21 26 65 28 28 68 28 29 68 28 33 76 31 39 89 37 32 72 28 36 81 33 31 70 27 32 73 30 32 75 31 26 62 25 27 64 26 23 57 23 30 73 31 21 51 20 23 56 22 26 62 25 29 68 28 34 80 34 33 78 33 28 67 27 28 67 28 32 77 32 28 68 28 29 71 30 23 57 23 30 72 31 27 65 27 32 76 32 34 79 33 38 86 36 40 89 37 42 94 39 37 83 33 38 85 34 37 82 33 36 82 34 32 74 30 27 63 26 22 56 23 17 44 18 15 42 18 11 33 14 13 39 17 11 37 16 10 33 14 13 42 19 11 34 15 12 35 14 18 49 21 21 53 22 27 66 27 33 77 32 35 81 33 33 75 30 35 77 30 41 91 37 33 73 28 33 74 29 32 73 29 36 83 35 25 59 23 28 66 27 26 62 25 22 55 22 28 67 28 31 75 32 28 67 28 31 74 31 33 79 33 28 67 27 27 62 25 27 64 26 27 64 26 27 65 27 23 55 22 24 58 24 26 62 26 23 56 22 33 79 33 34 79 33
33 76 31 30 69 28 33 78 32 30 72 30 30 72 30 24 60 25 25 61 25 23 57 24 19 48 19 29 70 30 27 66 27 28 66 27 33 77 32 28 65 26 31 71 29 33 76 31 29 66 26 28 65 26 33 78 32 24 57 22 29 71 29 30 72 30 30 72 31 30 71 30 31 73 31 30 71 29 28 64 25 37 83 34 41 93 39 42 94 39 33 74 29 38 85 35 33 75 30 34 79 33 29 68 28 21 52 21 25 63 27 17 48 20 12 35 15 15 44 20 10 34 15 8 30 13 15 45 20 16 48 21 10 32 13 15 42 17 26 65 28 26 64 27 26 61 24 31 71 29 31 71 28 39 89 37 37 85 35 28 63 25 35 82 35 27 63 25 25 59 24 30 74 31 29 71 30 25 61 25 25 61 25 26 61 25 29 67 27 28 64 25 31 72 29 33 75 30 35 79 32 36 82 34 33 76 31 30 70 28 33 78 33 30 71 30 31 74 31 29 70 29 26 64 26 23 56 22 25 59 23 29 67 27 34 78 32 34 77 31 39 88 36 35 80 33 39 90 38 30 69 28 27 63 25 21 52 20 19 48 19 14 38 15 14 41 18 8 28 11 8 28 12 12 40 18 14 43 19 16 48 22 12 36 15 17 47 20 22 58 25 27 66 28 26 63 25 31 72 29 33 75 30 37 85 35 41 93 39 35 80 32 34 77 31 35 80 33 32 74 31 30 70 29 30 71 30 22 54 22 28 67 28 28 68 28 23 56 22 33 79 33 26 61 24 31 71 28 36 82 34 31 71 28 30 68 27 30 68 27 32 75 31 26 63 25 26 62 25 30 73 31 28 68 29 23 57 24 22 55 22 28 67 28
27 63 26 25 59 24 27 65 27 20 50 20 20 51 21 19 49 20 20 52 22 24 62 26 21 52 21 22 53 21 25 60 24 31 73 30 32 74 30 31 71 28 37 82 33 37 84 34 39 88 36 37 84 34 38 87 36 27 63 25 33 78 33 31 74 31 24 58 23 30 73 31 22 53 21 30 71 30 33 78 33 35 82 35 31 71 28 33 76 31 31 70 28 39 89 37 36 83 34 31 73 30 26 62 25 19 49 19 18 48 20 16 44 19 18 52 23 12 38 17 15 45 20 16 48 22 16 46 21 13 40 17 16 45 19 22 56 24 19 48 19 26 63 26 29 67 28 33 77 32 33 77 32 32 74 30 29 69 28 30 71 30 24 57 23 27 66 28 21 53 22 27 68 29 22 54 22 28 68 29 23 56 22 25 58 23 36 83 34 35 80 32 37 83 34 40 90 37 36 81 32 35 79 32 31 69 27 31 70 28 31 74 30 27 65 26 23 56 23 23 57 23 26 64 27 19 47 19 25 62 26 25 60 24 24 57 22 27 63 25 29 66 26 35 80 33 36 84 35 29 68 27 30 73 31 28 68 29 18 47 19 16 44 18 10 32 13 15 44 20 11 35 15 8 28 12 7 26 11 17 49 22 14 41 17 23 59 26 22 56 23 25 62 25 25 60 24 27 62 24 36 83 34 35 81 33 31 72 29 32 73 30 32 75 31 24 57 22 26 64 26 23 55 22 30 72 31 27 66 28 23 56 23 28 65 27 32 76 31 28 64 25 33 74 29 40 91 38 41 93 39 38 85 35 37 85 35 34 77 31 29 66 26 30 71 29 31 74 31 29 71 30 20 51 21 24 60 25 18 47 19 26 66 28
26 63 26 23 58 24 20 52 22 24 61 27 17 45 19 15 42 17 16 42 17 22 57 24 20 49 20 28 68 28 29 69 28 33 76 31 36 81 33 36 81 32 38 85 34 42 93 38 38 85 34 34 76 30 31 70 28 33 75 30 28 65 26 31 75 32 26 65 27 19 49 19 19 49 20 28 69 29 20 49 19 24 59 24 31 73 30 32 75 31 32 75 31 36 83 35 34 79 33 32 75 31 25 61 25 23 57 24 22 57 24 14 38 16 19 53 23 16 47 21 12 37 16 10 33 14 12 37 15 18 48 21 22 58 25 26 66 28 27 67 28 31 75 32 24 57 22 27 63 25 30 71 30 32 77 33 22 53 21 26 65 27 18 47 19 22 55 23 20 52 22 21 54 22 21 53 21 24 59 24 26 61 25 36 84 35 30 68 27 41 93 39 37 81 32 36 80 31 43 95 39 41 92 38 34 75 30 33 76 31 34 79 33 24 57 23 26 63 26 24 59 25 17 45 18 24 61 26 26 65 28 18 45 18 24 59 24 30 72 30 30 71 29 33 77 33 26 61 24 26 62 25 29 70 29 25 63 26 21 54 22 15 42 17 20 53 23 19 53 24 16 46 20 15 44 19 18 50 22 20 54 24 19 50 21 18 48 20 27 66 28 30 71 30 31 73 30 35 82 34 30 70 28 33 76 32 30 71 29 30 72 30 30 72 30 26 64 27 21 52 21 24 59 25 24 58 24 21 52 21 26 63 26 33 78 32 29 66 26 35 80 32 40 88 36 38 84 34 43 96 39 40 88 36 35 78 31 36 81 33 34 79 33 25 59 23 23 57 23 22 56 23 19 50 20 14 39 16 14 38 15 22 57 25
20 51 21 22 56 24 22 59 26 15 42 18 14 39 16 12 36 14 19 51 22 24 62 26 24 60 25 23 56 22 31 72 30 35 79 32 34 76 30 42 94 38 39 84 33 45 100 41 36 78 30 40 88 36 33 74 29 31 70 28 28 67 27 27 65 27 19 48 19 21 53 22 24 63 27 18 46 19 16 42 17 20 51 21 29 70 30 29 69 29 32 77 32 26 61 25 32 77 32 30 71 30 29 70 29 28 69 30 18 46 19 23 59 25 18 50 21 17 46 20 17 47 20 17 46 19 20 53 23 20 53 22 18 46 19 27 68 29 21 52 20 26 62 26 23 55 22 27 66 27 23 55 22 26 64 27 21 54 23 24 62 27 14 38 15 19 51 22 21 55 24 21 54 23 21 52 21 24 57 23 32 75 31 31 72 29 32 71 28 43 97 40 37 81 32 41 90 36 46 102 42 38 84 34 34 75 30 30 67 26 34 80 33 29 70 29 27 67 28 26 66 28 18 48 20 19 51 22 15 41 17 17 46 19 25 63 28 27 67 29 25 62 26 23 57 23 23 55 22 29 71 30 26 63 26 27 65 27 20 51 21 22 57 24 23 61 27 20 54 23 18 50 22 16 44 19 20 54 24 22 58 25 21 53 22 24 60 25 25 61 25 28 66 27 24 57 23 33 78 33 24 57 22 28 66 27 26 62 26 27 67 29 27 68 29 17 45 18 17 45 18 21 54 22 19 47 19 22 54 22 24 58 23 37 86 36 37 83 34 34 76 30 36 78 30 43 95 39 42 91 37 42 93 38 39 87 35 36 82 33 30 68 27 33 77 32 23 56 22 18 46 18 15 41 17 14 40 17 15 43 18 12 35 15
16 44 18 18 50 22 14 40 17 16 47 21 11 35 15 17 49 22 18 49 21 24 62 27 24 60 25 31 75 31 33 77 32 31 70 28 35 77 30 42 93 38 45 99 40 40 86 34 40 87 34 39 85 34 38 86 35 30 68 27 32 74 30 30 73 31 21 54 22 16 41 17 19 50 21 17 47 20 13 36 15 20 53 23 15 41 16 23 58 24 28 69 29 30 72 31 22 53 21 26 63 26 30 73 31 29 71 30 20 50 20 20 51 21 18 48 19 19 50 21 18 46 19 25 63 27 26 66 29 25 62 26 25 62 26 28 67 28 25 61 25 25 61 25 30 72 31 23 57 23 22 56 23 21 54 23 18 49 21 16 46 19 17 49 21 17 47 20 21 57 25 23 58 25 21 52 21 26 63 26 32 74 31 37 84 35 41 92 38 44 97 40 38 83 33 39 84 33 42 93 38 39 87 35 35 77 30 32 72 28 27 62 24 23 55 22 27 67 29 17 44 18 16 43 18 17 49 21 16 46 20 14 42 18 15 42 18 23 60 26 24 61 26 25 62 26 26 64 27 23 57 23 28 68 28 26 63 26 22 53 22 26 66 28 24 60 25 17 44 18 20 53 22 25 63 27 23 59 25 24 61 26 24 59 25 24 59 24 29 72 30 28 67 28 31 74 32 27 65 27 28 68 29 20 50 20 19 49 20 24 62 27 15 41 17 19 52 22 14 39 16 22 56 24 22 56 24 30 73 31 26 60 24 31 70 28 35 79 32 37 81 32 41 89 36 39 86 34 43 95 38 43 95 39 43 96 40 35 79 32 28 63 24 27 63 25 26 63 26 18 48 20 21 57 25 11 33 13 11 35 15 13 39 17
16 46 20 9 29 12 11 35 15 10 34 15 7 26 11 15 44 19 19 52 23 19 50 21 25 62 26 23 56 22 29 67 27 32 72 28 40 89 36 41 92 37 45 100 41 46 102 42 37 81 32 38 83 33 40 90 37 29 66 26 29 68 27 32 76 32 18 46 18 22 58 25 21 56 24 11 34 14 18 51 22 13 39 16 16 44 19 18 48 20 19 51 21 27 67 29 24 59 25 27 65 27 21 52 20 28 68 29 24 60 24 28 67 28 29 70 30 23 57 23 29 72 31 25 60 25 22 54 22 21 52 20 25 61 25 30 73 31 25 60 24 20 50 20 26 65 27 24 60 26 21 56 24 19 52 23 17 48 21 8 28 11 11 34 15 19 53 24 13 37 15 20 52 22 18 45 18 27 65 27 32 74 31 29 66 26 34 76 30 39 88 35 42 93 38 40 88 35 45 100 41 36 78 30 39 88 36 36 82 34 37 85 36 27 65 27 19 48 19 15 41 16 13 37 15 14 42 18 11 35 15 12 37 16 16 46 20 19 54 24 17 46 19 20 52 22 20 50 20 27 66 28 23 56 23 26 63 26 23 55 22 23 55 22 30 72 30 24 60 24 27 66 28 25 62 26 24 58 24 30 72 31 29 70 30 29 70 30 22 52 21 27 65 27 25 60 25 28 69 29 19 49 20 16 43 17 17 48 20 14 41 17 19 53 23 20 55 24 19 51 22 14 40 16 19 49 20 23 56 23 26 61 24 38 87 36 41 93 39 37 82 33 40 87 35 46 102 42 44 98 40 43 96 40 36 79 32 35 78 31 33 77 32 24 56 22 27 67 28 19 49 20 13 37 15 12 35 15 11 36 15 15 45 20
18 52 23 8 29 12 9 30 13 8 30 13 14 43 19 11 35 15 16 44 18 24 61 26 24 60 25 30 73 31 27 62 25 35 81 33 38 86 35 37 82 33 42 93 38 42 94 38 37 82 33 38 85 34 36 82 33 38 88 37 36 84 35 30 71 30 20 49 20 20 53 23 14 41 17 9 29 12 8 28 12 8 27 11 9 29 12 10 31 12 17 46 20 24 61 27 22 55 23 29 72 31 22 52 21 26 63 26 32 77 33 31 74 31 24 56 22 33 79 33 29 69 28 26 60 24 29 69 28 33 78 33 31 73 30 30 71 30 23 55 22 28 68 29 22 56 23 19 51 21 16 45 19 13 40 17 12 37 16 10 34 15 16 47 21 16 46 21 14 40 17 14 38 15 27 68 29 29 70 30 33 78 33 32 74 30 33 75 30 37 82 33 44 98 41 38 85 34 42 93 38 42 95 39 40 89 37 31 71 28 27 62 24 30 71 29 24 59 24 21 54 23 15 42 17 12 36 15 9 30 12 13 40 18 15 45 20 14 41 18 14 40 17 16 44 18 25 63 27 21 53 22 23 56 23 27 64 26 27 64 26 27 64 26 29 69 28 34 81 34 33 79 33 32 75 31 33 79 34 30 72 30 32 75 32 32 77 32 30 73 31 26 64 27 26 63 27 21 54 22 19 49 21 15 43 18 18 51 23 16 47 21 14 42 18 13 40 17 12 35 15 13 36 14 18 47 19 23 56 23 28 65 27 36 82 34 31 69 27 33 74 29 34 76 29 42 95 39 37 81 32 38 84 34 36 81 33 39 89 37 31 72 29 31 73 31 27 65 27 21 54 22 23 60 26 13 39 17 8 27 11 13 42 19
11 33 14 11 35 15 11 36 16 9 30 13 15 45 20 17 49 21 14 41 17 19 50 21 20 51 21 26 64 27 25 60 24 29 66 27 35 80 33 31 70 28 31 69 27 38 85 35 40 90 37 34 77 31 32 71 28 33 76 31 34 78 33 26 61 24 22 55 22 23 59 25 16 44 18 11 35 15 10 32 13 14 43 19 7 26 11 16 48 22 12 37 16 17 46 19 18 47 20 26 65 28 25 62 26 30 71 29 25 59 23 30 69 28 35 82 34 30 70 28 30 68 27 31 72 29 32 74 30 36 84 35 34 78 32 31 72 30 27 63 26 26 63 26 23 59 25 21 57 24 14 40 17 10 33 14 15 46 21 10 34 15 14 43 19 11 35 15 12 36 15 16 43 18 18 46 18 25 62 26 31 75 31 33 77 32 34 79 32 36 81 33 35 79 32 32 73 29 33 73 29 32 71 28 34 77 31 30 68 27 31 71 29 29 69 28 27 66 27 25 62 27 21 56 24 16 46 20 8 27 11 13 40 18 14 43 20 15 46 21 9 29 12 20 55 24 23 60 26 18 46 19 29 72 31 23 55 22 32 74 31 28 65 26 36 83 35 36 83 34 33 76 31 29 67 27 33 77 31 33 77 31 28 66 26 27 62 25 33 79 33 27 65 27 19 47 19 20 51 21 13 38 15 17 48 21 16 47 21 11 36 16 6 24 10 9 32 13 11 34 14 19 53 23 16 42 17 26 64 27 31 74 31 28 66 26 37 86 36 32 72 28 32 72 28 37 83 34 37 82 33 32 71 28 31 69 27 37 86 36 35 82 34 34 80 34 29 69 29 25 63 27 19 49 20 18 50 22 18 50 22 14 42 19
11 34 14 15 44 19 11 36 16 14 42 18 16 47 21 16 44 19 20 54 23 21 54 23 26 64 27 28 69 29 27 64 26 31 74 31 29 67 27 34 79 33 27 63 25 37 86 36 28 64 25 38 88 37 33 76 31 37 86 36 32 73 30 29 70 29 27 65 27 27 67 29 23 60 26 20 54 24 9 30 13 6 25 10 9 32 14 7 26 11 9 30 13 11 34 14 17 45 19 24 62 26 28 69 29 27 65 27 31 72 29 34 77 32 39 89 37 39 88 36 40 92 38 39 87 36 34 76 30 39 88 36 37 84 35 31 71 28 29 68 28 22 52 20 22 55 23 19 49 21 20 55 25 16 46 21 13 41 18 15 46 21 8 28 12 16 48 21 17 48 21 18 49 20 16 43 17 25 62 26 29 69 29 33 77 32 33 78 33 29 68 27 33 75 31 29 68 27 35 80 33 37 85 35 29 67 27 35 82 34 33 77 32 26 62 25 27 66 27 28 69 30 18 47 19 18 49 21 15 43 19 11 36 16 15 45 20 15 46 21 16 47 21 17 49 22 15 43 18 15 40 16 19 47 19 23 56 22 30 71 29 34 79 32 39 89 37 32 73 29 34 76 30 34 76 30 32 71 28 38 87 36 32 73 29 31 71 29 27 62 25 26 63 26 27 67 28 17 44 18 13 37 15 15 44 19 9 32 14 8 30 13 12 39 17 15 46 21 15 43 19 15 43 18 22 57 24 26 65 28 31 75 32 28 67 27 27 63 25 28 65 25 37 85 35 32 74 30 35 80 33 32 73 30 35 82 34 27 64 25 32 75 31 25 58 23 29 71 30 26 63 26 24 60 25 23 60 26 20 54 24 19 53 24
20 54 23 14 40 17 11 34 14 20 54 24 13 37 15 22 58 25 23 59 25 20 51 21 28 68 29 29 71 30 27 65 27 30 73 31 31 74 31 32 76 32 24 58 23 28 67 27 33 78 33 29 68 28 31 72 30 34 79 33 28 65 26 27 63 25 23 55 22 25 62 26 19 48 20 21 56 24 12 35 14 12 37 16 10 33 14 5 23 9 7 27 12 9 30 13 11 34 14 23 60 26 17 45 18 22 55 22 30 69 28 34 77 32 40 92 38 37 82 33 36 80 32 44 99 41 39 86 34 36 80 32 35 79 31 36 81 33 27 62 24 27 65 26 26 64 27 20 52 21 19 52 23 16 45 19 17 50 22 14 41 18 17 50 22 15 44 19 18 49 21 21 54 23 21 52 21 27 66 28 25 61 25 28 66 28 30 72 30 30 72 30 29 68 28 27 64 26 26 61 25 24 58 23 24 56 22 34 79 34 25 58 23 32 76 32 31 75 32 24 58 24 22 55 23 23 59 25 21 56 25 17 48 21 12 38 17 13 40 18 13 40 18 14 43 19 19 52 23 19 51 22 25 63 27 29 71 30 32 77 32 30 68 27 34 76 30 38 85 34 38 85 34 35 77 30 36 79 31 43 96 40 41 93 38 34 77 31 35 81 33 24 57 22 29 71 30 23 58 24 20 53 23 20 54 24 11 34 15 7 26 11 14 42 19 13 41 18 13 39 17 12 35 14 19 51 21 21 53 22 28 68 29 31 76 32 32 77 33 25 59 23 26 61 24 31 74 31 32 76 32 30 72 30 29 69 29 30 71 30 26 63 25 24 57 23 30 71 30 23 55 22 20 50 20 21 54 22 20 53 22 14 39 16
15 41 16 14 38 15 20 54 23 17 47 19 18 47 20 18 46 19 27 67 29 23 56 23 28 68 29 24 58 23 27 65 27 29 70 30 27 67 28 22 55 22 20 51 20 26 65 27 22 53 21 22 53 21 28 68 28 24 57 23 31 74 31 28 66 27 25 61 25 25 62 25 25 62 26 20 52 22 15 42 17 20 55 24 12 37 16 14 42 19 6 24 10 8 29 12 14 41 18 21 56 25 19 51 21 28 68 29 23 55 21 32 74 30 33 76 30 41 93 38 35 78 30 38 83 33 40 88 35 41 90 36 36 78 31 39 87 36 37 84 35 30 71 29 24 59 24 23 58 24 24 61 27 13 36 15 20 54 24 20 54 24 20 54 23 18 48 20 24 61 26 26 65 28 24 61 25 29 72 31 22 54 22 28 69 29 27 66 27 28 68 29 24 59 24 27 67 28 27 67 28 26 65 27 27 66 28 24 59 24 30 73 31 29 70 30 24 57 23 30 73 31 24 59 24 25 63 27 23 59 25 18 48 20 11 34 14 14 41 18 12 36 16 10 33 14 16 47 21 16 45 19 19 50 21 24 60 25 29 71 30 33 77 32 38 86 36 35 77 31 38 85 34 40 88 35 40 89 35 42 94 38 41 91 37 39 88 36 39 88 37 35 82 34 23 56 22 19 48 19 16 42 17 14 39 16 17 49 22 8 28 11 16 46 20 10 32 13 14 41 17 21 56 24 22 57 24 27 67 29 24 58 24 29 71 30 25 61 25 24 58 24 22 54 21 21 51 20 19 48 19 24 58 24 21 53 21 27 67 28 25 62 26 29 72 31 28 68 28 28 68 29 28 68 28 23 55 22 25 62 26 23 58 25
25 63 27 22 57 24 26 66 28 23 57 24 29 70 30 29 69 29 25 59 24 32 76 32 29 69 28 29 69 28 32 76 32 30 73 31 27 66 28 26 66 28 25 63 27 17 43 17 19 49 20 23 59 25 17 44 18 24 59 25 27 67 28 29 71 30 25 61 25 26 64 26 22 54 21 22 56 23 23 59 25 18 48 20 21 56 25 14 41 17 12 36 16 16 46 21 11 34 14 13 37 16 17 47 20 22 55 23 27 67 28 34 81 34 37 86 36 32 71 28 35 77 30 43 94 38 45 99 40 40 88 35 45 99 41 41 91 37 32 71 28 29 66 26 32 77 32 21 53 21 24 61 26 24 61 26 21 55 24 24 61 27 18 46 19 26 65 28 22 55 22 28 68 29 27 65 27 30 71 30 26 63 26 25 59 24 21 53 21 27 66 28 21 53 22 22 57 24 19 51 21 23 58 25 19 49 20 23 58 24 22 56 23 28 69 30 28 68 29 23 56 22 26 63 26 24 59 24 27 67 28 25 64 27 24 62 27 15 41 17 14 40 17 15 44 19 10 31 13 18 50 22 14 40 16 22 56 24 25 61 25 33 78 33 29 67 26 34 77 31 43 96 40 37 81 32 38 82 32 41 90 36 38 83 33 38 84 34 37 83 34 36 83 34 29 68 28 26 64 27 26 65 28 24 61 27 19 51 22 15 43 18 14 40 17 19 50 21 23 60 26 23 59 25 22 56 23 20 50 20 23 56 23 27 66 28 27 67 28 25 62 26 23 57 24 24 60 26 22 56 24 22 56 24 21 55 23 21 55 23 19 49 20 24 61 26 23 58 24 23 56 23 21 51 20 22 53 21 26 63 26 21 52 21
