P3
128 128
255
172 131 84 174 133 86 162 121 74 159 118 71 172 131 84 166 125 78 156 115 68 168 127 80 153 112 65 163 122 75 171 130 83 166 125 78 169 128 81 158 117 70 155 114 67 155 114 67 165 124 77 158 117 70 161 120 73 159 118 71 157 116 69 169 128 81 156 115 68 156 115 68 156 115 68 160 119 72 159 118 71 156 115 68 172 131 84 161 120 73 172 131 84 160 119 72 174 133 86 161 120 73 165 124 77 157 116 69 161 120 73 158 117 70 157 116 69 168 127 80 157 116 69 168 127 80 155 114 67 154 113 66 165 124 77 168 127 80 154 113 66 159 118 71 151 110 63 160 119 72 170 129 82 162 121 74 166 125 78 156 115 68 167 126 79 153 112 65 165 124 77 159 118 71 170 129 82 172 131 84 158 117 70 163 122 75 153 112 65 163 122 75 154 113 66 165 124 77 162 121 74 173 132 85 161 120 73 170 129 82 157 116 69 158 117 70 169 128 81 162 121 74 157 116 69 156 115 68 173 132 85 161 120 73 173 132 85 170 129 82 167 126 79 166 125 78 158 117 70 157 116 69 175 134 87 172 131 84 170 129 82 163 122 75 169 128 81 171 130 83 164 123 76 168 127 80 169 128 81 173 132 85 170 129 82 158 117 70 159 118 71 159 118 71 168 127 80 170 129 82 176 135 88 164 123 76 156 115 68 165 124 77 165 124 77 173 132 85 170 129 82 167 126 79 171 130 83 169 128 81 156 115 68 158 117 70 156 115 68 161 120 73 157 116 69 167 126 79 173 132 85 164 123 76 169 128 81 162 121 74 171 130 83 162 121 74 168 127 80 154 113 66 161 120 73 165 124 77 172 131 84 157 116 69
175 134 87 176 135 88 165 124 77 157 116 69 174 133 86 157 116 69 172 131 84 159 118 71 169 128 81 165 124 77 164 123 76 156 115 68 159 118 71 154 113 66 164 123 76 171 130 83 171 130 83 153 112 65 171 130 83 164 123 76 166 125 78 155 114 67 166 125 78 167 126 79 171 130 83 172 131 84 163 122 75 168 127 80 166 125 78 168 127 80 162 121 74 171 130 83 159 118 71 170 129 82 158 117 70 163 122 75 156 115 68 160 119 72 170 129 82 155 114 67 157 116 69 160 119 72 162 121 74 167 126 79 162 121 74 170 129 82 176 135 88 171 130 83 168 127 80 165 124 77 166 125 78 176 135 88 163 122 75 159 118 71 170 129 82 166 125 78 166 125 78 161 120 73 171 130 83 167 126 79 166 125 78 157 116 69 175 134 87 178 137 90 156 115 68 161 120 73 165 124 77 172 131 84 164 123 76 164 123 76 153 112 65 170 129 82 154 113 66 167 126 79 166 125 78 158 117 70 165 124 77 174 133 86 171 130 83 171 130 83 173 132 85 174 133 86 157 116 69 168 127 80 168 127 80 166 125 78 173 132 85 172 131 84 170 129 82 163 122 75 155 114 67 170 129 82 157 116 69 152 111 64 168 127 80 169 128 81 164 123 76 174 133 86 167 126 79 170 129 82 168 127 80 161 120 73 165 124 77 154 113 66 163 122 75 158 117 70 165 124 77 171 130 83 163 122 75 166 125 78 162 121 74 156 115 68 154 113 66 158 117 70 168 127 80 162 121 74 165 124 77 173 132 85 172 131 84 168 127 80 175 134 87 171 130 83 158 117 70 177 136 89 160 119 72 167 126 79 162 121 74 154 113 66
170 129 82 162 121 74 172 131 84 173 132 85 171 130 83 159 118 71 174 133 86 157 116 69 153 112 65 170 129 82 157 116 69 158 117 70 178 137 90 171 130 83 161 120 73 167 126 79 166 125 78 166 125 78 161 120 73 163 122 75 173 132 85 169 128 81 158 117 70 170 129 82 169 128 81 160 119 72 165 124 77 162 121 74 157 116 69 171 130 83 168 127 80 169 128 81 174 133 86 156 115 68 172 131 84 169 128 81 162 121 74 169 128 81 161 120 73 166 125 78 162 121 74 166 125 78 161 120 73 171 130 83 160 119 72 168 127 80 162 121 74 164 123 76 176 135 88 174 133 86 175 134 87 160 119 72 170 129 82 167 126 79 173 132 85 176 135 88 164 123 76 168 127 80 168 127 80 152 111 64 158 117 70 169 128 81 154 113 66 160 119 72 175 134 87 173 132 85 166 125 78 169 128 81 165 124 77 172 131 84 174 133 86 176 135 88 158 117 70 164 123 76 173 132 85 174 133 86 158 117 70 165 124 77 159 118 71 160 119 72 174 133 86 171 130 83 157 116 69 175 134 87 164 123 76 159 118 71 155 114 67 176 135 88 169 128 81 170 129 82 171 130 83 168 127 80 174 133 86 155 114 67 161 120 73 171 130 83 160 119 72 171 130 83 163 122 75 155 114 67 165 124 77 160 119 72 173 132 85 169 128 81 174 133 86 165 124 77 166 125 78 159 118 71 154 113 66 158 117 70 154 113 66 168 127 80 174 133 86 159 118 71 173 132 85 168 127 80 153 112 65 170 129 82 167 126 79 161 120 73 163 122 75 159 118 71 161 120 73 164 123 76 170 129 82 163 122 75 168 127 80 164 123 76
166 125 78 157 116 69 156 115 68 158 117 70 159 118 71 165 124 77 178 137 90 169 128 81 175 134 87 164 123 76 163 122 75 166 125 78 155 114 67 164 123 76 162 121 74 166 125 78 161 120 73 173 132 85 161 120 73 164 123 76 166 125 78 177 136 89 174 133 86 159 118 71 166 125 78 172 131 84 165 124 77 162 121 74 162 121 74 164 123 76 164 123 76 171 130 83 169 128 81 158 117 70 157 116 69 164 123 76 154 113 66 165 124 77 156 115 68 177 136 89 162 121 74 166 125 78 170 129 82 177 136 89 155 114 67 172 131 84 175 134 87 165 124 77 168 127 80 155 114 67 168 127 80 176 135 88 172 131 84 159 118 71 170 129 82 167 126 79 169 128 81 172 131 84 171 130 83 157 116 69 177 136 89 177 136 89 164 123 76 153 112 65 160 119 72 172 131 84 168 127 80 162 121 74 160 119 72 163 122 75 163 122 75 170 129 82 169 128 81 177 136 89 158 117 70 156 115 68 175 134 87 172 131 84 157 116 69 170 129 82 160 119 72 169 128 81 155 114 67 161 120 73 166 125 78 174 133 86 167 126 79 163 122 75 162 121 74 176 135 88 171 130 83 166 125 78 166 125 78 163 122 75 169 128 81 172 131 84 158 117 70 174 133 86 161 120 73 170 129 82 167 126 79 174 133 86 167 126 79 157 116 69 173 132 85 167 126 79 171 130 83 161 120 73 162 121 74 169 128 81 160 119 72 171 130 83 157 116 69 167 126 79 170 129 82 175 134 87 160 119 72 154 113 66 162 121 74 178 137 90 164 123 76 171 130 83 165 124 77 162 121 74 165 124 77 168 127 80 155 114 67 168 127 80
159 118 71 169 128 81 158 117 70 159 118 71 165 124 77 174 133 86 157 116 69 164 123 76 162 121 74 175 134 87 155 114 67 156 115 68 166 125 78 162 121 74 163 122 75 175 134 87 160 119 72 161 120 73 164 123 76 171 130 83 173 132 85 154 113 66 171 130 83 169 128 81 167 126 79 174 133 86 172 131 84 174 133 86 177 136 89 165 124 77 174 133 86 164 123 76 157 116 69 169 128 81 168 127 80 156 115 68 172 131 84 163 122 75 167 126 79 164 123 76 163 122 75 174 133 86 162 121 74 166 125 78 165 124 77 172 131 84 162 121 74 162 121 74 167 126 79 166 125 78 158 117 70 162 121 74 162 121 74 161 120 73 175 134 87 167 126 79 159 118 71 160 119 72 164 123 76 165 124 77 165 124 77 168 127 80 162 121 74 158 117 70 171 130 83 171 130 83 165 124 77 174 133 86 165 124 77 163 122 75 170 129 82 173 132 85 171 130 83 173 132 85 161 120 73 168 127 80 172 131 84 157 116 69 178 137 90 168 127 80 163 122 75 172 131 84 162 121 74 154 113 66 174 133 86 163 122 75 164 123 76 170 129 82 162 121 74 173 132 85 165 124 77 174 133 86 159 118 71 160 119 72 167 126 79 166 125 78 168 127 80 169 128 81 165 124 77 169 128 81 157 116 69 160 119 72 174 133 86 154 113 66 167 126 79 157 116 69 164 123 76 153 112 65 153 112 65 158 117 70 174 133 86 171 130 83 157 116 69 160 119 72 176 135 88 163 122 75 169 128 81 176 135 88 173 132 85 172 131 84 157 116 69 158 117 70 164 123 76 170 129 82 168 127 80 177 136 89 163 122 75 167 126 79
172 131 84 162 121 74 167 126 79 162 121 74 155 114 67 174 133 86 171 130 83 166 125 78 163 122 75 165 124 77 167 126 79 159 118 71 160 119 72 156 115 68 156 115 68 164 123 76 171 130 83 162 121 74 170 129 82 172 131 84 169 128 81 156 115 68 172 131 84 162 121 74 167 126 79 160 119 72 164 123 76 168 127 80 173 132 85 176 135 88 171 130 83 160 119 72 165 124 77 164 123 76 171 130 83 157 116 69 167 126 79 167 126 79 169 128 81 174 133 86 156 115 68 162 121 74 165 124 77 160 119 72 173 132 85 162 121 74 164 123 76 164 123 76 159 118 71 176 135 88 157 116 69 171 130 83 164 123 76 163 122 75 170 129 82 166 125 78 164 123 76 168 127 80 179 138 91 160 119 72 164 123 76 164 123 76 170 129 82 154 113 66 167 126 79 155 114 67 168 127 80 167 126 79 168 127 80 165 124 77 159 118 71 161 120 73 157 116 69 152 111 64 173 132 85 162 121 74 172 131 84 158 117 70 174 133 86 173 132 85 173 132 85 164 123 76 166 125 78 169 128 81 163 122 75 158 117 70 172 131 84 169 128 81 161 120 73 165 124 77 157 116 69 177 136 89 178 137 90 177 136 89 170 129 82 156 115 68 161 120 73 163 122 75 164 123 76 171 130 83 162 121 74 162 121 74 161 120 73 166 125 78 172 131 84 171 130 83 162 121 74 164 123 76 160 119 72 172 131 84 152 111 64 163 122 75 157 116 69 160 119 72 157 116 69 174 133 86 156 115 68 175 134 87 179 138 91 170 129 82 170 129 82 158 117 70 166 125 78 168 127 80 166 125 78 171 130 83 170 129 82 163 122 75
174 133 86 163 122 75 157 116 69 165 124 77 162 121 74 168 127 80 164 123 76 157 116 69 159 118 71 155 114 67 160 119 72 167 126 79 167 126 79 171 130 83 156 115 68 155 114 67 159 118 71 156 115 68 162 121 74 162 121 74 172 131 84 171 130 83 167 126 79 174 133 86 175 134 87 167 126 79 163 122 75 151 110 63 156 115 68 160 119 72 159 118 71 170 129 82 168 127 80 161 120 73 163 122 75 175 134 87 171 130 83 157 116 69 164 123 76 162 121 74 166 125 78 167 126 79 160 119 72 165 124 77 173 132 85 171 130 83 167 126 79 156 115 68 157 116 69 159 118 71 156 115 68 167 126 79 163 122 75 157 116 69 163 122 75 159 118 71 161 120 73 161 120 73 172 131 84 166 125 78 173 132 85 174 133 86 165 124 77 165 124 77 152 111 64 160 119 72 163 122 75 172 131 84 170 129 82 151 110 63 158 117 70 171 130 83 173 132 85 168 127 80 166 125 78 173 132 85 172 131 84 170 129 82 159 118 71 164 123 76 153 112 65 157 116 69 167 126 79 162 121 74 174 133 86 161 120 73 158 117 70 162 121 74 158 117 70 166 125 78 159 118 71 168 127 80 169 128 81 158 117 70 168 127 80 157 116 69 159 118 71 165 124 77 159 118 71 163 122 75 171 130 83 157 116 69 169 128 81 157 116 69 175 134 87 167 126 79 159 118 71 170 129 82 170 129 82 167 126 79 166 125 78 170 129 82 169 128 81 160 119 72 167 126 79 177 136 89 170 129 82 162 121 74 167 126 79 176 135 88 164 123 76 172 131 84 172 131 84 158 117 70 174 133 86 160 119 72 164 123 76 153 112 65
159 118 71 168 127 80 155 114 67 159 118 71 156 115 68 158 117 70 161 120 73 156 115 68 158 117 70 173 132 85 160 119 72 167 126 79 155 114 67 169 128 81 164 123 76 171 130 83 165 124 77 169 128 81 169 128 81 166 125 78 164 123 76 159 118 71 167 126 79 166 125 78 158 117 70 165 124 77 160 119 72 151 110 63 155 114 67 175 134 87 155 114 67 160 119 72 164 123 76 157 116 69 170 129 82 168 127 80 169 128 81 172 131 84 172 131 84 172 131 84 157 116 69 159 118 71 159 118 71 169 128 81 157 116 69 168 127 80 157 116 69 157 116 69 175 134 87 158 117 70 153 112 65 176 135 88 167 126 79 167 126 79 164 123 76 167 126 79 170 129 82 169 128 81 162 121 74 152 111 64 164 123 76 167 126 79 163 122 75 173 132 85 158 117 70 152 111 64 156 115 68 170 129 82 173 132 85 163 122 75 161 120 73 166 125 78 156 115 68 166 125 78 159 118 71 165 124 77 155 114 67 166 125 78 158 117 70 165 124 77 171 130 83 162 121 74 176 135 88 161 120 73 175 134 87 159 118 71 175 134 87 168 127 80 168 127 80 170 129 82 164 123 76 156 115 68 156 115 68 164 123 76 166 125 78 173 132 85 172 131 84 159 118 71 171 130 83 169 128 81 159 118 71 153 112 65 159 118 71 172 131 84 156 115 68 157 116 69 165 124 77 156 115 68 167 126 79 164 123 76 157 116 69 169 128 81 160 119 72 157 116 69 154 113 66 174 133 86 156 115 68 157 116 69 162 121 74 167 126 79 160 119 72 167 126 79 156 115 68 172 131 84 159 118 71 158 117 70 176 135 88 164 123 76
168 127 80 169 128 81 158 117 70 161 120 73 165 124 77 164 123 76 170 129 82 150 109 62 170 129 82 161 120 73 168 127 80 152 111 64 161 120 73 166 125 78 160 119 72 176 135 88 154 113 66 168 127 80 165 124 77 161 120 73 169 128 81 170 129 82 156 115 68 162 121 74 149 108 61 174 133 86 164 123 76 165 124 77 167 126 79 160 119 72 159 118 71 169 128 81 159 118 71 150 109 62 158 117 70 159 118 71 153 112 65 153 112 65 165 124 77 156 115 68 172 131 84 161 120 73 171 130 83 164 123 76 159 118 71 170 129 82 164 123 76 156 115 68 175 134 87 164 123 76 160 119 72 157 116 69 168 127 80 162 121 74 174 133 86 150 109 62 160 119 72 157 116 69 151 110 63 167 126 79 168 127 80 169 128 81 174 133 86 161 120 73 160 119 72 162 121 74 156 115 68 166 125 78 156 115 68 169 128 81 157 116 69 157 116 69 158 117 70 160 119 72 166 125 78 175 134 87 161 120 73 174 133 86 160 119 72 153 112 65 164 123 76 160 119 72 151 110 63 160 119 72 171 130 83 164 123 76 158 117 70 171 130 83 169 128 81 165 124 77 159 118 71 162 121 74 162 121 74 158 117 70 175 134 87 160 119 72 158 117 70 166 125 78 166 125 78 161 120 73 155 114 67 172 131 84 166 125 78 162 121 74 156 115 68 159 118 71 170 129 82 165 124 77 155 114 67 172 131 84 170 129 82 171 130 83 173 132 85 173 132 85 156 115 68 153 112 65 164 123 76 168 127 80 174 133 86 159 118 71 170 129 82 162 121 74 157 116 69 166 125 78 161 120 73 167 126 79 167 126 79 160 119 72
170 129 82 157 116 69 168 127 80 162 121 74 156 115 68 158 117 70 170 129 82 153 112 65 168 127 80 165 124 77 171 130 83 166 125 78 166 125 78 155 114 67 170 129 82 161 120 73 155 114 67 159 118 71 149 108 61 155 114 67 172 131 84 162 121 74 168 127 80 164 123 76 165 124 77 162 121 74 156 115 68 169 128 81 164 123 76 164 123 76 159 118 71 173 132 85 164 123 76 159 118 71 162 121 74 158 117 70 167 126 79 155 114 67 156 115 68 157 116 69 151 110 63 164 123 76 162 121 74 157 116 69 162 121 74 161 120 73 172 131 84 163 122 75 170 129 82 161 120 73 159 118 71 165 124 77 157 116 69 163 122 75 162 121 74 166 125 78 163 122 75 162 121 74 172 131 84 157 116 69 163 122 75 158 117 70 157 116 69 155 114 67 166 125 78 159 118 71 170 129 82 164 123 76 157 116 69 166 125 78 161 120 73 164 123 76 158 117 70 161 120 73 160 119 72 155 114 67 153 112 65 171 130 83 168 127 80 160 119 72 152 111 64 167 126 79 163 122 75 162 121 74 154 113 66 157 116 69 156 115 68 170 129 82 170 129 82 163 122 75 159 118 71 152 111 64 153 112 65 156 115 68 157 116 69 165 124 77 172 131 84 171 130 83 157 116 69 167 126 79 163 122 75 149 108 61 159 118 71 158 117 70 171 130 83 169 128 81 153 112 65 152 111 64 163 122 75 162 121 74 171 130 83 168 127 80 163 122 75 158 117 70 156 115 68 156 115 68 171 130 83 174 133 86 162 121 74 168 127 80 156 115 68 164 123 76 171 130 83 157 116 69 155 114 67 165 124 77 159 118 71 164 123 76
168 127 80 163 122 75 170 129 82 175 134 87 162 121 74 168 127 80 166 125 78 168 127 80 159 118 71 170 129 82 170 129 82 171 130 83 156 115 68 157 116 69 165 124 77 157 116 69 170 129 82 159 118 71 151 110 63 166 125 78 162 121 74 161 120 73 155 114 67 160 119 72 164 123 76 158 117 70 171 130 83 170 129 82 156 115 68 165 124 77 174 133 86 172 131 84 161 120 73 155 114 67 158 117 70 153 112 65 169 128 81 167 126 79 161 120 73 156 115 68 170 129 82 172 131 84 156 115 68 161 120 73 150 109 62 173 132 85 156 115 68 169 128 81 161 120 73 164 123 76 153 112 65 173 132 85 155 114 67 158 117 70 171 130 83 175 134 87 175 134 87 152 111 64 168 127 80 158 117 70 169 128 81 166 125 78 165 124 77 155 114 67 165 124 77 170 129 82 154 113 66 154 113 66 166 125 78 157 116 69 168 127 80 164 123 76 169 128 81 154 113 66 164 123 76 160 119 72 157 116 69 165 124 77 156 115 68 164 123 76 169 128 81 157 116 69 158 117 70 171 130 83 157 116 69 152 111 64 157 116 69 171 130 83 154 113 66 165 124 77 167 126 79 161 120 73 155 114 67 172 131 84 164 123 76 155 114 67 171 130 83 157 116 69 170 129 82 171 130 83 168 127 80 166 125 78 154 113 66 155 114 67 166 125 78 153 112 65 162 121 74 158 117 70 162 121 74 159 118 71 161 120 73 164 123 76 151 110 63 158 117 70 161 120 73 167 126 79 157 116 69 160 119 72 159 118 71 166 125 78 171 130 83 162 121 74 164 123 76 155 114 67 168 127 80 159 118 71 160 119 72 166 125 78
156 115 68 165 124 77 158 117 70 156 115 68 154 113 66 167 126 79 165 124 77 153 112 65 165 124 77 155 114 67 170 129 82 154 113 66 152 111 64 166 125 78 159 118 71 157 116 69 151 110 63 175 134 87 164 123 76 158 117 70 174 133 86 167 126 79 158 117 70 155 114 67 159 118 71 165 124 77 159 118 71 172 131 84 167 126 79 156 115 68 163 122 75 153 112 65 153 112 65 154 113 66 169 128 81 164 123 76 168 127 80 156 115 68 159 118 71 167 126 79 163 122 75 163 122 75 162 121 74 161 120 73 172 131 84 160 119 72 169 128 81 164 123 76 154 113 66 152 111 64 173 132 85 161 120 73 156 115 68 155 114 67 173 132 85 155 114 67 166 125 78 158 117 70 167 126 79 154 113 66 161 120 73 159 118 71 170 129 82 149 108 61 161 120 73 171 130 83 169 128 81 158 117 70 159 118 71 161 120 73 155 114 67 155 114 67 171 130 83 165 124 77 154 113 66 158 117 70 166 125 78 173 132 85 157 116 69 158 117 70 166 125 78 154 113 66 170 129 82 174 133 86 155 114 67 170 129 82 162 121 74 153 112 65 156 115 68 172 131 84 160 119 72 158 117 70 162 121 74 151 110 63 151 110 63 156 115 68 156 115 68 153 112 65 156 115 68 158 117 70 164 123 76 150 109 62 158 117 70 150 109 62 161 120 73 169 128 81 169 128 81 157 116 69 155 114 67 162 121 74 171 130 83 155 114 67 164 123 76 168 127 80 152 111 64 169 128 81 173 132 85 158 117 70 166 125 78 158 117 70 174 133 86 174 133 86 157 116 69 156 115 68 150 109 62 169 128 81 160 119 72 165 124 77
164 123 76 172 131 84 162 121 74 170 129 82 164 123 76 166 125 78 166 125 78 156 115 68 157 116 69 156 115 68 168 127 80 161 120 73 164 123 76 163 122 75 170 129 82 162 121 74 172 131 84 171 130 83 168 127 80 153 112 65 156 115 68 160 119 72 157 116 69 159 118 71 164 123 76 169 128 81 170 129 82 160 119 72 157 116 69 155 114 67 166 125 78 172 131 84 167 126 79 167 126 79 176 135 88 155 114 67 157 116 69 163 122 75 164 123 76 168 127 80 154 113 66 163 122 75 166 125 78 160 119 72 153 112 65 169 128 81 164 123 76 167 126 79 163 122 75 166 125 78 170 129 82 161 120 73 166 125 78 159 118 71 164 123 76 151 110 63 159 118 71 159 118 71 162 121 74 155 114 67 157 116 69 153 112 65 160 119 72 162 121 74 154 113 66 158 117 70 171 130 83 166 125 78 160 119 72 161 120 73 153 112 65 171 130 83 167 126 79 163 122 75 163 122 75 168 127 80 163 122 75 162 121 74 171 130 83 166 125 78 171 130 83 171 130 83 153 112 65 162 121 74 164 123 76 163 122 75 154 113 66 161 120 73 158 117 70 162 121 74 164 123 76 168 127 80 170 129 82 170 129 82 167 126 79 174 133 86 154 113 66 171 130 83 160 119 72 165 124 77 166 125 78 172 131 84 166 125 78 161 120 73 172 131 84 156 115 68 171 130 83 166 125 78 167 126 79 167 126 79 157 116 69 163 122 75 160 119 72 164 123 76 156 115 68 174 133 86 160 119 72 171 130 83 157 116 69 159 118 71 171 130 83 170 129 82 166 125 78 163 122 75 161 120 73 160 119 72 161 120 73 172 131 84
172 131 84 151 110 63 165 124 77 166 125 78 162 121 74 159 118 71 168 127 80 176 135 88 160 119 72 152 111 64 164 123 76 159 118 71 159 118 71 164 123 76 166 125 78 156 115 68 165 124 77 170 129 82 165 124 77 161 120 73 163 122 75 171 130 83 166 125 78 164 123 76 173 132 85 153 112 65 172 131 84 168 127 80 158 117 70 155 114 67 156 115 68 157 116 69 165 124 77 172 131 84 157 116 69 157 116 69 156 115 68 171 130 83 169 128 81 164 123 76 172 131 84 157 116 69 160 119 72 168 127 80 160 119 72 165 124 77 169 128 81 158 117 70 173 132 85 165 124 77 158 117 70 170 129 82 153 112 65 161 120 73 159 118 71 159 118 71 172 131 84 153 112 65 173 132 85 154 113 66 170 129 82 165 124 77 152 111 64 173 132 85 169 128 81 164 123 76 153 112 65 165 124 77 167 126 79 157 116 69 159 118 71 169 128 81 160 119 72 165 124 77 170 129 82 174 133 86 166 125 78 159 118 71 164 123 76 162 121 74 170 129 82 165 124 77 164 123 76 171 130 83 176 135 88 162 121 74 165 124 77 173 132 85 161 120 73 166 125 78 163 122 75 170 129 82 152 111 64 160 119 72 171 130 83 165 124 77 156 115 68 165 124 77 170 129 82 172 131 84 166 125 78 161 120 73 175 134 87 163 122 75 173 132 85 152 111 64 170 129 82 173 132 85 173 132 85 165 124 77 165 124 77 172 131 84 152 111 64 158 117 70 161 120 73 156 115 68 162 121 74 165 124 77 172 131 84 169 128 81 167 126 79 161 120 73 154 113 66 164 123 76 171 130 83 163 122 75 159 118 71 170 129 82
156 115 68 161 120 73 159 118 71 158 117 70 157 116 69 172 131 84 172 131 84 165 124 77 173 132 85 168 127 80 156 115 68 172 131 84 158 117 70 176 135 88 161 120 73 172 131 84 161 120 73 164 123 76 168 127 80 162 121 74 163 122 75 167 126 79 173 132 85 166 125 78 160 119 72 166 125 78 159 118 71 170 129 82 161 120 73 165 124 77 159 118 71 165 124 77 172 131 84 160 119 72 159 118 71 154 113 66 160 119 72 156 115 68 176 135 88 172 131 84 157 116 69 162 121 74 160 119 72 162 121 74 168 127 80 170 129 82 157 116 69 160 119 72 170 129 82 158 117 70 158 117 70 164 123 76 166 125 78 158 117 70 161 120 73 174 133 86 160 119 72 171 130 83 171 130 83 167 126 79 163 122 75 173 132 85 169 128 81 168 127 80 161 120 73 154 113 66 156 115 68 161 120 73 156 115 68 161 120 73 166 125 78 156 115 68 169 128 81 169 128 81 163 122 75 155 114 67 163 122 75 154 113 66 172 131 84 171 130 83 168 127 80 172 131 84 167 126 79 169 128 81 156 115 68 160 119 72 175 134 87 159 118 71 168 127 80 152 111 64 169 128 81 168 127 80 161 120 73 164 123 76 157 116 69 157 116 69 169 128 81 165 124 77 159 118 71 164 123 76 170 129 82 161 120 73 167 126 79 156 115 68 155 114 67 166 125 78 158 117 70 159 118 71 166 125 78 166 125 78 161 120 73 159 118 71 171 130 83 160 119 72 157 116 69 166 125 78 162 121 74 162 121 74 157 116 69 164 123 76 176 135 88 155 114 67 159 118 71 169 128 81 164 123 76 170 129 82 171 130 83 162 121 74
168 127 80 174 133 86 164 123 76 172 131 84 165 124 77 166 125 78 159 118 71 160 119 72 153 112 65 166 125 78 165 124 77 169 128 81 155 114 67 161 120 73 174 133 86 172 131 84 177 136 89 169 128 81 165 124 77 167 126 79 173 132 85 170 129 82 172 131 84 169 128 81 172 131 84 171 130 83 167 126 79 168 127 80 164 123 76 162 121 74 168 127 80 173 132 85 162 121 74 166 125 78 163 122 75 172 131 84 170 129 82 170 129 82 159 118 71 159 118 71 174 133 86 161 120 73 163 122 75 160 119 72 153 112 65 162 121 74 164 123 76 170 129 82 154 113 66 162 121 74 174 133 86 167 126 79 174 133 86 166 125 78 176 135 88 172 131 84 158 117 70 174 133 86 169 128 81 173 132 85 162 121 74 171 130 83 169 128 81 156 115 68 159 118 71 155 114 67 172 131 84 163 122 75 167 126 79 160 119 72 155 114 67 164 123 76 161 120 73 155 114 67 162 121 74 168 127 80 155 114 67 173 132 85 177 136 89 160 119 72 168 127 80 161 120 73 164 123 76 173 132 85 160 119 72 158 117 70 171 130 83 167 126 79 163 122 75 156 115 68 158 117 70 162 121 74 159 118 71 175 134 87 168 127 80 169 128 81 164 123 76 171 130 83 169 128 81 163 122 75 156 115 68 163 122 75 164 123 76 165 124 77 162 121 74 165 124 77 173 132 85 165 124 77 165 124 77 164 123 76 174 133 86 161 120 73 161 120 73 172 131 84 160 119 72 167 126 79 167 126 79 164 123 76 172 131 84 159 118 71 169 128 81 178 137 90 178 137 90 163 122 75 170 129 82 159 118 71 171 130 83 172 131 84
161 120 73 165 124 77 166 125 78 170 129 82 171 130 83 169 128 81 169 128 81 168 127 80 160 119 72 154 113 66 159 118 71 169 128 81 163 122 75 160 119 72 166 125 78 169 128 81 170 129 82 161 120 73 163 122 75 172 131 84 166 125 78 168 127 80 170 129 82 160 119 72 164 123 76 173 132 85 159 118 71 160 119 72 164 123 76 174 133 86 162 121 74 172 131 84 171 130 83 164 123 76 161 120 73 157 116 69 156 115 68 163 122 75 165 124 77 162 121 74 160 119 72 159 118 71 168 127 80 170 129 82 170 129 82 177 136 89 160 119 72 167 126 79 179 138 91 171 130 83 160 119 72 171 130 83 164 123 76 162 121 74 158 117 70 175 134 87 163 122 75 176 135 88 159 118 71 172 131 84 163 122 75 170 129 82 168 127 80 167 126 79 174 133 86 157 116 69 172 131 84 168 127 80 164 123 76 168 127 80 166 125 78 164 123 76 158 117 70 171 130 83 173 132 85 170 129 82 165 124 77 162 121 74 156 115 68 158 117 70 161 120 73 175 134 87 154 113 66 166 125 78 172 131 84 165 124 77 156 115 68 156 115 68 170 129 82 165 124 77 179 138 91 155 114 67 165 124 77 157 116 69 166 125 78 178 137 90 173 132 85 170 129 82 161 120 73 162 121 74 165 124 77 169 128 81 162 121 74 161 120 73 170 129 82 169 128 81 174 133 86 174 133 86 154 113 66 174 133 86 167 126 79 171 130 83 160 119 72 158 117 70 168 127 80 159 118 71 156 115 68 175 134 87 170 129 82 161 120 73 163 122 75 166 125 78 160 119 72 162 121 74 163 122 75 164 123 76 165 124 77 173 132 85
170 129 82 171 130 83 178 137 90 158 117 70 167 126 79 164 123 76 162 121 74 173 132 85 156 115 68 160 119 72 168 127 80 170 129 82 158 117 70 162 121 74 164 123 76 167 126 79 165 124 77 174 133 86 160 119 72 154 113 66 176 135 88 154 113 66 159 118 71 160 119 72 162 121 74 168 127 80 165 124 77 168 127 80 171 130 83 159 118 71 158 117 70 162 121 74 153 112 65 172 131 84 158 117 70 170 129 82 159 118 71 169 128 81 174 133 86 174 133 86 156 115 68 158 117 70 165 124 77 157 116 69 165 124 77 169 128 81 170 129 82 163 122 75 163 122 75 155 114 67 162 121 74 167 126 79 170 129 82 162 121 74 166 125 78 162 121 74 166 125 78 160 119 72 177 136 89 166 125 78 164 123 76 178 137 90 158 117 70 155 114 67 164 123 76 163 122 75 160 119 72 164 123 76 167 126 79 175 134 87 158 117 70 161 120 73 174 133 86 165 124 77 164 123 76 172 131 84 167 126 79 170 129 82 164 123 76 169 128 81 164 123 76 158 117 70 167 126 79 171 130 83 171 130 83 169 128 81 168 127 80 177 136 89 166 125 78 159 118 71 158 117 70 170 129 82 154 113 66 159 118 71 166 125 78 155 114 67 168 127 80 168 127 80 159 118 71 179 138 91 170 129 82 167 126 79 167 126 79 177 136 89 154 113 66 156 115 68 164 123 76 156 115 68 160 119 72 172 131 84 164 123 76 165 124 77 174 133 86 162 121 74 161 120 73 174 133 86 168 127 80 165 124 77 176 135 88 157 116 69 158 117 70 173 132 85 163 122 75 163 122 75 159 118 71 167 126 79 159 118 71 158 117 70
164 123 76 179 138 91 171 130 83 157 116 69 154 113 66 157 116 69 159 118 71 163 122 75 166 125 78 161 120 73 174 133 86 170 129 82 160 119 72 171 130 83 170 129 82 172 131 84 156 115 68 160 119 72 163 122 75 171 130 83 163 122 75 168 127 80 165 124 77 166 125 78 170 129 82 158 117 70 162 121 74 170 129 82 169 128 81 167 126 79 173 132 85 173 132 85 173 132 85 164 123 76 163 122 75 167 126 79 169 128 81 174 133 86 170 129 82 174 133 86 166 125 78 173 132 85 176 135 88 160 119 72 173 132 85 165 124 77 175 134 87 171 130 83 162 121 74 176 135 88 167 126 79 169 128 81 169 128 81 156 115 68 161 120 73 166 125 78 160 119 72 171 130 83 172 131 84 163 122 75 162 121 74 163 122 75 171 130 83 174 133 86 170 129 82 154 113 66 176 135 88 164 123 76 173 132 85 170 129 82 154 113 66 161 120 73 169 128 81 175 134 87 164 123 76 172 131 84 170 129 82 168 127 80 160 119 72 171 130 83 162 121 74 169 128 81 169 128 81 169 128 81 171 130 83 164 123 76 169 128 81 157 116 69 153 112 65 157 116 69 175 134 87 158 117 70 171 130 83 173 132 85 155 114 67 156 115 68 158 117 70 176 135 88 161 120 73 171 130 83 166 125 78 165 124 77 156 115 68 175 134 87 168 127 80 166 125 78 165 124 77 162 121 74 169 128 81 169 128 81 176 135 88 174 133 86 168 127 80 163 122 75 174 133 86 166 125 78 169 128 81 177 136 89 154 113 66 172 131 84 175 134 87 168 127 80 179 138 91 155 114 67 173 132 85 167 126 79 163 122 75 170 129 82
172 131 84 169 128 81 173 132 85 164 123 76 171 130 83 164 123 76 161 120 73 164 123 76 173 132 85 169 128 81 158 117 70 158 117 70 161 120 73 177 136 89 177 136 89 169 128 81 171 130 83 157 116 69 162 121 74 154 113 66 165 124 77 167 126 79 159 118 71 160 119 72 165 124 77 170 129 82 167 126 79 165 124 77 165 124 77 173 132 85 163 122 75 172 131 84 175 134 87 165 124 77 170 129 82 157 116 69 163 122 75 162 121 74 166 125 78 173 132 85 165 124 77 172 131 84 175 134 87 157 116 69 172 131 84 170 129 82 161 120 73 172 131 84 161 120 73 168 127 80 162 121 74 170 129 82 156 115 68 169 128 81 164 123 76 175 134 87 168 127 80 154 113 66 163 122 75 161 120 73 168 127 80 171 130 83 172 131 84 169 128 81 165 124 77 167 126 79 168 127 80 167 126 79 170 129 82 173 132 85 162 121 74 172 131 84 167 126 79 157 116 69 167 126 79 153 112 65 162 121 74 171 130 83 171 130 83 165 124 77 167 126 79 170 129 82 174 133 86 165 124 77 168 127 80 175 134 87 164 123 76 155 114 67 160 119 72 165 124 77 166 125 78 161 120 73 164 123 76 159 118 71 167 126 79 156 115 68 167 126 79 163 122 75 170 129 82 165 124 77 168 127 80 172 131 84 161 120 73 169 128 81 162 121 74 161 120 73 171 130 83 174 133 86 159 118 71 175 134 87 176 135 88 173 132 85 168 127 80 168 127 80 168 127 80 162 121 74 163 122 75 171 130 83 168 127 80 171 130 83 166 125 78 171 130 83 158 117 70 175 134 87 168 127 80 173 132 85 162 121 74 153 112 65
168 127 80 169 128 81 166 125 78 169 128 81 169 128 81 155 114 67 167 126 79 163 122 75 174 133 86 166 125 78 162 121 74 155 114 67 163 122 75 158 117 70 166 125 78 159 118 71 163 122 75 167 126 79 166 125 78 156 115 68 156 115 68 156 115 68 157 116 69 157 116 69 165 124 77 164 123 76 162 121 74 163 122 75 163 122 75 171 130 83 172 131 84 155 114 67 167 126 79 166 125 78 165 124 77 162 121 74 155 114 67 154 113 66 165 124 77 166 125 78 176 135 88 157 116 69 151 110 63 169 128 81 162 121 74 173 132 85 164 123 76 168 127 80 158 117 70 171 130 83 161 120 73 155 114 67 158 117 70 161 120 73 158 117 70 163 122 75 169 128 81 156 115 68 168 127 80 164 123 76 154 113 66 171 130 83 166 125 78 158 117 70 168 127 80 152 111 64 163 122 75 167 126 79 160 119 72 154 113 66 171 130 83 159 118 71 156 115 68 154 113 66 164 123 76 164 123 76 160 119 72 172 131 84 166 125 78 171 130 83 169 128 81 156 115 68 169 128 81 173 132 85 156 115 68 167 126 79 175 134 87 165 124 77 167 126 79 162 121 74 173 132 85 170 129 82 161 120 73 163 122 75 158 117 70 171 130 83 171 130 83 167 126 79 159 118 71 162 121 74 169 128 81 174 133 86 171 130 83 162 121 74 166 125 78 162 121 74 169 128 81 163 122 75 173 132 85 173 132 85 171 130 83 167 126 79 159 118 71 170 129 82 163 122 75 162 121 74 170 129 82 166 125 78 159 118 71 171 130 83 162 121 74 162 121 74 159 118 71 167 126 79 157 116 69 154 113 66 167 126 79 174 133 86
155 114 67 174 133 86 167 126 79 153 112 65 160 119 72 160 119 72 159 118 71 156 115 68 155 114 67 155 114 67 172 131 84 156 115 68 154 113 66 156 115 68 173 132 85 157 116 69 159 118 71 167 126 79 162 121 74 169 128 81 164 123 76 170 129 82 172 131 84 165 124 77 165 124 77 170 129 82 155 114 67 162 121 74 161 120 73 169 128 81 172 131 84 169 128 81 164 123 76 164 123 76 169 128 81 162 121 74 169 128 81 171 130 83 163 122 75 153 112 65 153 112 65 163 122 75 158 117 70 164 123 76 160 119 72 156 115 68 161 120 73 169 128 81 160 119 72 162 121 74 162 121 74 160 119 72 162 121 74 151 110 63 156 115 68 156 115 68 176 135 88 151 110 63 160 119 72 165 124 77 161 120 73 166 125 78 161 120 73 168 127 80 163 122 75 161 120 73 164 123 76 157 116 69 165 124 77 161 120 73 158 117 70 172 131 84 158 117 70 167 126 79 156 115 68 157 116 69 172 131 84 166 125 78 160 119 72 166 125 78 164 123 76 154 113 66 160 119 72 169 128 81 174 133 86 164 123 76 169 128 81 160 119 72 158 117 70 157 116 69 161 120 73 165 124 77 165 124 77 167 126 79 160 119 72 174 133 86 159 118 71 173 132 85 155 114 67 171 130 83 168 127 80 162 121 74 155 114 67 168 127 80 163 122 75 166 125 78 169 128 81 162 121 74 168 127 80 168 127 80 160 119 72 167 126 79 164 123 76 162 121 74 160 119 72 169 128 81 170 129 82 171 130 83 172 131 84 175 134 87 160 119 72 163 122 75 171 130 83 163 122 75 167 126 79 153 112 65 168 127 80 175 134 87
167 126 79 161 120 73 155 114 67 172 131 84 166 125 78 155 114 67 166 125 78 162 121 74 157 116 69 169 128 81 165 124 77 150 109 62 171 130 83 162 121 74 150 109 62 158 117 70 168 127 80 157 116 69 173 132 85 152 111 64 169 128 81 157 116 69 169 128 81 162 121 74 175 134 87 162 121 74 167 126 79 167 126 79 170 129 82 163 122 75 156 115 68 156 115 68 158 117 70 155 114 67 164 123 76 156 115 68 163 122 75 156 115 68 156 115 68 174 133 86 168 127 80 161 120 73 156 115 68 167 126 79 172 131 84 158 117 70 167 126 79 172 131 84 162 121 74 163 122 75 154 113 66 175 134 87 162 121 74 166 125 78 164 123 76 172 131 84 165 124 77 165 124 77 168 127 80 155 114 67 157 116 69 167 126 79 160 119 72 172 131 84 153 112 65 158 117 70 167 126 79 170 129 82 163 122 75 165 124 77 151 110 63 168 127 80 165 124 77 161 120 73 160 119 72 153 112 65 158 117 70 158 117 70 166 125 78 168 127 80 168 127 80 157 116 69 157 116 69 171 130 83 158 117 70 158 117 70 153 112 65 162 121 74 155 114 67 162 121 74 159 118 71 151 110 63 166 125 78 169 128 81 152 111 64 170 129 82 172 131 84 158 117 70 171 130 83 154 113 66 171 130 83 172 131 84 154 113 66 160 119 72 161 120 73 156 115 68 167 126 79 169 128 81 157 116 69 171 130 83 152 111 64 162 121 74 152 111 64 152 111 64 164 123 76 168 127 80 155 114 67 156 115 68 168 127 80 161 120 73 156 115 68 176 135 88 160 119 72 168 127 80 166 125 78 160 119 72 167 126 79 160 119 72
162 121 74 159 118 71 160 119 72 160 119 72 167 126 79 174 133 86 169 128 81 166 125 78 152 111 64 174 133 86 157 116 69 162 121 74 165 124 77 168 127 80 172 131 84 155 114 67 168 127 80 155 114 67 159 118 71 154 113 66 154 113 66 153 112 65 164 123 76 161 120 73 171 130 83 167 126 79 160 119 72 154 113 66 169 128 81 162 121 74 168 127 80 157 116 69 166 125 78 152 111 64 174 133 86 152 111 64 159 118 71 163 122 75 171 130 83 170 129 82 159 118 71 155 114 67 166 125 78 168 127 80 165 124 77 158 117 70 154 113 66 155 114 67 171 130 83 159 118 71 164 123 76 162 121 74 150 109 62 161 120 73 165 124 77 167 126 79 158 117 70 170 129 82 164 123 76 153 112 65 163 122 75 164 123 76 167 126 79 157 116 69 174 133 86 150 109 62 166 125 78 157 116 69 158 117 70 157 116 69 160 119 72 166 125 78 170 129 82 167 126 79 160 119 72 160 119 72 169 128 81 163 122 75 164 123 76 166 125 78 160 119 72 150 109 62 165 124 77 166 125 78 165 124 77 172 131 84 171 130 83 152 111 64 164 123 76 152 111 64 168 127 80 158 117 70 169 128 81 162 121 74 155 114 67 157 116 69 159 118 71 159 118 71 172 131 84 152 111 64 150 109 62 164 123 76 167 126 79 171 130 83 173 132 85 155 114 67 163 122 75 165 124 77 160 119 72 160 119 72 170 129 82 159 118 71 156 115 68 158 117 70 161 120 73 166 125 78 161 120 73 169 128 81 167 126 79 156 115 68 169 128 81 156 115 68 155 114 67 172 131 84 159 118 71 173 132 85 158 117 70 161 120 73
171 130 83 157 116 69 165 124 77 167 126 79 152 111 64 168 127 80 155 114 67 156 115 68 159 118 71 155 114 67 170 129 82 158 117 70 152 111 64 158 117 70 159 118 71 157 116 69 158 117 70 151 110 63 170 129 82 155 114 67 163 122 75 152 111 64 150 109 62 169 128 81 164 123 76 164 123 76 156 115 68 159 118 71 159 118 71 157 116 69 158 117 70 168 127 80 173 132 85 152 111 64 162 121 74 168 127 80 165 124 77 164 123 76 160 119 72 162 121 74 164 123 76 156 115 68 158 117 70 166 125 78 168 127 80 166 125 78 167 126 79 153 112 65 163 122 75 155 114 67 156 115 68 168 127 80 163 122 75 167 126 79 169 128 81 164 123 76 171 130 83 168 127 80 164 123 76 167 126 79 164 123 76 157 116 69 162 121 74 161 120 73 171 130 83 156 115 68 152 111 64 158 117 70 169 128 81 160 119 72 161 120 73 152 111 64 156 115 68 160 119 72 165 124 77 163 122 75 166 125 78 151 110 63 157 116 69 151 110 63 154 113 66 175 134 87 160 119 72 167 126 79 162 121 74 163 122 75 160 119 72 158 117 70 165 124 77 154 113 66 158 117 70 154 113 66 160 119 72 154 113 66 148 107 60 156 115 68 163 122 75 164 123 76 158 117 70 158 117 70 156 115 68 160 119 72 160 119 72 154 113 66 170 129 82 167 126 79 170 129 82 164 123 76 167 126 79 170 129 82 155 114 67 167 126 79 155 114 67 168 127 80 151 110 63 169 128 81 152 111 64 169 128 81 158 117 70 153 112 65 171 130 83 155 114 67 170 129 82 158 117 70 153 112 65 153 112 65 149 108 61 162 121 74
161 120 73 168 127 80 161 120 73 167 126 79 164 123 76 160 119 72 174 133 86 163 122 75 168 127 80 153 112 65 171 130 83 174 133 86 152 111 64 168 127 80 168 127 80 152 111 64 166 125 78 174 133 86 154 113 66 161 120 73 168 127 80 158 117 70 156 115 68 163 122 75 167 126 79 166 125 78 169 128 81 167 126 79 163 122 75 162 121 74 168 127 80 163 122 75 161 120 73 170 129 82 173 132 85 166 125 78 154 113 66 166 125 78 169 128 81 162 121 74 161 120 73 157 116 69 155 114 67 156 115 68 171 130 83 165 124 77 161 120 73 157 116 69 153 112 65 162 121 74 163 122 75 164 123 76 153 112 65 157 116 69 154 113 66 163 122 75 167 126 79 162 121 74 158 117 70 156 115 68 160 119 72 170 129 82 158 117 70 157 116 69 169 128 81 154 113 66 153 112 65 167 126 79 157 116 69 167 126 79 174 133 86 151 110 63 168 127 80 164 123 76 163 122 75 174 133 86 170 129 82 156 115 68 172 131 84 163 122 75 156 115 68 170 129 82 161 120 73 160 119 72 159 118 71 169 128 81 167 126 79 164 123 76 155 114 67 158 117 70 164 123 76 159 118 71 162 121 74 166 125 78 167 126 79 154 113 66 161 120 73 171 130 83 154 113 66 166 125 78 154 113 66 170 129 82 155 114 67 153 112 65 153 112 65 166 125 78 164 123 76 165 124 77 166 125 78 172 131 84 167 126 79 169 128 81 165 124 77 166 125 78 162 121 74 166 125 78 151 110 63 161 120 73 166 125 78 154 113 66 167 126 79 161 120 73 173 132 85 156 115 68 167 126 79 167 126 79 162 121 74 156 115 68
173 132 85 160 119 72 156 115 68 157 116 69 162 121 74 156 115 68 157 116 69 156 115 68 167 126 79 162 121 74 163 122 75 157 116 69 171 130 83 159 118 71 165 124 77 162 121 74 163 122 75 173 132 85 174 133 86 170 129 82 164 123 76 162 121 74 162 121 74 162 121 74 165 124 77 152 111 64 172 131 84 157 116 69 161 120 73 172 131 84 163 122 75 162 121 74 157 116 69 156 115 68 162 121 74 161 120 73 166 125 78 160 119 72 168 127 80 169 128 81 175 134 87 153 112 65 160 119 72 161 120 73 166 125 78 154 113 66 166 125 78 160 119 72 162 121 74 159 118 71 171 130 83 156 115 68 154 113 66 156 115 68 163 122 75 161 120 73 159 118 71 158 117 70 169 128 81 159 118 71 153 112 65 167 126 79 168 127 80 158 117 70 168 127 80 175 134 87 163 122 75 169 128 81 160 119 72 168 127 80 151 110 63 166 125 78 170 129 82 168 127 80 154 113 66 154 113 66 171 130 83 162 121 74 167 126 79 165 124 77 169 128 81 158 117 70 170 129 82 167 126 79 153 112 65 167 126 79 170 129 82 176 135 88 150 109 62 169 128 81 171 130 83 151 110 63 166 125 78 164 123 76 170 129 82 156 115 68 167 126 79 160 119 72 168 127 80 170 129 82 159 118 71 162 121 74 170 129 82 167 126 79 168 127 80 155 114 67 164 123 76 161 120 73 172 131 84 170 129 82 176 135 88 169 128 81 156 115 68 156 115 68 173 132 85 154 113 66 157 116 69 171 130 83 165 124 77 166 125 78 167 126 79 170 129 82 162 121 74 173 132 85 164 123 76 169 128 81 171 130 83 154 113 66
160 119 72 169 128 81 159 118 71 161 120 73 164 123 76 160 119 72 176 135 88 168 127 80 169 128 81 156 115 68 170 129 82 160 119 72 167 126 79 153 112 65 171 130 83 169 128 81 158 117 70 170 129 82 172 131 84 161 120 73 170 129 82 169 128 81 172 131 84 165 124 77 166 125 78 173 132 85 161 120 73 165 124 77 155 114 67 164 123 76 154 113 66 160 119 72 165 124 77 168 127 80 172 131 84 164 123 76 160 119 72 160 119 72 162 121 74 176 135 88 164 123 76 156 115 68 161 120 73 164 123 76 163 122 75 163 122 75 165 124 77 168 127 80 172 131 84 162 121 74 170 129 82 173 132 85 156 115 68 166 125 78 165 124 77 160 119 72 157 116 69 168 127 80 171 130 83 162 121 74 174 133 86 161 120 73 161 120 73 159 118 71 157 116 69 163 122 75 168 127 80 161 120 73 163 122 75 172 131 84 169 128 81 168 127 80 170 129 82 152 111 64 155 114 67 168 127 80 167 126 79 160 119 72 155 114 67 169 128 81 173 132 85 158 117 70 169 128 81 155 114 67 161 120 73 170 129 82 158 117 70 154 113 66 153 112 65 174 133 86 172 131 84 158 117 70 166 125 78 157 116 69 167 126 79 157 116 69 168 127 80 171 130 83 158 117 70 165 124 77 167 126 79 167 126 79 161 120 73 176 135 88 164 123 76 154 113 66 171 130 83 162 121 74 154 113 66 177 136 89 170 129 82 171 130 83 161 120 73 174 133 86 153 112 65 155 114 67 172 131 84 158 117 70 161 120 73 159 118 71 154 113 66 154 113 66 160 119 72 165 124 77 171 130 83 165 124 77 173 132 85 173 132 85
171 130 83 160 119 72 176 135 88 162 121 74 161 120 73 162 121 74 171 130 83 170 129 82 172 131 84 159 118 71 162 121 74 172 131 84 161 120 73 164 123 76 155 114 67 154 113 66 172 131 84 164 123 76 167 126 79 172 131 84 165 124 77 164 123 76 156 115 68 166 125 78 169 128 81 166 125 78 174 133 86 157 116 69 159 118 71 163 122 75 155 114 67 159 118 71 172 131 84 172 131 84 177 136 89 176 135 88 169 128 81 161 120 73 164 123 76 165 124 77 176 135 88 174 133 86 169 128 81 159 118 71 171 130 83 164 123 76 156 115 68 168 127 80 172 131 84 164 123 76 154 113 66 174 133 86 170 129 82 164 123 76 168 127 80 175 134 87 177 136 89 174 133 86 166 125 78 169 128 81 178 137 90 172 131 84 156 115 68 168 127 80 160 119 72 166 125 78 161 120 73 158 117 70 172 131 84 156 115 68 165 124 77 178 137 90 170 129 82 161 120 73 178 137 90 161 120 73 167 126 79 173 132 85 159 118 71 176 135 88 176 135 88 171 130 83 176 135 88 163 122 75 168 127 80 166 125 78 161 120 73 163 122 75 155 114 67 173 132 85 161 120 73 159 118 71 167 126 79 153 112 65 173 132 85 160 119 72 166 125 78 159 118 71 160 119 72 158 117 70 156 115 68 159 118 71 174 133 86 164 123 76 162 121 74 166 125 78 164 123 76 156 115 68 170 129 82 167 126 79 158 117 70 163 122 75 168 127 80 162 121 74 154 113 66 174 133 86 168 127 80 157 116 69 161 120 73 160 119 72 171 130 83 167 126 79 167 126 79 165 124 77 163 122 75 167 126 79 162 121 74 158 117 70
170 129 82 174 133 86 155 114 67 157 116 69 167 126 79 159 118 71 158 117 70 168 127 80 154 113 66 177 136 89 160 119 72 164 123 76 173 132 85 167 126 79 161 120 73 177 136 89 176 135 88 167 126 79 162 121 74 172 131 84 163 122 75 177 136 89 171 130 83 173 132 85 171 130 83 161 120 73 176 135 88 170 129 82 167 126 79 176 135 88 163 122 75 168 127 80 160 119 72 172 131 84 171 130 83 161 120 73 174 133 86 155 114 67 154 113 66 170 129 82 167 126 79 160 119 72 166 125 78 155 114 67 162 121 74 159 118 71 163 122 75 175 134 87 154 113 66 168 127 80 157 116 69 170 129 82 170 129 82 164 123 76 164 123 76 173 132 85 160 119 72 170 129 82 176 135 88 165 124 77 173 132 85 168 127 80 164 123 76 171 130 83 173 132 85 161 120 73 169 128 81 161 120 73 155 114 67 170 129 82 158 117 70 158 117 70 163 122 75 168 127 80 172 131 84 172 131 84 168 127 80 168 127 80 175 134 87 159 118 71 164 123 76 168 127 80 174 133 86 159 118 71 155 114 67 161 120 73 170 129 82 160 119 72 164 123 76 168 127 80 156 115 68 164 123 76 169 128 81 160 119 72 159 118 71 178 137 90 162 121 74 167 126 79 157 116 69 175 134 87 165 124 77 164 123 76 163 122 75 168 127 80 173 132 85 174 133 86 170 129 82 161 120 73 168 127 80 160 119 72 163 122 75 155 114 67 166 125 78 178 137 90 165 124 77 172 131 84 161 120 73 171 130 83 170 129 82 170 129 82 159 118 71 161 120 73 170 129 82 168 127 80 174 133 86 161 120 73 167 126 79 157 116 69
172 131 84 165 124 77 158 117 70 170 129 82 170 129 82 171 130 83 171 130 83 168 127 80 164 123 76 169 128 81 153 112 65 178 137 90 171 130 83 169 128 81 160 119 72 167 126 79 162 121 74 175 134 87 166 125 78 175 134 87 161 120 73 169 128 81 171 130 83 166 125 78 161 120 73 157 116 69 172 131 84 170 129 82 172 131 84 155 114 67 163 122 75 169 128 81 164 123 76 163 122 75 161 120 73 156 115 68 164 123 76 171 130 83 171 130 83 176 135 88 175 134 87 161 120 73 174 133 86 166 125 78 165 124 77 163 122 75 167 126 79 172 131 84 174 133 86 177 136 89 152 111 64 173 132 85 176 135 88 174 133 86 163 122 75 165 124 77 174 133 86 169 128 81 156 115 68 173 132 85 176 135 88 159 118 71 165 124 77 164 123 76 155 114 67 163 122 75 167 126 79 164 123 76 166 125 78 164 123 76 161 120 73 169 128 81 156 115 68 162 121 74 170 129 82 170 129 82 173 132 85 170 129 82 155 114 67 173 132 85 155 114 67 167 126 79 174 133 86 176 135 88 164 123 76 167 126 79 166 125 78 178 137 90 161 120 73 164 123 76 172 131 84 171 130 83 159 118 71 161 120 73 169 128 81 162 121 74 167 126 79 170 129 82 164 123 76 165 124 77 157 116 69 163 122 75 168 127 80 170 129 82 168 127 80 170 129 82 162 121 74 156 115 68 163 122 75 179 138 91 169 128 81 164 123 76 170 129 82 166 125 78 170 129 82 171 130 83 156 115 68 160 119 72 162 121 74 155 114 67 165 124 77 164 123 76 159 118 71 155 114 67 167 126 79 169 128 81 161 120 73 155 114 67
171 130 83 169 128 81 153 112 65 169 128 81 175 134 87 173 132 85 176 135 88 155 114 67 157 116 69 172 131 84 160 119 72 165 124 77 159 118 71 160 119 72 164 123 76 169 128 81 165 124 77 170 129 82 154 113 66 178 137 90 176 135 88 159 118 71 168 127 80 172 131 84 168 127 80 173 132 85 168 127 80 174 133 86 159 118 71 169 128 81 173 132 85 169 128 81 173 132 85 172 131 84 161 120 73 165 124 77 163 122 75 162 121 74 170 129 82 162 121 74 158 117 70 168 127 80 168 127 80 170 129 82 168 127 80 169 128 81 158 117 70 172 131 84 155 114 67 164 123 76 165 124 77 163 122 75 161 120 73 158 117 70 173 132 85 160 119 72 168 127 80 178 137 90 168 127 80 171 130 83 160 119 72 158 117 70 171 130 83 162 121 74 163 122 75 164 123 76 165 124 77 161 120 73 155 114 67 161 120 73 178 137 90 155 114 67 169 128 81 160 119 72 162 121 74 164 123 76 165 124 77 163 122 75 176 135 88 170 129 82 160 119 72 161 120 73 176 135 88 168 127 80 165 124 77 164 123 76 157 116 69 162 121 74 174 133 86 166 125 78 158 117 70 166 125 78 167 126 79 158 117 70 173 132 85 171 130 83 157 116 69 156 115 68 174 133 86 167 126 79 167 126 79 157 116 69 171 130 83 164 123 76 174 133 86 160 119 72 167 126 79 163 122 75 168 127 80 172 131 84 157 116 69 162 121 74 164 123 76 172 131 84 174 133 86 166 125 78 168 127 80 160 119 72 166 125 78 162 121 74 177 136 89 174 133 86 172 131 84 156 115 68 159 118 71 158 117 70 174 133 86 177 136 89
160 119 72 162 121 74 176 135 88 172 131 84 172 131 84 169 128 81 163 122 75 159 118 71 159 118 71 162 121 74 160 119 72 161 120 73 156 115 68 159 118 71 165 124 77 164 123 76 165 124 77 163 122 75 171 130 83 156 115 68 168 127 80 174 133 86 154 113 66 176 135 88 167 126 79 174 133 86 163 122 75 168 127 80 169 128 81 152 111 64 161 120 73 173 132 85 169 128 81 165 124 77 177 136 89 171 130 83 158 117 70 157 116 69 161 120 73 160 119 72 164 123 76 176 135 88 165 124 77 161 120 73 161 120 73 168 127 80 161 120 73 169 128 81 168 127 80 168 127 80 155 114 67 165 124 77 168 127 80 159 118 71 158 117 70 168 127 80 167 126 79 164 123 76 174 133 86 170 129 82 156 115 68 159 118 71 161 120 73 175 134 87 173 132 85 170 129 82 173 132 85 163 122 75 165 124 77 162 121 74 172 131 84 172 131 84 174 133 86 169 128 81 154 113 66 169 128 81 154 113 66 166 125 78 170 129 82 176 135 88 164 123 76 174 133 86 174 133 86 173 132 85 163 122 75 160 119 72 173 132 85 162 121 74 158 117 70 172 131 84 158 117 70 174 133 86 166 125 78 163 122 75 166 125 78 166 125 78 167 126 79 172 131 84 157 116 69 159 118 71 163 122 75 165 124 77 164 123 76 174 133 86 171 130 83 161 120 73 160 119 72 173 132 85 172 131 84 161 120 73 160 119 72 165 124 77 158 117 70 176 135 88 158 117 70 161 120 73 161 120 73 154 113 66 156 115 68 172 131 84 168 127 80 163 122 75 176 135 88 176 135 88 169 128 81 160 119 72 165 124 77 166 125 78
165 124 77 160 119 72 169 128 81 158 117 70 159 118 71 167 126 79 160 119 72 175 134 87 172 131 84 167 126 79 165 124 77 175 134 87 165 124 77 159 118 71 174 133 86 172 131 84 155 114 67 165 124 77 157 116 69 159 118 71 165 124 77 167 126 79 162 121 74 153 112 65 156 115 68 163 122 75 173 132 85 164 123 76 164 123 76 156 115 68 164 123 76 172 131 84 169 128 81 163 122 75 162 121 74 166 125 78 162 121 74 162 121 74 163 122 75 160 119 72 162 121 74 159 118 71 169 128 81 167 126 79 156 115 68 161 120 73 173 132 85 153 112 65 158 117 70 166 125 78 156 115 68 170 129 82 156 115 68 171 130 83 171 130 83 170 129 82 172 131 84 167 126 79 168 127 80 164 123 76 165 124 77 167 126 79 175 134 87 166 125 78 165 124 77 157 116 69 159 118 71 164 123 76 174 133 86 175 134 87 156 115 68 166 125 78 172 131 84 159 118 71 172 131 84 163 122 75 167 126 79 173 132 85 166 125 78 167 126 79 164 123 76 171 130 83 166 125 78 160 119 72 170 129 82 167 126 79 161 120 73 162 121 74 151 110 63 166 125 78 168 127 80 159 118 71 164 123 76 159 118 71 166 125 78 159 118 71 177 136 89 156 115 68 163 122 75 157 116 69 160 119 72 166 125 78 178 137 90 160 119 72 157 116 69 170 129 82 166 125 78 159 118 71 161 120 73 156 115 68 161 120 73 156 115 68 169 128 81 167 126 79 160 119 72 171 130 83 162 121 74 166 125 78 163 122 75 172 131 84 175 134 87 167 126 79 171 130 83 174 133 86 162 121 74 168 127 80 162 121 74 166 125 78
159 118 71 169 128 81 158 117 70 158 117 70 163 122 75 163 122 75 162 121 74 160 119 72 155 114 67 173 132 85 165 124 77 161 120 73 152 111 64 157 116 69 175 134 87 162 121 74 169 128 81 174 133 86 151 110 63 156 115 68 166 125 78 172 131 84 167 126 79 176 135 88 169 128 81 167 126 79 156 115 68 159 118 71 158 117 70 170 129 82 176 135 88 152 111 64 160 119 72 155 114 67 168 127 80 173 132 85 166 125 78 171 130 83 165 124 77 156 115 68 172 131 84 158 117 70 169 128 81 164 123 76 160 119 72 172 131 84 156 115 68 157 116 69 165 124 77 166 125 78 162 121 74 163 122 75 158 117 70 165 124 77 161 120 73 169 128 81 157 116 69 174 133 86 175 134 87 157 116 69 164 123 76 174 133 86 165 124 77 154 113 66 157 116 69 171 130 83 164 123 76 159 118 71 156 115 68 166 125 78 165 124 77 173 132 85 174 133 86 167 126 79 171 130 83 160 119 72 174 133 86 156 115 68 158 117 70 158 117 70 154 113 66 156 115 68 153 112 65 156 115 68 161 120 73 167 126 79 172 131 84 159 118 71 165 124 77 171 130 83 167 126 79 160 119 72 165 124 77 166 125 78 173 132 85 161 120 73 153 112 65 166 125 78 169 128 81 162 121 74 164 123 76 152 111 64 166 125 78 173 132 85 160 119 72 159 118 71 163 122 75 159 118 71 163 122 75 167 126 79 167 126 79 169 128 81 163 122 75 172 131 84 163 122 75 172 131 84 163 122 75 156 115 68 157 116 69 168 127 80 159 118 71 162 121 74 156 115 68 171 130 83 154 113 66 165 124 77 168 127 80 167 126 79
169 128 81 169 128 81 161 120 73 172 131 84 162 121 74 166 125 78 167 126 79 157 116 69 161 120 73 154 113 66 157 116 69 158 117 70 172 131 84 160 119 72 170 129 82 156 115 68 161 120 73 158 117 70 173 132 85 156 115 68 171 130 83 153 112 65 168 127 80 169 128 81 154 113 66 169 128 81 157 116 69 161 120 73 153 112 65 164 123 76 167 126 79 163 122 75 167 126 79 162 121 74 165 124 77 161 120 73 167 126 79 164 123 76 163 122 75 169 128 81 155 114 67 171 130 83 157 116 69 164 123 76 160 119 72 172 131 84 157 116 69 156 115 68 164 123 76 166 125 78 166 125 78 166 125 78 163 122 75 169 128 81 165 124 77 168 127 80 152 111 64 154 113 66 165 124 77 166 125 78 157 116 69 169 128 81 175 134 87 153 112 65 159 118 71 166 125 78 160 119 72 167 126 79 154 113 66 167 126 79 163 122 75 164 123 76 171 130 83 163 122 75 170 129 82 154 113 66 167 126 79 158 117 70 152 111 64 165 124 77 164 123 76 168 127 80 171 130 83 158 117 70 160 119 72 159 118 71 171 130 83 157 116 69 153 112 65 173 132 85 161 120 73 151 110 63 168 127 80 157 116 69 163 122 75 170 129 82 173 132 85 166 125 78 159 118 71 154 113 66 161 120 73 158 117 70 161 120 73 172 131 84 172 131 84 169 128 81 158 117 70 151 110 63 163 122 75 164 123 76 152 111 64 164 123 76 161 120 73 169 128 81 161 120 73 158 117 70 161 120 73 155 114 67 153 112 65 171 130 83 166 125 78 172 131 84 166 125 78 153 112 65 160 119 72 162 121 74 155 114 67 166 125 78
162 121 74 168 127 80 167 126 79 167 126 79 172 131 84 157 116 69 166 125 78 173 132 85 155 114 67 161 120 73 161 120 73 158 117 70 160 119 72 167 126 79 160 119 72 167 126 79 169 128 81 170 129 82 169 128 81 157 116 69 174 133 86 172 131 84 173 132 85 165 124 77 164 123 76 151 110 63 164 123 76 155 114 67 168 127 80 156 115 68 168 127 80 158 117 70 154 113 66 170 129 82 158 117 70 154 113 66 160 119 72 156 115 68 168 127 80 158 117 70 155 114 67 174 133 86 158 117 70 156 115 68 166 125 78 160 119 72 170 129 82 161 120 73 157 116 69 158 117 70 166 125 78 162 121 74 160 119 72 155 114 67 172 131 84 158 117 70 161 120 73 172 131 84 159 118 71 156 115 68 155 114 67 156 115 68 169 128 81 157 116 69 166 125 78 168 127 80 156 115 68 156 115 68 167 126 79 161 120 73 157 116 69 157 116 69 171 130 83 156 115 68 171 130 83 160 119 72 153 112 65 156 115 68 175 134 87 171 130 83 170 129 82 168 127 80 158 117 70 164 123 76 157 116 69 157 116 69 158 117 70 171 130 83 157 116 69 159 118 71 166 125 78 162 121 74 159 118 71 173 132 85 165 124 77 163 122 75 153 112 65 167 126 79 157 116 69 156 115 68 172 131 84 149 108 61 163 122 75 160 119 72 168 127 80 168 127 80 168 127 80 164 123 76 167 126 79 161 120 73 154 113 66 158 117 70 160 119 72 158 117 70 166 125 78 171 130 83 170 129 82 161 120 73 155 114 67 162 121 74 165 124 77 160 119 72 167 126 79 151 110 63 156 115 68 163 122 75 161 120 73 160 119 72
167 126 79 173 132 85 156 115 68 165 124 77 170 129 82 167 126 79 168 127 80 159 118 71 155 114 67 163 122 75 164 123 76 149 108 61 170 129 82 162 121 74 153 112 65 155 114 67 165 124 77 171 130 83 152 111 64 167 126 79 164 123 76 159 118 71 156 115 68 151 110 63 160 119 72 158 117 70 153 112 65 155 114 67 167 126 79 160 119 72 154 113 66 166 125 78 157 116 69 174 133 86 155 114 67 156 115 68 151 110 63 163 122 75 166 125 78 162 121 74 162 121 74 159 118 71 166 125 78 161 120 73 164 123 76 161 120 73 159 118 71 172 131 84 161 120 73 165 124 77 150 109 62 152 111 64 152 111 64 170 129 82 154 113 66 156 115 68 160 119 72 157 116 69 151 110 63 158 117 70 164 123 76 164 123 76 156 115 68 166 125 78 164 123 76 162 121 74 174 133 86 151 110 63 166 125 78 166 125 78 165 124 77 155 114 67 159 118 71 170 129 82 168 127 80 157 116 69 162 121 74 158 117 70 162 121 74 167 126 79 163 122 75 160 119 72 158 117 70 166 125 78 163 122 75 158 117 70 156 115 68 157 116 69 169 128 81 160 119 72 168 127 80 160 119 72 170 129 82 159 118 71 165 124 77 167 126 79 164 123 76 155 114 67 170 129 82 156 115 68 159 118 71 160 119 72 162 121 74 166 125 78 160 119 72 163 122 75 156 115 68 163 122 75 160 119 72 153 112 65 170 129 82 165 124 77 157 116 69 169 128 81 161 120 73 157 116 69 166 125 78 169 128 81 150 109 62 175 134 87 162 121 74 174 133 86 152 111 64 163 122 75 168 127 80 164 123 76 169 128 81 153 112 65
158 117 70 152 111 64 154 113 66 154 113 66 159 118 71 163 122 75 162 121 74 153 112 65 157 116 69 166 125 78 168 127 80 157 116 69 166 125 78 172 131 84 164 123 76 169 128 81 166 125 78 163 122 75 168 127 80 158 117 70 166 125 78 153 112 65 158 117 70 163 122 75 157 116 69 167 126 79 162 121 74 173 132 85 170 129 82 161 120 73 168 127 80 166 125 78 171 130 83 157 116 69 157 116 69 165 124 77 157 116 69 169 128 81 157 116 69 164 123 76 156 115 68 161 120 73 154 113 66 155 114 67 164 123 76 174 133 86 170 129 82 168 127 80 161 120 73 164 123 76 163 122 75 160 119 72 162 121 74 160 119 72 165 124 77 161 120 73 162 121 74 166 125 78 150 109 62 156 115 68 156 115 68 153 112 65 157 116 69 162 121 74 161 120 73 155 114 67 157 116 69 166 125 78 156 115 68 155 114 67 163 122 75 165 124 77 168 127 80 166 125 78 169 128 81 166 125 78 160 119 72 159 118 71 153 112 65 170 129 82 161 120 73 165 124 77 163 122 75 170 129 82 154 113 66 152 111 64 169 128 81 158 117 70 160 119 72 162 121 74 173 132 85 155 114 67 166 125 78 155 114 67 160 119 72 168 127 80 163 122 75 165 124 77 161 120 73 173 132 85 155 114 67 160 119 72 165 124 77 154 113 66 161 120 73 153 112 65 163 122 75 162 121 74 167 126 79 155 114 67 157 116 69 158 117 70 172 131 84 173 132 85 166 125 78 159 118 71 162 121 74 166 125 78 171 130 83 173 132 85 164 123 76 166 125 78 160 119 72 159 118 71 173 132 85 164 123 76 170 129 82 166 125 78
165 124 77 172 131 84 168 127 80 170 129 82 169 128 81 173 132 85 161 120 73 169 128 81 174 133 86 157 116 69 161 120 73 171 130 83 170 129 82 166 125 78 161 120 73 154 113 66 150 109 62 162 121 74 157 116 69 165 124 77 158 117 70 160 119 72 168 127 80 166 125 78 161 120 73 158 117 70 172 131 84 171 130 83 164 123 76 155 114 67 153 112 65 151 110 63 157 116 69 160 119 72 160 119 72 152 111 64 163 122 75 167 126 79 169 128 81 156 115 68 157 116 69 163 122 75 160 119 72 159 118 71 169 128 81 167 126 79 166 125 78 158 117 70 160 119 72 172 131 84 166 125 78 169 128 81 161 120 73 171 130 83 154 113 66 164 123 76 153 112 65 154 113 66 155 114 67 166 125 78 169 128 81 156 115 68 157 116 69 160 119 72 167 126 79 156 115 68 160 119 72 159 118 71 157 116 69 167 126 79 163 122 75 170 129 82 159 118 71 156 115 68 165 124 77 160 119 72 155 114 67 164 123 76 167 126 79 167 126 79 155 114 67 170 129 82 161 120 73 173 132 85 167 126 79 161 120 73 172 131 84 160 119 72 168 127 80 160 119 72 170 129 82 168 127 80 161 120 73 156 115 68 160 119 72 158 117 70 163 122 75 157 116 69 164 123 76 161 120 73 155 114 67 156 115 68 164 123 76 168 127 80 167 126 79 159 118 71 166 125 78 172 131 84 159 118 71 169 128 81 159 118 71 169 128 81 152 111 64 170 129 82 166 125 78 158 117 70 173 132 85 154 113 66 161 120 73 165 124 77 174 133 86 172 131 84 167 126 79 170 129 82 154 113 66 163 122 75 151 110 63 153 112 65
161 120 73 167 126 79 151 110 63 166 125 78 156 115 68 162 121 74 167 126 79 169 128 81 167 126 79 164 123 76 169 128 81 161 120 73 175 134 87 168 127 80 161 120 73 158 117 70 162 121 74 164 123 76 156 115 68 163 122 75 159 118 71 157 116 69 165 124 77 170 129 82 163 122 75 163 122 75 157 116 69 160 119 72 166 125 78 165 124 77 173 132 85 159 118 71 153 112 65 154 113 66 176 135 88 173 132 85 158 117 70 175 134 87 155 114 67 171 130 83 156 115 68 165 124 77 165 124 77 168 127 80 169 128 81 168 127 80 162 121 74 157 116 69 160 119 72 155 114 67 168 127 80 155 114 67 165 124 77 162 121 74 162 121 74 168 127 80 164 123 76 163 122 75 159 118 71 165 124 77 166 125 78 168 127 80 172 131 84 170 129 82 159 118 71 165 124 77 167 126 79 172 131 84 170 129 82 160 119 72 161 120 73 157 116 69 163 122 75 156 115 68 160 119 72 175 134 87 164 123 76 170 129 82 173 132 85 170 129 82 170 129 82 171 130 83 172 131 84 152 111 64 167 126 79 159 118 71 171 130 83 170 129 82 152 111 64 173 132 85 161 120 73 163 122 75 174 133 86 155 114 67 174 133 86 163 122 75 158 117 70 167 126 79 170 129 82 176 135 88 168 127 80 165 124 77 175 134 87 155 114 67 162 121 74 162 121 74 162 121 74 172 131 84 171 130 83 155 114 67 158 117 70 173 132 85 159 118 71 167 126 79 158 117 70 162 121 74 160 119 72 170 129 82 166 125 78 176 135 88 158 117 70 158 117 70 176 135 88 165 124 77 162 121 74 172 131 84 159 118 71 163 122 75
154 113 66 163 122 75 177 136 89 161 120 73 155 114 67 175 134 87 176 135 88 170 129 82 161 120 73 167 126 79 161 120 73 163 122 75 167 126 79 160 119 72 153 112 65 174 133 86 158 117 70 153 112 65 177 136 89 163 122 75 159 118 71 169 128 81 163 122 75 163 122 75 164 123 76 161 120 73 166 125 78 166 125 78 176 135 88 161 120 73 162 121 74 171 130 83 173 132 85 156 115 68 159 118 71 170 129 82 163 122 75 164 123 76 157 116 69 155 114 67 158 117 70 165 124 77 165 124 77 162 121 74 162 121 74 173 132 85 175 134 87 154 113 66 174 133 86 167 126 79 163 122 75 166 125 78 156 115 68 171 130 83 164 123 76 170 129 82 163 122 75 166 125 78 157 116 69 159 118 71 169 128 81 169 128 81 162 121 74 172 131 84 154 113 66 165 124 77 173 132 85 153 112 65 170 129 82 164 123 76 153 112 65 168 127 80 169 128 81 169 128 81 169 128 81 159 118 71 162 121 74 163 122 75 163 122 75 175 134 87 166 125 78 171 130 83 169 128 81 161 120 73 162 121 74 162 121 74 159 118 71 164 123 76 172 131 84 170 129 82 170 129 82 159 118 71 161 120 73 163 122 75 168 127 80 168 127 80 159 118 71 168 127 80 164 123 76 169 128 81 162 121 74 162 121 74 164 123 76 156 115 68 170 129 82 157 116 69 164 123 76 160 119 72 165 124 77 169 128 81 173 132 85 165 124 77 157 116 69 168 127 80 157 116 69 157 116 69 158 117 70 175 134 87 174 133 86 158 117 70 172 131 84 173 132 85 173 132 85 161 120 73 169 128 81 172 131 84 175 134 87 156 115 68
163 122 75 173 132 85 159 118 71 178 137 90 160 119 72 172 131 84 165 124 77 174 133 86 171 130 83 165 124 77 162 121 74 153 112 65 157 116 69 165 124 77 158 117 70 176 135 88 165 124 77 171 130 83 167 126 79 173 132 85 169 128 81 169 128 81 164 123 76 161 120 73 157 116 69 160 119 72 174 133 86 162 121 74 167 126 79 162 121 74 164 123 76 163 122 75 168 127 80 159 118 71 162 121 74 156 115 68 163 122 75 170 129 82 168 127 80 177 136 89 173 132 85 166 125 78 172 131 84 176 135 88 173 132 85 161 120 73 167 126 79 161 120 73 159 118 71 172 131 84 157 116 69 165 124 77 162 121 74 160 119 72 163 122 75 157 116 69 165 124 77 161 120 73 164 123 76 158 117 70 164 123 76 173 132 85 163 122 75 163 122 75 164 123 76 161 120 73 166 125 78 177 136 89 163 122 75 170 129 82 169 128 81 169 128 81 167 126 79 166 125 78 167 126 79 163 122 75 174 133 86 165 124 77 172 131 84 158 117 70 163 122 75 165 124 77 162 121 74 168 127 80 171 130 83 169 128 81 157 116 69 157 116 69 166 125 78 172 131 84 157 116 69 166 125 78 161 120 73 163 122 75 158 117 70 161 120 73 173 132 85 167 126 79 160 119 72 155 114 67 162 121 74 173 132 85 172 131 84 167 126 79 167 126 79 168 127 80 164 123 76 160 119 72 170 129 82 163 122 75 155 114 67 156 115 68 165 124 77 163 122 75 174 133 86 155 114 67 171 130 83 154 113 66 154 113 66 157 116 69 177 136 89 169 128 81 175 134 87 159 118 71 155 114 67 153 112 65 163 122 75 176 135 88
163 122 75 163 122 75 167 126 79 162 121 74 164 123 76 170 129 82 161 120 73 163 122 75 176 135 88 173 132 85 163 122 75 171 130 83 177 136 89 173 132 85 157 116 69 167 126 79 162 121 74 166 125 78 177 136 89 163 122 75 164 123 76 177 136 89 162 121 74 161 120 73 164 123 76 168 127 80 163 122 75 163 122 75 168 127 80 170 129 82 164 123 76 170 129 82 159 118 71 160 119 72 160 119 72 170 129 82 162 121 74 163 122 75 173 132 85 176 135 88 167 126 79 164 123 76 157 116 69 171 130 83 162 121 74 163 122 75 164 123 76 171 130 83 169 128 81 167 126 79 158 117 70 165 124 77 172 131 84 165 124 77 163 122 75 172 131 84 175 134 87 167 126 79 171 130 83 176 135 88 172 131 84 166 125 78 173 132 85 159 118 71 164 123 76 170 129 82 170 129 82 166 125 78 168 127 80 160 119 72 160 119 72 159 118 71 160 119 72 173 132 85 177 136 89 165 124 77 153 112 65 164 123 76 172 131 84 172 131 84 169 128 81 156 115 68 169 128 81 157 116 69 160 119 72 163 122 75 156 115 68 167 126 79 158 117 70 167 126 79 174 133 86 163 122 75 176 135 88 156 115 68 178 137 90 156 115 68 159 118 71 160 119 72 163 122 75 173 132 85 159 118 71 168 127 80 175 134 87 173 132 85 166 125 78 176 135 88 177 136 89 162 121 74 169 128 81 154 113 66 160 119 72 173 132 85 160 119 72 170 129 82 171 130 83 169 128 81 173 132 85 162 121 74 161 120 73 175 134 87 174 133 86 176 135 88 179 138 91 169 128 81 162 121 74 163 122 75 172 131 84 169 128 81
158 117 70 159 118 71 154 113 66 169 128 81 166 125 78 169 128 81 168 127 80 168 127 80 165 124 77 159 118 71 156 115 68 160 119 72 171 130 83 161 120 73 173 132 85 164 123 76 161 120 73 160 119 72 175 134 87 163 122 75 172 131 84 177 136 89 170 129 82 169 128 81 154 113 66 165 124 77 172 131 84 168 127 80 168 127 80 172 131 84 167 126 79 154 113 66 158 117 70 170 129 82 172 131 84 177 136 89 156 115 68 173 132 85 156 115 68 166 125 78 173 132 85 162 121 74 164 123 76 168 127 80 168 127 80 174 133 86 162 121 74 168 127 80 165 124 77 171 130 83 156 115 68 157 116 69 167 126 79 169 128 81 167 126 79 173 132 85 159 118 71 164 123 76 170 129 82 161 120 73 175 134 87 158 117 70 159 118 71 171 130 83 167 126 79 164 123 76 164 123 76 160 119 72 167 126 79 163 122 75 162 121 74 163 122 75 171 130 83 159 118 71 155 114 67 156 115 68 160 119 72 159 118 71 166 125 78 172 131 84 175 134 87 173 132 85 169 128 81 176 135 88 163 122 75 162 121 74 167 126 79 164 123 76 161 120 73 161 120 73 160 119 72 165 124 77 164 123 76 159 118 71 166 125 78 164 123 76 170 129 82 167 126 79 157 116 69 158 117 70 159 118 71 159 118 71 158 117 70 174 133 86 157 116 69 157 116 69 162 121 74 173 132 85 156 115 68 161 120 73 165 124 77 165 124 77 163 122 75 173 132 85 161 120 73 159 118 71 166 125 78 164 123 76 160 119 72 169 128 81 176 135 88 160 119 72 176 135 88 170 129 82 178 137 90 173 132 85 168 127 80 154 113 66
173 132 85 158 117 70 179 138 91 159 118 71 154 113 66 176 135 88 174 133 86 157 116 69 170 129 82 164 123 76 160 119 72 161 120 73 160 119 72 160 119 72 160 119 72 163 122 75 165 124 77 169 128 81 174 133 86 154 113 66 164 123 76 178 137 90 160 119 72 171 130 83 167 126 79 165 124 77 168 127 80 158 117 70 160 119 72 171 130 83 166 125 78 167 126 79 163 122 75 174 133 86 161 120 73 155 114 67 172 131 84 161 120 73 168 127 80 172 131 84 174 133 86 172 131 84 154 113 66 169 128 81 157 116 69 174 133 86 164 123 76 176 135 88 171 130 83 169 128 81 160 119 72 168 127 80 169 128 81 158 117 70 158 117 70 164 123 76 159 118 71 176 135 88 160 119 72 157 116 69 157 116 69 173 132 85 160 119 72 161 120 73 178 137 90 160 119 72 173 132 85 171 130 83 172 131 84 161 120 73 162 121 74 166 125 78 158 117 70 176 135 88 161 120 73 168 127 80 169 128 81 157 116 69 167 126 79 171 130 83 170 129 82 160 119 72 167 126 79 165 124 77 163 122 75 159 118 71 160 119 72 165 124 77 175 134 87 171 130 83 164 123 76 176 135 88 157 116 69 154 113 66 165 124 77 165 124 77 174 133 86 162 121 74 164 123 76 166 125 78 171 130 83 165 124 77 159 118 71 161 120 73 166 125 78 160 119 72 164 123 76 170 129 82 154 113 66 175 134 87 174 133 86 166 125 78 155 114 67 168 127 80 159 118 71 174 133 86 168 127 80 160 119 72 166 125 78 176 135 88 174 133 86 177 136 89 167 126 79 171 130 83 169 128 81 171 130 83 159 118 71 165 124 77
154 113 66 156 115 68 171 130 83 160 119 72 167 126 79 171 130 83 159 118 71 169 128 81 166 125 78 168 127 80 152 111 64 157 116 69 176 135 88 158 117 70 168 127 80 158 117 70 161 120 73 163 122 75 166 125 78 176 135 88 153 112 65 168 127 80 169 128 81 171 130 83 170 129 82 174 133 86 171 130 83 161 120 73 169 128 81 169 128 81 167 126 79 172 131 84 166 125 78 167 126 79 164 123 76 165 124 77 161 120 73 166 125 78 167 126 79 167 126 79 174 133 86 170 129 82 151 110 63 160 119 72 174 133 86 160 119 72 159 118 71 168 127 80 160 119 72 163 122 75 167 126 79 161 120 73 174 133 86 162 121 74 173 132 85 172 131 84 169 128 81 175 134 87 159 118 71 164 123 76 160 119 72 170 129 82 169 128 81 159 118 71 165 124 77 162 121 74 161 120 73 151 110 63 172 131 84 169 128 81 156 115 68 162 121 74 156 115 68 169 128 81 169 128 81 176 135 88 171 130 83 172 131 84 162 121 74 170 129 82 163 122 75 174 133 86 158 117 70 154 113 66 162 121 74 157 116 69 168 127 80 160 119 72 168 127 80 163 122 75 156 115 68 170 129 82 164 123 76 155 114 67 173 132 85 164 123 76 166 125 78 165 124 77 170 129 82 161 120 73 169 128 81 164 123 76 170 129 82 172 131 84 157 116 69 168 127 80 168 127 80 156 115 68 157 116 69 160 119 72 167 126 79 161 120 73 163 122 75 171 130 83 166 125 78 160 119 72 165 124 77 154 113 66 162 121 74 172 131 84 173 132 85 170 129 82 174 133 86 163 122 75 169 128 81 170 129 82 157 116 69 170 129 82
155 114 67 157 116 69 170 129 82 174 133 86 167 126 79 169 128 81 156 115 68 170 129 82 164 123 76 158 117 70 152 111 64 158 117 70 161 120 73 165 124 77 162 121 74 163 122 75 166 125 78 160 119 72 156 115 68 171 130 83 174 133 86 163 122 75 174 133 86 168 127 80 173 132 85 160 119 72 172 131 84 166 125 78 170 129 82 167 126 79 154 113 66 163 122 75 171 130 83 162 121 74 163 122 75 165 124 77 154 113 66 173 132 85 168 127 80 156 115 68 152 111 64 165 124 77 162 121 74 155 114 67 162 121 74 159 118 71 169 128 81 164 123 76 172 131 84 167 126 79 165 124 77 169 128 81 162 121 74 172 131 84 158 117 70 164 123 76 157 116 69 171 130 83 165 124 77 168 127 80 173 132 85 158 117 70 164 123 76 158 117 70 170 129 82 167 126 79 172 131 84 174 133 86 158 117 70 160 119 72 170 129 82 170 129 82 151 110 63 162 121 74 169 128 81 169 128 81 172 131 84 175 134 87 167 126 79 175 134 87 160 119 72 163 122 75 154 113 66 170 129 82 166 125 78 157 116 69 160 119 72 162 121 74 163 122 75 160 119 72 161 120 73 158 117 70 169 128 81 170 129 82 176 135 88 163 122 75 156 115 68 167 126 79 170 129 82 164 123 76 159 118 71 170 129 82 161 120 73 160 119 72 166 125 78 165 124 77 166 125 78 155 114 67 158 117 70 158 117 70 154 113 66 168 127 80 172 131 84 153 112 65 170 129 82 163 122 75 165 124 77 157 116 69 172 131 84 155 114 67 165 124 77 166 125 78 160 119 72 165 124 77 163 122 75 160 119 72 161 120 73 166 125 78
164 123 76 160 119 72 157 116 69 171 130 83 158 117 70 165 124 77 154 113 66 158 117 70 166 125 78 158 117 70 155 114 67 168 127 80 165 124 77 154 113 66 157 116 69 154 113 66 167 126 79 167 126 79 154 113 66 163 122 75 155 114 67 173 132 85 172 131 84 157 116 69 162 121 74 157 116 69 157 116 69 166 125 78 163 122 75 156 115 68 159 118 71 161 120 73 166 125 78 164 123 76 160 119 72 156 115 68 171 130 83 166 125 78 168 127 80 159 118 71 166 125 78 159 118 71 169 128 81 166 125 78 166 125 78 168 127 80 159 118 71 156 115 68 166 125 78 164 123 76 167 126 79 156 115 68 152 111 64 163 122 75 158 117 70 160 119 72 169 128 81 159 118 71 165 124 77 160 119 72 165 124 77 152 111 64 172 131 84 165 124 77 160 119 72 164 123 76 155 114 67 157 116 69 158 117 70 173 132 85 166 125 78 160 119 72 155 114 67 165 124 77 168 127 80 170 129 82 157 116 69 172 131 84 167 126 79 161 120 73 171 130 83 168 127 80 159 118 71 171 130 83 171 130 83 154 113 66 168 127 80 160 119 72 165 124 77 166 125 78 152 111 64 163 122 75 159 118 71 164 123 76 162 121 74 170 129 82 151 110 63 170 129 82 168 127 80 157 116 69 153 112 65 168 127 80 158 117 70 168 127 80 173 132 85 167 126 79 162 121 74 155 114 67 164 123 76 154 113 66 159 118 71 163 122 75 172 131 84 163 122 75 175 134 87 173 132 85 163 122 75 168 127 80 155 114 67 160 119 72 155 114 67 164 123 76 160 119 72 163 122 75 151 110 63 157 116 69 160 119 72 164 123 76
163 122 75 156 115 68 168 127 80 155 114 67 171 130 83 161 120 73 163 122 75 156 115 68 158 117 70 170 129 82 161 120 73 158 117 70 167 126 79 159 118 71 163 122 75 157 116 69 156 115 68 168 127 80 167 126 79 166 125 78 166 125 78 163 122 75 160 119 72 159 118 71 175 134 87 152 111 64 172 131 84 171 130 83 155 114 67 168 127 80 169 128 81 154 113 66 164 123 76 166 125 78 167 126 79 160 119 72 174 133 86 162 121 74 166 125 78 151 110 63 164 123 76 168 127 80 160 119 72 152 111 64 151 110 63 152 111 64 162 121 74 153 112 65 156 115 68 155 114 67 159 118 71 161 120 73 161 120 73 167 126 79 161 120 73 156 115 68 171 130 83 169 128 81 168 127 80 159 118 71 165 124 77 152 111 64 170 129 82 158 117 70 161 120 73 153 112 65 161 120 73 156 115 68 158 117 70 158 117 70 154 113 66 167 126 79 162 121 74 155 114 67 161 120 73 159 118 71 174 133 86 171 130 83 169 128 81 163 122 75 158 117 70 159 118 71 171 130 83 170 129 82 162 121 74 151 110 63 155 114 67 154 113 66 170 129 82 171 130 83 155 114 67 158 117 70 168 127 80 165 124 77 175 134 87 159 118 71 168 127 80 159 118 71 153 112 65 173 132 85 152 111 64 164 123 76 152 111 64 171 130 83 163 122 75 157 116 69 169 128 81 168 127 80 165 124 77 162 121 74 159 118 71 168 127 80 167 126 79 162 121 74 166 125 78 160 119 72 162 121 74 156 115 68 162 121 74 157 116 69 154 113 66 166 125 78 158 117 70 153 112 65 160 119 72 172 131 84 167 126 79 171 130 83
168 127 80 166 125 78 166 125 78 150 109 62 157 116 69 156 115 68 151 110 63 157 116 69 161 120 73 165 124 77 159 118 71 166 125 78 158 117 70 169 128 81 171 130 83 165 124 77 155 114 67 155 114 67 163 122 75 159 118 71 155 114 67 161 120 73 152 111 64 159 118 71 164 123 76 155 114 67 156 115 68 162 121 74 164 123 76 164 123 76 170 129 82 157 116 69 151 110 63 154 113 66 152 111 64 154 113 66 158 117 70 162 121 74 162 121 74 157 116 69 166 125 78 156 115 68 150 109 62 159 118 71 166 125 78 151 110 63 161 120 73 163 122 75 172 131 84 154 113 66 157 116 69 158 117 70 162 121 74 163 122 75 174 133 86 165 124 77 169 128 81 161 120 73 169 128 81 170 129 82 151 110 63 165 124 77 161 120 73 161 120 73 162 121 74 165 124 77 172 131 84 157 116 69 171 130 83 175 134 87 163 122 75 165 124 77 163 122 75 157 116 69 162 121 74 161 120 73 172 131 84 158 117 70 164 123 76 162 121 74 154 113 66 160 119 72 166 125 78 163 122 75 158 117 70 155 114 67 162 121 74 171 130 83 163 122 75 156 115 68 158 117 70 164 123 76 171 130 83 169 128 81 157 116 69 157 116 69 166 125 78 159 118 71 168 127 80 160 119 72 156 115 68 169 128 81 162 121 74 164 123 76 170 129 82 167 126 79 167 126 79 165 124 77 170 129 82 156 115 68 159 118 71 165 124 77 167 126 79 158 117 70 162 121 74 151 110 63 167 126 79 166 125 78 159 118 71 165 124 77 168 127 80 175 134 87 168 127 80 164 123 76 154 113 66 164 123 76 168 127 80 170 129 82
171 130 83 157 116 69 158 117 70 151 110 63 166 125 78 164 123 76 153 112 65 161 120 73 166 125 78 166 125 78 161 120 73 166 125 78 164 123 76 163 122 75 162 121 74 163 122 75 174 133 86 157 116 69 171 130 83 156 115 68 163 122 75 164 123 76 158 117 70 169 128 81 165 124 77 164 123 76 158 117 70 155 114 67 169 128 81 159 118 71 153 112 65 157 116 69 164 123 76 165 124 77 160 119 72 162 121 74 162 121 74 164 123 76 160 119 72 169 128 81 152 111 64 171 130 83 172 131 84 164 123 76 169 128 81 165 124 77 165 124 77 167 126 79 167 126 79 172 131 84 167 126 79 154 113 66 170 129 82 159 118 71 159 118 71 164 123 76 168 127 80 155 114 67 170 129 82 150 109 62 159 118 71 160 119 72 170 129 82 156 115 68 158 117 70 156 115 68 157 116 69 156 115 68 162 121 74 157 116 69 156 115 68 167 126 79 170 129 82 154 113 66 160 119 72 160 119 72 160 119 72 159 118 71 157 116 69 151 110 63 159 118 71 159 118 71 151 110 63 168 127 80 157 116 69 164 123 76 156 115 68 163 122 75 170 129 82 157 116 69 160 119 72 164 123 76 169 128 81 170 129 82 167 126 79 156 115 68 165 124 77 171 130 83 151 110 63 166 125 78 164 123 76 168 127 80 152 111 64 155 114 67 160 119 72 160 119 72 166 125 78 157 116 69 159 118 71 162 121 74 157 116 69 163 122 75 168 127 80 171 130 83 151 110 63 175 134 87 155 114 67 163 122 75 167 126 79 169 128 81 163 122 75 160 119 72 167 126 79 173 132 85 172 131 84 166 125 78 156 115 68 170 129 82
155 114 67 155 114 67 168 127 80 158 117 70 166 125 78 163 122 75 176 135 88 169 128 81 165 124 77 167 126 79 166 125 78 160 119 72 159 118 71 161 120 73 157 116 69 150 109 62 170 129 82 157 116 69 157 116 69 167 126 79 152 111 64 162 121 74 170 129 82 168 127 80 169 128 81 166 125 78 162 121 74 171 130 83 172 131 84 168 127 80 160 119 72 157 116 69 167 126 79 161 120 73 160 119 72 163 122 75 160 119 72 154 113 66 160 119 72 158 117 70 151 110 63 159 118 71 170 129 82 164 123 76 162 121 74 170 129 82 166 125 78 156 115 68 170 129 82 160 119 72 166 125 78 155 114 67 155 114 67 151 110 63 162 121 74 153 112 65 156 115 68 168 127 80 165 124 77 171 130 83 156 115 68 167 126 79 171 130 83 160 119 72 166 125 78 172 131 84 167 126 79 152 111 64 161 120 73 159 118 71 165 124 77 165 124 77 160 119 72 165 124 77 167 126 79 164 123 76 163 122 75 158 117 70 156 115 68 168 127 80 163 122 75 155 114 67 162 121 74 172 131 84 175 134 87 171 130 83 171 130 83 162 121 74 167 126 79 163 122 75 174 133 86 166 125 78 161 120 73 169 128 81 171 130 83 163 122 75 157 116 69 156 115 68 173 132 85 169 128 81 163 122 75 153 112 65 171 130 83 165 124 77 157 116 69 156 115 68 171 130 83 166 125 78 169 128 81 162 121 74 173 132 85 152 111 64 164 123 76 172 131 84 151 110 63 166 125 78 165 124 77 166 125 78 166 125 78 157 116 69 164 123 76 156 115 68 156 115 68 168 127 80 168 127 80 167 126 79 174 133 86 160 119 72
174 133 86 167 126 79 156 115 68 175 134 87 167 126 79 172 131 84 163 122 75 161 120 73 174 133 86 153 112 65 160 119 72 156 115 68 169 128 81 173 132 85 173 132 85 155 114 67 168 127 80 165 124 77 172 131 84 165 124 77 151 110 63 156 115 68 170 129 82 175 134 87 160 119 72 153 112 65 173 132 85 158 117 70 173 132 85 172 131 84 160 119 72 158 117 70 166 125 78 162 121 74 158 117 70 170 129 82 158 117 70 152 111 64 163 122 75 158 117 70 157 116 69 160 119 72 159 118 71 165 124 77 156 115 68 160 119 72 163 122 75 169 128 81 171 130 83 158 117 70 171 130 83 155 114 67 163 122 75 173 132 85 162 121 74 160 119 72 168 127 80 163 122 75 172 131 84 163 122 75 152 111 64 167 126 79 172 131 84 168 127 80 175 134 87 161 120 73 169 128 81 165 124 77 170 129 82 158 117 70 156 115 68 160 119 72 165 124 77 164 123 76 171 130 83 163 122 75 165 124 77 169 128 81 156 115 68 171 130 83 162 121 74 160 119 72 173 132 85 167 126 79 155 114 67 152 111 64 170 129 82 168 127 80 159 118 71 170 129 82 173 132 85 167 126 79 160 119 72 156 115 68 173 132 85 157 116 69 171 130 83 171 130 83 165 124 77 162 121 74 162 121 74 170 129 82 159 118 71 164 123 76 163 122 75 164 123 76 167 126 79 169 128 81 155 114 67 174 133 86 167 126 79 166 125 78 173 132 85 173 132 85 164 123 76 159 118 71 163 122 75 169 128 81 171 130 83 173 132 85 167 126 79 163 122 75 170 129 82 155 114 67 168 127 80 158 117 70 168 127 80 157 116 69
178 137 90 174 133 86 156 115 68 171 130 83 158 117 70 165 124 77 156 115 68 161 120 73 165 124 77 164 123 76 172 131 84 167 126 79 154 113 66 160 119 72 168 127 80 163 122 75 164 123 76 171 130 83 158 117 70 174 133 86 174 133 86 170 129 82 154 113 66 153 112 65 163 122 75 161 120 73 168 127 80 157 116 69 165 124 77 162 121 74 172 131 84 168 127 80 168 127 80 165 124 77 164 123 76 152 111 64 168 127 80 152 111 64 160 119 72 174 133 86 161 120 73 172 131 84 155 114 67 164 123 76 161 120 73 172 131 84 155 114 67 171 130 83 160 119 72 165 124 77 172 131 84 157 116 69 173 132 85 165 124 77 157 116 69 168 127 80 162 121 74 164 123 76 160 119 72 167 126 79 155 114 67 160 119 72 159 118 71 167 126 79 171 130 83 169 128 81 174 133 86 163 122 75 159 118 71 168 127 80 170 129 82 169 128 81 155 114 67 168 127 80 173 132 85 157 116 69 166 125 78 161 120 73 153 112 65 173 132 85 168 127 80 170 129 82 166 125 78 176 135 88 171 130 83 175 134 87 172 131 84 159 118 71 167 126 79 156 115 68 169 128 81 158 117 70 160 119 72 161 120 73 162 121 74 162 121 74 158 117 70 163 122 75 173 132 85 154 113 66 169 128 81 156 115 68 164 123 76 172 131 84 157 116 69 172 131 84 163 122 75 165 124 77 168 127 80 166 125 78 176 135 88 164 123 76 176 135 88 164 123 76 169 128 81 157 116 69 174 133 86 154 113 66 156 115 68 174 133 86 154 113 66 167 126 79 161 120 73 170 129 82 172 131 84 162 121 74 171 130 83 165 124 77
158 117 70 163 122 75 171 130 83 166 125 78 159 118 71 160 119 72 160 119 72 162 121 74 167 126 79 165 124 77 165 124 77 154 113 66 171 130 83 156 115 68 157 116 69 168 127 80 163 122 75 158 117 70 170 129 82 164 123 76 174 133 86 167 126 79 173 132 85 161 120 73 168 127 80 159 118 71 165 124 77 164 123 76 176 135 88 166 125 78 177 136 89 157 116 69 170 129 82 155 114 67 169 128 81 168 127 80 159 118 71 163 122 75 161 120 73 163 122 75 156 115 68 177 136 89 169 128 81 169 128 81 159 118 71 166 125 78 175 134 87 164 123 76 163 122 75 168 127 80 171 130 83 169 128 81 157 116 69 162 121 74 165 124 77 161 120 73 172 131 84 173 132 85 159 118 71 169 128 81 161 120 73 170 129 82 172 131 84 156 115 68 161 120 73 163 122 75 160 119 72 176 135 88 172 131 84 169 128 81 158 117 70 170 129 82 162 121 74 167 126 79 167 126 79 156 115 68 168 127 80 168 127 80 168 127 80 164 123 76 171 130 83 153 112 65 168 127 80 167 126 79 170 129 82 159 118 71 167 126 79 171 130 83 173 132 85 156 115 68 167 126 79 164 123 76 164 123 76 169 128 81 161 120 73 169 128 81 169 128 81 160 119 72 164 123 76 164 123 76 175 134 87 167 126 79 162 121 74 153 112 65 171 130 83 177 136 89 165 124 77 168 127 80 174 133 86 166 125 78 172 131 84 175 134 87 172 131 84 164 123 76 168 127 80 178 137 90 154 113 66 160 119 72 175 134 87 164 123 76 169 128 81 169 128 81 168 127 80 166 125 78 167 126 79 157 116 69 159 118 71 162 121 74
174 133 86 161 120 73 170 129 82 160 119 72 179 138 91 168 127 80 177 136 89 165 124 77 156 115 68 155 114 67 160 119 72 176 135 88 163 122 75 173 132 85 173 132 85 164 123 76 165 124 77 167 126 79 159 118 71 174 133 86 168 127 80 167 126 79 167 126 79 170 129 82 160 119 72 160 119 72 158 117 70 160 119 72 170 129 82 157 116 69 156 115 68 168 127 80 170 129 82 157 116 69 172 131 84 172 131 84 167 126 79 165 124 77 168 127 80 175 134 87 172 131 84 158 117 70 161 120 73 172 131 84 155 114 67 174 133 86 157 116 69 161 120 73 170 129 82 155 114 67 174 133 86 168 127 80 159 118 71 174 133 86 168 127 80 157 116 69 155 114 67 169 128 81 165 124 77 163 122 75 159 118 71 161 120 73 157 116 69 172 131 84 168 127 80 157 116 69 166 125 78 172 131 84 167 126 79 170 129 82 170 129 82 166 125 78 165 124 77 173 132 85 160 119 72 169 128 81 174 133 86 170 129 82 160 119 72 173 132 85 164 123 76 173 132 85 156 115 68 158 117 70 161 120 73 172 131 84 173 132 85 162 121 74 159 118 71 162 121 74 174 133 86 177 136 89 164 123 76 174 133 86 156 115 68 168 127 80 179 138 91 171 130 83 169 128 81 165 124 77 172 131 84 165 124 77 163 122 75 166 125 78 164 123 76 159 118 71 167 126 79 158 117 70 160 119 72 165 124 77 158 117 70 154 113 66 158 117 70 169 128 81 176 135 88 159 118 71 159 118 71 177 136 89 172 131 84 159 118 71 162 121 74 170 129 82 168 127 80 172 131 84 162 121 74 167 126 79 156 115 68 165 124 77
163 122 75 175 134 87 155 114 67 164 123 76 162 121 74 172 131 84 176 135 88 164 123 76 170 129 82 167 126 79 160 119 72 178 137 90 158 117 70 170 129 82 162 121 74 164 123 76 162 121 74 167 126 79 176 135 88 161 120 73 168 127 80 158 117 70 171 130 83 173 132 85 161 120 73 173 132 85 171 130 83 158 117 70 169 128 81 171 130 83 170 129 82 167 126 79 163 122 75 162 121 74 162 121 74 172 131 84 174 133 86 169 128 81 172 131 84 161 120 73 160 119 72 164 123 76 177 136 89 177 136 89 171 130 83 169 128 81 162 121 74 176 135 88 158 117 70 156 115 68 179 138 91 163 122 75 158 117 70 165 124 77 165 124 77 157 116 69 161 120 73 170 129 82 174 133 86 168 127 80 169 128 81 161 120 73 163 122 75 161 120 73 164 123 76 168 127 80 177 136 89 164 123 76 173 132 85 167 126 79 168 127 80 163 122 75 172 131 84 171 130 83 178 137 90 162 121 74 172 131 84 160 119 72 172 131 84 171 130 83 165 124 77 165 124 77 176 135 88 173 132 85 172 131 84 164 123 76 157 116 69 158 117 70 165 124 77 167 126 79 176 135 88 159 118 71 162 121 74 176 135 88 164 123 76 169 128 81 164 123 76 157 116 69 170 129 82 158 117 70 156 115 68 165 124 77 166 125 78 175 134 87 157 116 69 159 118 71 159 118 71 170 129 82 159 118 71 161 120 73 176 135 88 163 122 75 164 123 76 157 116 69 176 135 88 166 125 78 172 131 84 159 118 71 176 135 88 165 124 77 172 131 84 165 124 77 161 120 73 169 128 81 172 131 84 170 129 82 177 136 89 171 130 83
169 128 81 156 115 68 158 117 70 170 129 82 173 132 85 163 122 75 162 121 74 153 112 65 175 134 87 161 120 73 165 124 77 163 122 75 176 135 88 170 129 82 166 125 78 174 133 86 157 116 69 163 122 75 168 127 80 160 119 72 163 122 75 175 134 87 160 119 72 175 134 87 165 124 77 174 133 86 175 134 87 168 127 80 170 129 82 175 134 87 156 115 68 169 128 81 157 116 69 160 119 72 161 120 73 168 127 80 169 128 81 170 129 82 173 132 85 174 133 86 175 134 87 172 131 84 169 128 81 166 125 78 171 130 83 175 134 87 178 137 90 168 127 80 168 127 80 167 126 79 164 123 76 169 128 81 169 128 81 169 128 81 164 123 76 172 131 84 166 125 78 165 124 77 163 122 75 176 135 88 167 126 79 178 137 90 164 123 76 169 128 81 156 115 68 163 122 75 166 125 78 162 121 74 168 127 80 170 129 82 175 134 87 174 133 86 162 121 74 158 117 70 164 123 76 176 135 88 174 133 86 167 126 79 171 130 83 166 125 78 164 123 76 157 116 69 177 136 89 160 119 72 173 132 85 174 133 86 165 124 77 162 121 74 161 120 73 172 131 84 172 131 84 173 132 85 155 114 67 175 134 87 162 121 74 161 120 73 171 130 83 169 128 81 157 116 69 173 132 85 160 119 72 166 125 78 165 124 77 165 124 77 175 134 87 168 127 80 173 132 85 161 120 73 170 129 82 160 119 72 170 129 82 172 131 84 170 129 82 177 136 89 172 131 84 173 132 85 169 128 81 159 118 71 155 114 67 154 113 66 163 122 75 173 132 85 168 127 80 173 132 85 170 129 82 159 118 71 164 123 76 174 133 86
163 122 75 172 131 84 157 116 69 164 123 76 158 117 70 162 121 74 162 121 74 162 121 74 172 131 84 168 127 80 158 117 70 166 125 78 164 123 76 160 119 72 166 125 78 161 120 73 165 124 77 166 125 78 166 125 78 161 120 73 159 118 71 164 123 76 175 134 87 158 117 70 172 131 84 152 111 64 160 119 72 168 127 80 173 132 85 159 118 71 168 127 80 167 126 79 151 110 63 160 119 72 168 127 80 167 126 79 159 118 71 170 129 82 173 132 85 166 125 78 168 127 80 168 127 80 154 113 66 155 114 67 169 128 81 175 134 87 172 131 84 168 127 80 160 119 72 159 118 71 170 129 82 170 129 82 160 119 72 155 114 67 170 129 82 162 121 74 164 123 76 166 125 78 167 126 79 158 117 70 174 133 86 162 121 74 172 131 84 157 116 69 169 128 81 162 121 74 155 114 67 160 119 72 160 119 72 174 133 86 164 123 76 167 126 79 162 121 74 169 128 81 157 116 69 161 120 73 166 125 78 170 129 82 162 121 74 156 115 68 164 123 76 173 132 85 168 127 80 168 127 80 171 130 83 161 120 73 157 116 69 171 130 83 173 132 85 171 130 83 176 135 88 165 124 77 155 114 67 170 129 82 161 120 73 168 127 80 161 120 73 173 132 85 169 128 81 161 120 73 170 129 82 172 131 84 157 116 69 158 117 70 159 118 71 175 134 87 162 121 74 173 132 85 162 121 74 167 126 79 158 117 70 157 116 69 160 119 72 165 124 77 173 132 85 161 120 73 160 119 72 165 124 77 171 130 83 158 117 70 163 122 75 172 131 84 168 127 80 168 127 80 166 125 78 157 116 69 156 115 68 160 119 72
169 128 81 158 117 70 153 112 65 173 132 85 152 111 64 172 131 84 173 132 85 174 133 86 155 114 67 155 114 67 159 118 71 177 136 89 173 132 85 175 134 87 168 127 80 169 128 81 166 125 78 162 121 74 160 119 72 160 119 72 170 129 82 164 123 76 167 126 79 159 118 71 154 113 66 172 131 84 175 134 87 164 123 76 173 132 85 169 128 81 162 121 74 160 119 72 158 117 70 170 129 82 161 120 73 162 121 74 169 128 81 158 117 70 159 118 71 177 136 89 153 112 65 170 129 82 168 127 80 161 120 73 171 130 83 176 135 88 171 130 83 164 123 76 151 110 63 166 125 78 172 131 84 163 122 75 166 125 78 168 127 80 167 126 79 152 111 64 171 130 83 170 129 82 159 118 71 164 123 76 170 129 82 160 119 72 174 133 86 155 114 67 158 117 70 161 120 73 157 116 69 166 125 78 171 130 83 170 129 82 168 127 80 163 122 75 160 119 72 166 125 78 165 124 77 159 118 71 164 123 76 167 126 79 160 119 72 164 123 76 160 119 72 174 133 86 169 128 81 158 117 70 160 119 72 158 117 70 172 131 84 159 118 71 158 117 70 157 116 69 161 120 73 159 118 71 160 119 72 168 127 80 170 129 82 156 115 68 159 118 71 162 121 74 162 121 74 167 126 79 168 127 80 161 120 73 171 130 83 155 114 67 168 127 80 161 120 73 167 126 79 165 124 77 167 126 79 172 131 84 159 118 71 160 119 72 165 124 77 154 113 66 171 130 83 154 113 66 172 131 84 162 121 74 161 120 73 167 126 79 155 114 67 160 119 72 156 115 68 159 118 71 171 130 83 157 116 69 155 114 67 162 121 74
168 127 80 153 112 65 159 118 71 164 123 76 166 125 78 157 116 69 167 126 79 157 116 69 163 122 75 169 128 81 159 118 71 174 133 86 170 129 82 152 111 64 163 122 75 169 128 81 160 119 72 166 125 78 166 125 78 161 120 73 168 127 80 164 123 76 155 114 67 168 127 80 171 130 83 155 114 67 159 118 71 164 123 76 158 117 70 151 110 63 167 126 79 149 108 61 169 128 81 161 120 73 167 126 79 155 114 67 168 127 80 169 128 81 154 113 66 167 126 79 171 130 83 172 131 84 165 124 77 171 130 83 161 120 73 160 119 72 156 115 68 172 131 84 162 121 74 157 116 69 168 127 80 163 122 75 165 124 77 165 124 77 163 122 75 163 122 75 164 123 76 156 115 68 176 135 88 160 119 72 172 131 84 168 127 80 166 125 78 153 112 65 162 121 74 161 120 73 155 114 67 158 117 70 160 119 72 163 122 75 160 119 72 154 113 66 169 128 81 152 111 64 173 132 85 168 127 80 175 134 87 164 123 76 161 120 73 163 122 75 169 128 81 158 117 70 173 132 85 157 116 69 171 130 83 167 126 79 170 129 82 152 111 64 172 131 84 165 124 77 152 111 64 163 122 75 177 136 89 169 128 81 164 123 76 157 116 69 172 131 84 158 117 70 164 123 76 165 124 77 167 126 79 153 112 65 161 120 73 167 126 79 154 113 66 174 133 86 163 122 75 168 127 80 159 118 71 168 127 80 165 124 77 154 113 66 175 134 87 158 117 70 175 134 87 162 121 74 161 120 73 175 134 87 170 129 82 155 114 67 157 116 69 166 125 78 151 110 63 165 124 77 151 110 63 169 128 81 162 121 74 162 121 74
161 120 73 172 131 84 157 116 69 164 123 76 163 122 75 153 112 65 154 113 66 172 131 84 156 115 68 156 115 68 157 116 69 173 132 85 165 124 77 161 120 73 170 129 82 164 123 76 163 122 75 166 125 78 153 112 65 163 122 75 169 128 81 166 125 78 173 132 85 165 124 77 169 128 81 156 115 68 170 129 82 167 126 79 150 109 62 161 120 73 167 126 79 158 117 70 157 116 69 168 127 80 163 122 75 158 117 70 170 129 82 156 115 68 163 122 75 161 120 73 158 117 70 152 111 64 157 116 69 157 116 69 158 117 70 157 116 69 171 130 83 171 130 83 166 125 78 169 128 81 169 128 81 158 117 70 164 123 76 169 128 81 160 119 72 156 115 68 164 123 76 158 117 70 164 123 76 158 117 70 166 125 78 161 120 73 167 126 79 151 110 63 165 124 77 153 112 65 149 108 61 165 124 77 151 110 63 173 132 85 166 125 78 161 120 73 159 118 71 159 118 71 167 126 79 155 114 67 159 118 71 168 127 80 169 128 81 154 113 66 164 123 76 167 126 79 157 116 69 163 122 75 154 113 66 152 111 64 170 129 82 160 119 72 166 125 78 165 124 77 161 120 73 171 130 83 163 122 75 159 118 71 152 111 64 156 115 68 162 121 74 158 117 70 162 121 74 156 115 68 153 112 65 154 113 66 166 125 78 164 123 76 158 117 70 169 128 81 154 113 66 171 130 83 169 128 81 167 126 79 167 126 79 167 126 79 162 121 74 164 123 76 159 118 71 161 120 73 156 115 68 167 126 79 176 135 88 173 132 85 166 125 78 168 127 80 154 113 66 164 123 76 151 110 63 164 123 76 172 131 84 166 125 78
163 122 75 159 118 71 164 123 76 168 127 80 173 132 85 157 116 69 165 124 77 165 124 77 159 118 71 161 120 73 161 120 73 158 117 70 160 119 72 156 115 68 168 127 80 172 131 84 165 124 77 156 115 68 158 117 70 163 122 75 165 124 77 172 131 84 171 130 83 161 120 73 168 127 80 163 122 75 157 116 69 155 114 67 166 125 78 164 123 76 155 114 67 159 118 71 161 120 73 154 113 66 152 111 64 156 115 68 154 113 66 167 126 79 166 125 78 160 119 72 174 133 86 152 111 64 165 124 77 155 114 67 172 131 84 162 121 74 172 131 84 163 122 75 153 112 65 162 121 74 158 117 70 155 114 67 171 130 83 158 117 70 153 112 65 165 124 77 167 126 79 161 120 73 157 116 69 168 127 80 159 118 71 160 119 72 159 118 71 149 108 61 157 116 69 156 115 68 155 114 67 174 133 86 156 115 68 155 114 67 172 131 84 173 132 85 158 117 70 152 111 64 163 122 75 158 117 70 167 126 79 156 115 68 157 116 69 154 113 66 166 125 78 158 117 70 172 131 84 174 133 86 152 111 64 172 131 84 156 115 68 169 128 81 165 124 77 158 117 70 160 119 72 165 124 77 171 130 83 166 125 78 166 125 78 168 127 80 165 124 77 164 123 76 168 127 80 152 111 64 157 116 69 155 114 67 170 129 82 161 120 73 159 118 71 159 118 71 157 116 69 154 113 66 167 126 79 170 129 82 160 119 72 157 116 69 172 131 84 156 115 68 175 134 87 171 130 83 160 119 72 156 115 68 168 127 80 160 119 72 175 134 87 164 123 76 171 130 83 174 133 86 158 117 70 161 120 73 163 122 75 161 120 73
157 116 69 159 118 71 155 114 67 160 119 72 163 122 75 152 111 64 165 124 77 167 126 79 171 130 83 158 117 70 165 124 77 162 121 74 168 127 80 171 130 83 169 128 81 163 122 75 163 122 75 161 120 73 161 120 73 162 121 74 170 129 82 171 130 83 164 123 76 150 109 62 165 124 77 155 114 67 152 111 64 161 120 73 162 121 74 160 119 72 160 119 72 164 123 76 161 120 73 158 117 70 174 133 86 170 129 82 169 128 81 154 113 66 154 113 66 166 125 78 160 119 72 154 113 66 156 115 68 153 112 65 166 125 78 160 119 72 170 129 82 159 118 71 169 128 81 157 116 69 170 129 82 174 133 86 170 129 82 165 124 77 158 117 70 175 134 87 173 132 85 158 117 70 152 111 64 153 112 65 153 112 65 158 117 70 157 116 69 171 130 83 165 124 77 173 132 85 152 111 64 157 116 69 158 117 70 158 117 70 171 130 83 173 132 85 173 132 85 163 122 75 171 130 83 151 110 63 159 118 71 168 127 80 153 112 65 160 119 72 176 135 88 168 127 80 172 131 84 170 129 82 166 125 78 169 128 81 165 124 77 168 127 80 171 130 83 159 118 71 154 113 66 165 124 77 159 118 71 166 125 78 173 132 85 163 122 75 155 114 67 155 114 67 160 119 72 154 113 66 166 125 78 149 108 61 162 121 74 167 126 79 152 111 64 169 128 81 154 113 66 167 126 79 168 127 80 154 113 66 166 125 78 160 119 72 170 129 82 156 115 68 167 126 79 154 113 66 153 112 65 150 109 62 156 115 68 170 129 82 157 116 69 153 112 65 155 114 67 171 130 83 163 122 75 161 120 73 158 117 70 165 124 77
155 114 67 167 126 79 171 130 83 155 114 67 159 118 71 170 129 82 168 127 80 160 119 72 161 120 73 168 127 80 159 118 71 161 120 73 163 122 75 154 113 66 150 109 62 175 134 87 159 118 71 158 117 70 157 116 69 153 112 65 170 129 82 163 122 75 170 129 82 152 111 64 156 115 68 154 113 66 156 115 68 164 123 76 161 120 73 164 123 76 155 114 67 162 121 74 164 123 76 151 110 63 162 121 74 159 118 71 156 115 68 159 118 71 164 123 76 172 131 84 151 110 63 165 124 77 157 116 69 162 121 74 157 116 69 158 117 70 170 129 82 155 114 67 155 114 67 162 121 74 165 124 77 161 120 73 171 130 83 169 128 81 157 116 69 155 114 67 158 117 70 166 125 78 155 114 67 152 111 64 154 113 66 165 124 77 174 133 86 166 125 78 175 134 87 156 115 68 166 125 78 159 118 71 166 125 78 172 131 84 157 116 69 158 117 70 159 118 71 171 130 83 163 122 75 174 133 86 155 114 67 151 110 63 154 113 66 150 109 62 153 112 65 160 119 72 166 125 78 165 124 77 169 128 81 155 114 67 157 116 69 168 127 80 164 123 76 156 115 68 156 115 68 159 118 71 169 128 81 158 117 70 168 127 80 163 122 75 158 117 70 168 127 80 150 109 62 150 109 62 165 124 77 166 125 78 166 125 78 149 108 61 164 123 76 167 126 79 165 124 77 166 125 78 168 127 80 171 130 83 168 127 80 161 120 73 165 124 77 157 116 69 169 128 81 168 127 80 152 111 64 168 127 80 160 119 72 166 125 78 165 124 77 150 109 62 160 119 72 168 127 80 161 120 73 166 125 78 169 128 81 171 130 83
154 113 66 167 126 79 153 112 65 166 125 78 173 132 85 158 117 70 161 120 73 169 128 81 163 122 75 161 120 73 155 114 67 161 120 73 170 129 82 171 130 83 171 130 83 158 117 70 175 134 87 168 127 80 154 113 66 170 129 82 163 122 75 160 119 72 171 130 83 174 133 86 166 125 78 164 123 76 156 115 68 161 120 73 160 119 72 157 116 69 165 124 77 156 115 68 159 118 71 160 119 72 158 117 70 160 119 72 152 111 64 166 125 78 168 127 80 161 120 73 170 129 82 166 125 78 170 129 82 162 121 74 155 114 67 163 122 75 157 116 69 171 130 83 169 128 81 169 128 81 170 129 82 159 118 71 163 122 75 163 122 75 152 111 64 164 123 76 162 121 74 172 131 84 169 128 81 166 125 78 169 128 81 172 131 84 157 116 69 168 127 80 161 120 73 160 119 72 176 135 88 173 132 85 163 122 75 171 130 83 160 119 72 170 129 82 164 123 76 164 123 76 169 128 81 170 129 82 160 119 72 176 135 88 154 113 66 168 127 80 168 127 80 169 128 81 161 120 73 172 131 84 164 123 76 165 124 77 157 116 69 158 117 70 169 128 81 171 130 83 158 117 70 172 131 84 172 131 84 162 121 74 166 125 78 170 129 82 171 130 83 156 115 68 175 134 87 156 115 68 169 128 81 155 114 67 159 118 71 171 130 83 162 121 74 163 122 75 174 133 86 174 133 86 168 127 80 165 124 77 171 130 83 166 125 78 161 120 73 165 124 77 167 126 79 164 123 76 172 131 84 166 125 78 157 116 69 164 123 76 151 110 63 171 130 83 166 125 78 161 120 73 166 125 78 153 112 65 163 122 75 165 124 77
165 124 77 160 119 72 167 126 79 172 131 84 164 123 76 155 114 67 159 118 71 163 122 75 162 121 74 171 130 83 161 120 73 174 133 86 162 121 74 167 126 79 171 130 83 163 122 75 173 132 85 169 128 81 161 120 73 165 124 77 153 112 65 171 130 83 171 130 83 155 114 67 173 132 85 159 118 71 170 129 82 157 116 69 174 133 86 172 131 84 163 122 75 162 121 74 166 125 78 168 127 80 170 129 82 155 114 67 159 118 71 151 110 63 162 121 74 156 115 68 171 130 83 168 127 80 173 132 85 156 115 68 157 116 69 159 118 71 153 112 65 163 122 75 172 131 84 165 124 77 161 120 73 155 114 67 171 130 83 172 131 84 160 119 72 166 125 78 154 113 66 161 120 73 163 122 75 168 127 80 173 132 85 159 118 71 159 118 71 171 130 83 164 123 76 163 122 75 158 117 70 166 125 78 170 129 82 153 112 65 171 130 83 155 114 67 174 133 86 172 131 84 158 117 70 158 117 70 154 113 66 176 135 88 157 116 69 156 115 68 165 124 77 174 133 86 162 121 74 158 117 70 175 134 87 169 128 81 168 127 80 159 118 71 157 116 69 161 120 73 160 119 72 173 132 85 160 119 72 164 123 76 162 121 74 165 124 77 164 123 76 166 125 78 170 129 82 174 133 86 156 115 68 169 128 81 159 118 71 173 132 85 164 123 76 151 110 63 161 120 73 163 122 75 164 123 76 166 125 78 168 127 80 167 126 79 155 114 67 153 112 65 158 117 70 163 122 75 173 132 85 163 122 75 169 128 81 154 113 66 158 117 70 169 128 81 158 117 70 158 117 70 158 117 70 160 119 72 168 127 80 171 130 83
163 122 75 172 131 84 175 134 87 164 123 76 163 122 75 159 118 71 168 127 80 163 122 75 156 115 68 176 135 88 164 123 76 176 135 88 156 115 68 176 135 88 161 120 73 167 126 79 163 122 75 172 131 84 167 126 79 157 116 69 166 125 78 172 131 84 160 119 72 174 133 86 165 124 77 168 127 80 168 127 80 165 124 77 173 132 85 167 126 79 178 137 90 171 130 83 164 123 76 173 132 85 166 125 78 165 124 77 170 129 82 165 124 77 160 119 72 170 129 82 170 129 82 172 131 84 171 130 83 174 133 86 168 127 80 165 124 77 162 121 74 163 122 75 155 114 67 161 120 73 163 122 75 155 114 67 167 126 79 170 129 82 178 137 90 160 119 72 164 123 76 166 125 78 163 122 75 167 126 79 158 117 70 165 124 77 168 127 80 161 120 73 168 127 80 163 122 75 167 126 79 161 120 73 161 120 73 172 131 84 161 120 73 159 118 71 170 129 82 173 132 85 165 124 77 161 120 73 153 112 65 165 124 77 170 129 82 168 127 80 164 123 76 161 120 73 165 124 77 173 132 85 158 117 70 160 119 72 173 132 85 160 119 72 166 125 78 165 124 77 174 133 86 159 118 71 164 123 76 170 129 82 155 114 67 154 113 66 168 127 80 164 123 76 165 124 77 159 118 71 178 137 90 153 112 65 172 131 84 154 113 66 165 124 77 158 117 70 173 132 85 157 116 69 168 127 80 170 129 82 163 122 75 171 130 83 173 132 85 163 122 75 172 131 84 168 127 80 173 132 85 163 122 75 161 120 73 159 118 71 171 130 83 175 134 87 166 125 78 156 115 68 170 129 82 169 128 81 157 116 69 162 121 74
174 133 86 161 120 73 172 131 84 173 132 85 160 119 72 166 125 78 169 128 81 169 128 81 160 119 72 169 128 81 172 131 84 168 127 80 162 121 74 162 121 74 163 122 75 172 131 84 174 133 86 162 121 74 168 127 80 171 130 83 158 117 70 174 133 86 160 119 72 167 126 79 164 123 76 172 131 84 158 117 70 170 129 82 166 125 78 164 123 76 174 133 86 162 121 74 167 126 79 164 123 76 157 116 69 174 133 86 163 122 75 156 115 68 173 132 85 169 128 81 176 135 88 160 119 72 156 115 68 159 118 71 174 133 86 162 121 74 158 117 70 162 121 74 165 124 77 168 127 80 170 129 82 164 123 76 173 132 85 172 131 84 164 123 76 165 124 77 165 124 77 171 130 83 164 123 76 171 130 83 157 116 69 163 122 75 160 119 72 167 126 79 172 131 84 169 128 81 166 125 78 174 133 86 160 119 72 158 117 70 163 122 75 156 115 68 170 129 82 167 126 79 171 130 83 168 127 80 165 124 77 171 130 83 168 127 80 169 128 81 165 124 77 162 121 74 154 113 66 173 132 85 165 124 77 165 124 77 155 114 67 165 124 77 159 118 71 176 135 88 173 132 85 164 123 76 168 127 80 166 125 78 159 118 71 169 128 81 158 117 70 154 113 66 170 129 82 162 121 74 159 118 71 172 131 84 172 131 84 164 123 76 163 122 75 165 124 77 161 120 73 165 124 77 169 128 81 158 117 70 161 120 73 157 116 69 165 124 77 156 115 68 158 117 70 167 126 79 169 128 81 178 137 90 163 122 75 162 121 74 174 133 86 167 126 79 160 119 72 155 114 67 160 119 72 167 126 79 177 136 89 172 131 84
169 128 81 170 129 82 159 118 71 158 117 70 159 118 71 170 129 82 166 125 78 160 119 72 164 123 76 163 122 75 166 125 78 167 126 79 159 118 71 172 131 84 160 119 72 179 138 91 176 135 88 163 122 75 174 133 86 173 132 85 168 127 80 172 131 84 159 118 71 177 136 89 170 129 82 167 126 79 169 128 81 157 116 69 161 120 73 168 127 80 172 131 84 163 122 75 171 130 83 159 118 71 174 133 86 167 126 79 167 126 79 167 126 79 176 135 88 170 129 82 171 130 83 160 119 72 177 136 89 164 123 76 161 120 73 171 130 83 171 130 83 170 129 82 163 122 75 177 136 89 176 135 88 171 130 83 159 118 71 163 122 75 158 117 70 163 122 75 161 120 73 169 128 81 169 128 81 159 118 71 163 122 75 169 128 81 169 128 81 170 129 82 169 128 81 170 129 82 170 129 82 163 122 75 164 123 76 165 124 77 166 125 78 165 124 77 163 122 75 158 117 70 178 137 90 171 130 83 159 118 71 171 130 83 163 122 75 174 133 86 167 126 79 165 124 77 168 127 80 161 120 73 171 130 83 159 118 71 172 131 84 174 133 86 170 129 82 159 118 71 156 115 68 165 124 77 161 120 73 174 133 86 175 134 87 153 112 65 162 121 74 175 134 87 158 117 70 160 119 72 166 125 78 153 112 65 160 119 72 163 122 75 163 122 75 163 122 75 160 119 72 173 132 85 164 123 76 166 125 78 174 133 86 177 136 89 172 131 84 159 118 71 161 120 73 171 130 83 163 122 75 158 117 70 161 120 73 163 122 75 165 124 77 162 121 74 168 127 80 175 134 87 161 120 73 164 123 76 168 127 80 168 127 80
178 137 90 156 115 68 160 119 72 162 121 74 163 122 75 158 117 70 165 124 77 154 113 66 160 119 72 155 114 67 158 117 70 164 123 76 156 115 68 159 118 71 176 135 88 169 128 81 168 127 80 167 126 79 157 116 69 167 126 79 171 130 83 164 123 76 166 125 78 166 125 78 157 116 69 174 133 86 173 132 85 170 129 82 166 125 78 155 114 67 159 118 71 160 119 72 175 134 87 164 123 76 157 116 69 156 115 68 161 120 73 171 130 83 174 133 86 158 117 70 169 128 81 165 124 77 161 120 73 173 132 85 172 131 84 173 132 85 170 129 82 166 125 78 174 133 86 156 115 68 156 115 68 173 132 85 172 131 84 167 126 79 154 113 66 167 126 79 162 121 74 166 125 78 170 129 82 173 132 85 160 119 72 179 138 91 164 123 76 173 132 85 166 125 78 161 120 73 176 135 88 166 125 78 159 118 71 168 127 80 170 129 82 178 137 90 174 133 86 172 131 84 175 134 87 168 127 80 172 131 84 176 135 88 168 127 80 163 122 75 159 118 71 175 134 87 178 137 90 169 128 81 159 118 71 162 121 74 157 116 69 159 118 71 175 134 87 172 131 84 177 136 89 169 128 81 178 137 90 160 119 72 171 130 83 171 130 83 159 118 71 167 126 79 169 128 81 167 126 79 161 120 73 163 122 75 161 120 73 162 121 74 157 116 69 167 126 79 163 122 75 165 124 77 175 134 87 161 120 73 161 120 73 173 132 85 169 128 81 163 122 75 170 129 82 160 119 72 168 127 80 165 124 77 172 131 84 161 120 73 171 130 83 176 135 88 159 118 71 168 127 80 163 122 75 172 131 84 174 133 86 167 126 79
170 129 82 159 118 71 161 120 73 172 131 84 156 115 68 163 122 75 164 123 76 159 118 71 162 121 74 170 129 82 160 119 72 174 133 86 166 125 78 161 120 73 166 125 78 169 128 81 177 136 89 168 127 80 173 132 85 167 126 79 177 136 89 170 129 82 164 123 76 165 124 77 172 131 84 172 131 84 169 128 81 158 117 70 168 127 80 165 124 77 165 124 77 164 123 76 175 134 87 171 130 83 157 116 69 159 118 71 166 125 78 166 125 78 162 121 74 155 114 67 169 128 81 168 127 80 170 129 82 166 125 78 164 123 76 168 127 80 164 123 76 168 127 80 168 127 80 172 131 84 160 119 72 170 129 82 155 114 67 173 132 85 169 128 81 175 134 87 171 130 83 158 117 70 160 119 72 166 125 78 166 125 78 168 127 80 168 127 80 162 121 74 160 119 72 166 125 78 164 123 76 161 120 73 170 129 82 157 116 69 161 120 73 166 125 78 175 134 87 171 130 83 171 130 83 158 117 70 155 114 67 168 127 80 172 131 84 167 126 79 161 120 73 169 128 81 173 132 85 178 137 90 170 129 82 171 130 83 166 125 78 165 124 77 178 137 90 174 133 86 167 126 79 169 128 81 156 115 68 168 127 80 157 116 69 173 132 85 164 123 76 171 130 83 171 130 83 156 115 68 169 128 81 167 126 79 162 121 74 160 119 72 162 121 74 173 132 85 163 122 75 174 133 86 165 124 77 159 118 71 174 133 86 171 130 83 165 124 77 173 132 85 172 131 84 161 120 73 165 124 77 171 130 83 157 116 69 162 121 74 173 132 85 160 119 72 169 128 81 156 115 68 156 115 68 165 124 77 166 125 78 171 130 83
166 125 78 171 130 83 160 119 72 160 119 72 156 115 68 168 127 80 163 122 75 157 116 69 157 116 69 159 118 71 153 112 65 163 122 75 160 119 72 171 130 83 167 126 79 167 126 79 158 117 70 156 115 68 168 127 80 164 123 76 169 128 81 163 122 75 167 126 79 158 117 70 170 129 82 167 126 79 162 121 74 170 129 82 156 115 68 164 123 76 171 130 83 167 126 79 174 133 86 165 124 77 158 117 70 160 119 72 158 117 70 165 124 77 170 129 82 165 124 77 167 126 79 153 112 65 162 121 74 153 112 65 161 120 73 168 127 80 159 118 71 169 128 81 161 120 73 167 126 79 157 116 69 154 113 66 161 120 73 163 122 75 168 127 80 172 131 84 168 127 80 157 116 69 165 124 77 173 132 85 159 118 71 163 122 75 159 118 71 173 132 85 172 131 84 161 120 73 161 120 73 169 128 81 169 128 81 158 117 70 161 120 73 167 126 79 177 136 89 162 121 74 168 127 80 171 130 83 164 123 76 165 124 77 164 123 76 165 124 77 157 116 69 155 114 67 160 119 72 168 127 80 178 137 90 168 127 80 156 115 68 175 134 87 157 116 69 158 117 70 161 120 73 168 127 80 165 124 77 162 121 74 159 118 71 161 120 73 157 116 69 162 121 74 168 127 80 158 117 70 174 133 86 161 120 73 162 121 74 175 134 87 159 118 71 164 123 76 167 126 79 158 117 70 168 127 80 152 111 64 170 129 82 167 126 79 178 137 90 157 116 69 159 118 71 162 121 74 171 130 83 155 114 67 173 132 85 166 125 78 156 115 68 160 119 72 169 128 81 154 113 66 167 126 79 155 114 67 159 118 71 158 117 70
158 117 70 167 126 79 173 132 85 171 130 83 170 129 82 159 118 71 157 116 69 159 118 71 162 121 74 170 129 82 174 133 86 165 124 77 160 119 72 173 132 85 164 123 76 162 121 74 155 114 67 161 120 73 163 122 75 151 110 63 167 126 79 155 114 67 155 114 67 165 124 77 156 115 68 166 125 78 166 125 78 175 134 87 173 132 85 171 130 83 155 114 67 154 113 66 151 110 63 170 129 82 158 117 70 162 121 74 162 121 74 154 113 66 162 121 74 162 121 74 162 121 74 170 129 82 171 130 83 164 123 76 163 122 75 161 120 73 158 117 70 156 115 68 169 128 81 155 114 67 161 120 73 159 118 71 155 114 67 161 120 73 166 125 78 161 120 73 174 133 86 166 125 78 155 114 67 169 128 81 156 115 68 167 126 79 163 122 75 170 129 82 168 127 80 158 117 70 169 128 81 172 131 84 162 121 74 166 125 78 154 113 66 156 115 68 158 117 70 162 121 74 161 120 73 167 126 79 163 122 75 169 128 81 171 130 83 166 125 78 171 130 83 158 117 70 175 134 87 159 118 71 167 126 79 159 118 71 167 126 79 167 126 79 172 131 84 152 111 64 158 117 70 175 134 87 169 128 81 159 118 71 174 133 86 158 117 70 163 122 75 167 126 79 159 118 71 163 122 75 158 117 70 159 118 71 170 129 82 173 132 85 158 117 70 162 121 74 169 128 81 155 114 67 172 131 84 163 122 75 165 124 77 159 118 71 162 121 74 157 116 69 166 125 78 158 117 70 172 131 84 155 114 67 169 128 81 159 118 71 158 117 70 162 121 74 177 136 89 154 113 66 174 133 86 165 124 77 171 130 83 159 118 71
163 122 75 159 118 71 158 117 70 161 120 73 164 123 76 158 117 70 171 130 83 162 121 74 160 119 72 159 118 71 169 128 81 152 111 64 154 113 66 168 127 80 156 115 68 155 114 67 155 114 67 165 124 77 165 124 77 172 131 84 170 129 82 166 125 78 170 129 82 162 121 74 167 126 79 172 131 84 163 122 75 171 130 83 166 125 78 153 112 65 154 113 66 154 113 66 165 124 77 171 130 83 158 117 70 170 129 82 162 121 74 156 115 68 159 118 71 167 126 79 161 120 73 165 124 77 168 127 80 157 116 69 175 134 87 166 125 78 165 124 77 157 116 69 168 127 80 172 131 84 169 128 81 170 129 82 169 128 81 162 121 74 168 127 80 168 127 80 158 117 70 161 120 73 163 122 75 154 113 66 164 123 76 156 115 68 154 113 66 173 132 85 149 108 61 156 115 68 153 112 65 160 119 72 166 125 78 162 121 74 172 131 84 162 121 74 168 127 80 161 120 73 158 117 70 160 119 72 167 126 79 158 117 70 175 134 87 158 117 70 155 114 67 164 123 76 160 119 72 169 128 81 159 118 71 173 132 85 158 117 70 158 117 70 174 133 86 173 132 85 164 123 76 154 113 66 172 131 84 171 130 83 158 117 70 159 118 71 158 117 70 163 122 75 157 116 69 174 133 86 165 124 77 159 118 71 159 118 71 161 120 73 167 126 79 168 127 80 159 118 71 168 127 80 163 122 75 170 129 82 167 126 79 171 130 83 165 124 77 173 132 85 167 126 79 169 128 81 155 114 67 157 116 69 167 126 79 170 129 82 163 122 75 160 119 72 152 111 64 162 121 74 171 130 83 162 121 74 171 130 83 159 118 71
167 126 79 162 121 74 167 126 79 168 127 80 156 115 68 159 118 71 153 112 65 158 117 70 168 127 80 155 114 67 166 125 78 167 126 79 152 111 64 165 124 77 162 121 74 165 124 77 162 121 74 171 130 83 166 125 78 157 116 69 165 124 77 161 120 73 157 116 69 159 118 71 171 130 83 151 110 63 157 116 69 162 121 74 154 113 66 154 113 66 163 122 75 167 126 79 165 124 77 163 122 75 163 122 75 174 133 86 152 111 64 165 124 77 173 132 85 173 132 85 166 125 78 166 125 78 156 115 68 174 133 86 167 126 79 159 118 71 165 124 77 160 119 72 171 130 83 152 111 64 166 125 78 158 117 70 173 132 85 164 123 76 167 126 79 167 126 79 166 125 78 156 115 68 168 127 80 159 118 71 168 127 80 161 120 73 171 130 83 156 115 68 162 121 74 158 117 70 156 115 68 171 130 83 171 130 83 156 115 68 153 112 65 153 112 65 173 132 85 173 132 85 154 113 66 165 124 77 164 123 76 162 121 74 154 113 66 151 110 63 165 124 77 157 116 69 165 124 77 158 117 70 166 125 78 168 127 80 160 119 72 153 112 65 160 119 72 155 114 67 160 119 72 165 124 77 167 126 79 164 123 76 157 116 69 167 126 79 172 131 84 156 115 68 170 129 82 163 122 75 172 131 84 168 127 80 163 122 75 157 116 69 153 112 65 157 116 69 162 121 74 164 123 76 164 123 76 156 115 68 165 124 77 167 126 79 168 127 80 174 133 86 164 123 76 171 130 83 153 112 65 158 117 70 160 119 72 162 121 74 152 111 64 151 110 63 163 122 75 161 120 73 165 124 77 168 127 80 162 121 74 157 116 69
165 124 77 150 109 62 167 126 79 167 126 79 160 119 72 154 113 66 162 121 74 156 115 68 153 112 65 168 127 80 165 124 77 157 116 69 165 124 77 154 113 66 170 129 82 170 129 82 172 131 84 161 120 73 154 113 66 159 118 71 168 127 80 167 126 79 167 126 79 161 120 73 163 122 75 162 121 74 174 133 86 170 129 82 156 115 68 165 124 77 167 126 79 163 122 75 167 126 79 168 127 80 167 126 79 173 132 85 159 118 71 171 130 83 172 131 84 169 128 81 156 115 68 169 128 81 164 123 76 156 115 68 153 112 65 155 114 67 151 110 63 157 116 69 164 123 76 153 112 65 165 124 77 171 130 83 166 125 78 156 115 68 168 127 80 173 132 85 168 127 80 164 123 76 169 128 81 160 119 72 160 119 72 156 115 68 164 123 76 163 122 75 162 121 74 156 115 68 159 118 71 169 128 81 172 131 84 171 130 83 158 117 70 160 119 72 157 116 69 166 125 78 169 128 81 167 126 79 156 115 68 166 125 78 149 108 61 158 117 70 169 128 81 159 118 71 167 126 79 156 115 68 159 118 71 153 112 65 156 115 68 169 128 81 171 130 83 168 127 80 158 117 70 172 131 84 162 121 74 172 131 84 162 121 74 165 124 77 171 130 83 159 118 71 163 122 75 170 129 82 164 123 76 157 116 69 162 121 74 161 120 73 167 126 79 163 122 75 150 109 62 164 123 76 174 133 86 160 119 72 156 115 68 159 118 71 160 119 72 163 122 75 159 118 71 162 121 74 158 117 70 162 121 74 160 119 72 156 115 68 166 125 78 161 120 73 162 121 74 156 115 68 173 132 85 161 120 73 166 125 78 165 124 77
167 126 79 175 134 87 173 132 85 156 115 68 166 125 78 172 131 84 160 119 72 158 117 70 161 120 73 169 128 81 167 126 79 169 128 81 155 114 67 154 113 66 163 122 75 150 109 62 167 126 79 166 125 78 161 120 73 170 129 82 163 122 75 154 113 66 159 118 71 161 120 73 165 124 77 172 131 84 160 119 72 164 123 76 150 109 62 171 130 83 159 118 71 156 115 68 160 119 72 159 118 71 162 121 74 150 109 62 172 131 84 167 126 79 156 115 68 161 120 73 166 125 78 165 124 77 170 129 82 161 120 73 164 123 76 162 121 74 170 129 82 154 113 66 157 116 69 165 124 77 161 120 73 170 129 82 172 131 84 157 116 69 158 117 70 164 123 76 168 127 80 162 121 74 156 115 68 158 117 70 157 116 69 157 116 69 162 121 74 169 128 81 172 131 84 170 129 82 153 112 65 155 114 67 154 113 66 152 111 64 161 120 73 164 123 76 170 129 82 162 121 74 157 116 69 164 123 76 168 127 80 157 116 69 163 122 75 160 119 72 171 130 83 171 130 83 155 114 67 166 125 78 163 122 75 175 134 87 151 110 63 160 119 72 168 127 80 164 123 76 163 122 75 171 130 83 172 131 84 154 113 66 170 129 82 165 124 77 160 119 72 160 119 72 173 132 85 157 116 69 168 127 80 165 124 77 152 111 64 156 115 68 158 117 70 169 128 81 172 131 84 158 117 70 167 126 79 163 122 75 168 127 80 159 118 71 164 123 76 153 112 65 160 119 72 166 125 78 153 112 65 172 131 84 155 114 67 166 125 78 173 132 85 155 114 67 162 121 74 155 114 67 163 122 75 168 127 80 164 123 76 171 130 83
157 116 69 163 122 75 163 122 75 163 122 75 154 113 66 164 123 76 170 129 82 162 121 74 158 117 70 166 125 78 159 118 71 158 117 70 159 118 71 162 121 74 162 121 74 164 123 76 172 131 84 167 126 79 157 116 69 162 121 74 164 123 76 160 119 72 174 133 86 152 111 64 174 133 86 166 125 78 154 113 66 161 120 73 169 128 81 163 122 75 155 114 67 155 114 67 157 116 69 161 120 73 163 122 75 157 116 69 156 115 68 154 113 66 173 132 85 160 119 72 163 122 75 161 120 73 153 112 65 155 114 67 171 130 83 171 130 83 159 118 71 155 114 67 171 130 83 154 113 66 156 115 68 154 113 66 170 129 82 161 120 73 159 118 71 165 124 77 174 133 86 163 122 75 159 118 71 159 118 71 155 114 67 168 127 80 169 128 81 172 131 84 175 134 87 158 117 70 156 115 68 162 121 74 176 135 88 159 118 71 166 125 78 161 120 73 160 119 72 156 115 68 169 128 81 167 126 79 169 128 81 159 118 71 150 109 62 157 116 69 164 123 76 166 125 78 160 119 72 173 132 85 168 127 80 160 119 72 164 123 76 160 119 72 159 118 71 152 111 64 169 128 81 153 112 65 165 124 77 170 129 82 170 129 82 157 116 69 174 133 86 165 124 77 166 125 78 157 116 69 157 116 69 161 120 73 160 119 72 172 131 84 150 109 62 169 128 81 174 133 86 164 123 76 157 116 69 155 114 67 152 111 64 177 136 89 169 128 81 167 126 79 158 117 70 151 110 63 163 122 75 170 129 82 164 123 76 162 121 74 156 115 68 156 115 68 160 119 72 170 129 82 159 118 71 170 129 82 164 123 76 156 115 68
166 125 78 167 126 79 163 122 75 166 125 78 165 124 77 160 119 72 165 124 77 161 120 73 163 122 75 164 123 76 164 123 76 158 117 70 157 116 69 165 124 77 169 128 81 162 121 74 162 121 74 159 118 71 154 113 66 155 114 67 154 113 66 159 118 71 176 135 88 173 132 85 170 129 82 163 122 75 169 128 81 162 121 74 164 123 76 155 114 67 156 115 68 163 122 75 167 126 79 161 120 73 172 131 84 172 131 84 172 131 84 166 125 78 170 129 82 172 131 84 165 124 77 157 116 69 163 122 75 158 117 70 154 113 66 170 129 82 169 128 81 159 118 71 174 133 86 171 130 83 163 122 75 159 118 71 168 127 80 167 126 79 173 132 85 160 119 72 167 126 79 167 126 79 158 117 70 156 115 68 164 123 76 163 122 75 167 126 79 165 124 77 166 125 78 174 133 86 171 130 83 162 121 74 165 124 77 170 129 82 165 124 77 171 130 83 163 122 75 161 120 73 159 118 71 170 129 82 151 110 63 167 126 79 158 117 70 169 128 81 170 129 82 177 136 89 160 119 72 160 119 72 166 125 78 157 116 69 154 113 66 174 133 86 168 127 80 174 133 86 164 123 76 165 124 77 164 123 76 163 122 75 161 120 73 171 130 83 156 115 68 152 111 64 169 128 81 166 125 78 175 134 87 163 122 75 171 130 83 170 129 82 158 117 70 158 117 70 161 120 73 161 120 73 169 128 81 164 123 76 158 117 70 165 124 77 162 121 74 163 122 75 163 122 75 167 126 79 159 118 71 156 115 68 169 128 81 168 127 80 159 118 71 153 112 65 159 118 71 172 131 84 169 128 81 160 119 72 167 126 79 162 121 74
156 115 68 163 122 75 171 130 83 173 132 85 170 129 82 164 123 76 156 115 68 168 127 80 177 136 89 167 126 79 162 121 74 167 126 79 168 127 80 162 121 74 169 128 81 170 129 82 173 132 85 168 127 80 164 123 76 173 132 85 153 112 65 162 121 74 169 128 81 165 124 77 171 130 83 173 132 85 169 128 81 163 122 75 164 123 76 169 128 81 153 112 65 171 130 83 155 114 67 170 129 82 175 134 87 172 131 84 156 115 68 160 119 72 167 126 79 176 135 88 166 125 78 170 129 82 157 116 69 162 121 74 165 124 77 169 128 81 170 129 82 169 128 81 171 130 83 162 121 74 164 123 76 164 123 76 158 117 70 163 122 75 163 122 75 174 133 86 177 136 89 160 119 72 168 127 80 167 126 79 171 130 83 157 116 69 157 116 69 174 133 86 169 128 81 161 120 73 157 116 69 176 135 88 160 119 72 159 118 71 177 136 89 165 124 77 168 127 80 170 129 82 168 127 80 160 119 72 158 117 70 166 125 78 167 126 79 153 112 65 173 132 85 166 125 78 160 119 72 158 117 70 166 125 78 165 124 77 168 127 80 169 128 81 151 110 63 169 128 81 158 117 70 168 127 80 174 133 86 170 129 82 162 121 74 161 120 73 166 125 78 164 123 76 172 131 84 163 122 75 154 113 66 161 120 73 167 126 79 169 128 81 164 123 76 168 127 80 170 129 82 158 117 70 153 112 65 163 122 75 166 125 78 173 132 85 158 117 70 158 117 70 171 130 83 170 129 82 165 124 77 169 128 81 158 117 70 169 128 81 168 127 80 163 122 75 152 111 64 164 123 76 158 117 70 165 124 77 160 119 72 161 120 73
171 130 83 168 127 80 166 125 78 164 123 76 168 127 80 161 120 73 166 125 78 155 114 67 160 119 72 174 133 86 168 127 80 166 125 78 167 126 79 158 117 70 171 130 83 164 123 76 162 121 74 169 128 81 172 131 84 173 132 85 171 130 83 163 122 75 158 117 70 156 115 68 158 117 70 157 116 69 166 125 78 170 129 82 154 113 66 164 123 76 165 124 77 173 132 85 156 115 68 162 121 74 163 122 75 167 126 79 166 125 78 163 122 75 162 121 74 166 125 78 171 130 83 171 130 83 161 120 73 164 123 76 157 116 69 161 120 73 171 130 83 168 127 80 156 115 68 174 133 86 164 123 76 162 121 74 170 129 82 173 132 85 159 118 71 171 130 83 172 131 84 158 117 70 158 117 70 162 121 74 156 115 68 175 134 87 167 126 79 167 126 79 162 121 74 170 129 82 166 125 78 163 122 75 161 120 73 171 130 83 164 123 76 165 124 77 166 125 78 161 120 73 153 112 65 167 126 79 159 118 71 167 126 79 165 124 77 169 128 81 162 121 74 171 130 83 167 126 79 174 133 86 173 132 85 167 126 79 178 137 90 168 127 80 175 134 87 177 136 89 172 131 84 165 124 77 170 129 82 164 123 76 163 122 75 169 128 81 167 126 79 161 120 73 163 122 75 168 127 80 171 130 83 159 118 71 167 126 79 169 128 81 169 128 81 163 122 75 155 114 67 162 121 74 159 118 71 176 135 88 173 132 85 164 123 76 169 128 81 178 137 90 166 125 78 159 118 71 156 115 68 169 128 81 162 121 74 164 123 76 169 128 81 163 122 75 173 132 85 164 123 76 161 120 73 172 131 84 176 135 88 165 124 77
156 115 68 166 125 78 158 117 70 166 125 78 159 118 71 169 128 81 175 134 87 159 118 71 171 130 83 158 117 70 175 134 87 160 119 72 168 127 80 164 123 76 174 133 86 176 135 88 159 118 71 163 122 75 163 122 75 162 121 74 166 125 78 165 124 77 169 128 81 168 127 80 170 129 82 166 125 78 173 132 85 161 120 73 161 120 73 167 126 79 164 123 76 160 119 72 171 130 83 172 131 84 168 127 80 172 131 84 169 128 81 177 136 89 175 134 87 174 133 86 156 115 68 171 130 83 163 122 75 173 132 85 174 133 86 167 126 79 161 120 73 159 118 71 160 119 72 169 128 81 166 125 78 176 135 88 173 132 85 172 131 84 170 129 82 171 130 83 158 117 70 167 126 79 159 118 71 160 119 72 158 117 70 171 130 83 170 129 82 172 131 84 173 132 85 173 132 85 163 122 75 176 135 88 174 133 86 157 116 69 175 134 87 165 124 77 170 129 82 175 134 87 167 126 79 162 121 74 157 116 69 173 132 85 156 115 68 170 129 82 171 130 83 175 134 87 161 120 73 157 116 69 169 128 81 174 133 86 178 137 90 158 117 70 158 117 70 163 122 75 159 118 71 157 116 69 158 117 70 167 126 79 169 128 81 174 133 86 158 117 70 163 122 75 165 124 77 161 120 73 173 132 85 156 115 68 168 127 80 171 130 83 164 123 76 165 124 77 171 130 83 155 114 67 162 121 74 162 121 74 170 129 82 159 118 71 166 125 78 167 126 79 162 121 74 157 116 69 153 112 65 164 123 76 171 130 83 171 130 83 154 113 66 163 122 75 175 134 87 163 122 75 163 122 75 162 121 74 163 122 75 175 134 87
170 129 82 159 118 71 161 120 73 152 111 64 172 131 84 160 119 72 172 131 84 170 129 82 162 121 74 177 136 89 164 123 76 157 116 69 157 116 69 167 126 79 177 136 89 160 119 72 171 130 83 165 124 77 169 128 81 155 114 67 158 117 70 167 126 79 171 130 83 174 133 86 156 115 68 164 123 76 174 133 86 178 137 90 167 126 79 168 127 80 175 134 87 164 123 76 158 117 70 175 134 87 168 127 80 168 127 80 172 131 84 173 132 85 179 138 91 166 125 78 164 123 76 176 135 88 169 128 81 155 114 67 166 125 78 167 126 79 166 125 78 171 130 83 163 122 75 171 130 83 169 128 81 168 127 80 165 124 77 158 117 70 165 124 77 169 128 81 161 120 73 167 126 79 159 118 71 158 117 70 158 117 70 161 120 73 160 119 72 156 115 68 161 120 73 162 121 74 178 137 90 158 117 70 171 130 83 164 123 76 177 136 89 172 131 84 177 136 89 173 132 85 172 131 84 169 128 81 171 130 83 176 135 88 156 115 68 177 136 89 155 114 67 166 125 78 171 130 83 164 123 76 172 131 84 156 115 68 163 122 75 161 120 73 162 121 74 172 131 84 155 114 67 172 131 84 171 130 83 175 134 87 177 136 89 173 132 85 162 121 74 170 129 82 155 114 67 170 129 82 178 137 90 166 125 78 164 123 76 173 132 85 158 117 70 178 137 90 173 132 85 173 132 85 159 118 71 166 125 78 159 118 71 167 126 79 174 133 86 163 122 75 166 125 78 162 121 74 168 127 80 172 131 84 172 131 84 172 131 84 155 114 67 167 126 79 156 115 68 168 127 80 166 125 78 165 124 77 157 116 69 173 132 85
159 118 71 168 127 80 160 119 72 156 115 68 174 133 86 158 117 70 163 122 75 166 125 78 166 125 78 155 114 67 163 122 75 160 119 72 162 121 74 170 129 82 156 115 68 160 119 72 171 130 83 159 118 71 165 124 77 158 117 70 169 128 81 167 126 79 165 124 77 159 118 71 175 134 87 156 115 68 167 126 79 163 122 75 171 130 83 169 128 81 157 116 69 159 118 71 161 120 73 167 126 79 173 132 85 165 124 77 169 128 81 169 128 81 165 124 77 167 126 79 174 133 86 163 122 75 158 117 70 166 125 78 170 129 82 171 130 83 171 130 83 170 129 82 158 117 70 168 127 80 172 131 84 164 123 76 154 113 66 160 119 72 169 128 81 155 114 67 161 120 73 175 134 87 174 133 86 171 130 83 172 131 84 167 126 79 164 123 76 170 129 82 159 118 71 166 125 78 175 134 87 175 134 87 165 124 77 176 135 88 164 123 76 172 131 84 157 116 69 165 124 77 160 119 72 159 118 71 161 120 73 165 124 77 157 116 69 179 138 91 165 124 77 158 117 70 176 135 88 172 131 84 157 116 69 160 119 72 173 132 85 173 132 85 160 119 72 170 129 82 168 127 80 170 129 82 169 128 81 163 122 75 161 120 73 170 129 82 155 114 67 176 135 88 159 118 71 167 126 79 163 122 75 164 123 76 167 126 79 162 121 74 161 120 73 161 120 73 170 129 82 161 120 73 171 130 83 157 116 69 162 121 74 168 127 80 160 119 72 157 116 69 175 134 87 168 127 80 160 119 72 167 126 79 170 129 82 159 118 71 161 120 73 157 116 69 154 113 66 161 120 73 168 127 80 163 122 75 168 127 80 165 124 77
168 127 80 175 134 87 166 125 78 167 126 79 160 119 72 158 117 70 173 132 85 163 122 75 171 130 83 156 115 68 164 123 76 168 127 80 177 136 89 168 127 80 165 124 77 165 124 77 163 122 75 171 130 83 174 133 86 162 121 74 169 128 81 161 120 73 168 127 80 165 124 77 156 115 68 174 133 86 162 121 74 160 119 72 162 121 74 157 116 69 156 115 68 172 131 84 173 132 85 167 126 79 168 127 80 173 132 85 159 118 71 175 134 87 156 115 68 170 129 82 158 117 70 158 117 70 169 128 81 160 119 72 159 118 71 163 122 75 157 116 69 155 114 67 170 129 82 174 133 86 172 131 84 168 127 80 166 125 78 163 122 75 156 115 68 158 117 70 169 128 81 172 131 84 164 123 76 166 125 78 161 120 73 176 135 88 156 115 68 159 118 71 158 117 70 170 129 82 172 131 84 162 121 74 163 122 75 177 136 89 173 132 85 173 132 85 162 121 74 172 131 84 164 123 76 164 123 76 162 121 74 164 123 76 175 134 87 161 120 73 160 119 72 168 127 80 154 113 66 169 128 81 157 116 69 167 126 79 160 119 72 157 116 69 152 111 64 167 126 79 167 126 79 157 116 69 157 116 69 162 121 74 157 116 69 158 117 70 172 131 84 165 124 77 158 117 70 168 127 80 156 115 68 156 115 68 161 120 73 161 120 73 159 118 71 169 128 81 164 123 76 170 129 82 173 132 85 160 119 72 175 134 87 171 130 83 154 113 66 162 121 74 175 134 87 162 121 74 174 133 86 161 120 73 176 135 88 160 119 72 160 119 72 166 125 78 154 113 66 173 132 85 174 133 86 155 114 67 160 119 72 158 117 70
170 129 82 159 118 71 158 117 70 170 129 82 151 110 63 159 118 71 167 126 79 161 120 73 165 124 77 162 121 74 157 116 69 158 117 70 159 118 71 161 120 73 159 118 71 173 132 85 159 118 71 157 116 69 167 126 79 163 122 75 169 128 81 164 123 76 168 127 80 171 130 83 162 121 74 170 129 82 163 122 75 159 118 71 168 127 80 177 136 89 170 129 82 161 120 73 155 114 67 158 117 70 160 119 72 166 125 78 162 121 74 166 125 78 165 124 77 153 112 65 152 111 64 171 130 83 164 123 76 157 116 69 169 128 81 158 117 70 167 126 79 154 113 66 172 131 84 153 112 65 162 121 74 157 116 69 164 123 76 164 123 76 162 121 74 161 120 73 170 129 82 169 128 81 160 119 72 168 127 80 167 126 79 166 125 78 160 119 72 170 129 82 169 128 81 157 116 69 170 129 82 164 123 76 157 116 69 168 127 80 159 118 71 157 116 69 161 120 73 167 126 79 161 120 73 168 127 80 168 127 80 161 120 73 155 114 67 168 127 80 172 131 84 168 127 80 156 115 68 155 114 67 151 110 63 165 124 77 170 129 82 166 125 78 162 121 74 169 128 81 169 128 81 173 132 85 161 120 73 155 114 67 158 117 70 151 110 63 176 135 88 164 123 76 162 121 74 164 123 76 169 128 81 169 128 81 173 132 85 159 118 71 166 125 78 167 126 79 164 123 76 158 117 70 167 126 79 160 119 72 160 119 72 166 125 78 163 122 75 164 123 76 166 125 78 176 135 88 159 118 71 153 112 65 172 131 84 172 131 84 157 116 69 159 118 71 160 119 72 174 133 86 172 131 84 167 126 79 172 131 84 162 121 74
156 115 68 162 121 74 173 132 85 154 113 66 169 128 81 156 115 68 164 123 76 174 133 86 165 124 77 161 120 73 163 122 75 153 112 65 158 117 70 172 131 84 157 116 69 172 131 84 163 122 75 177 136 89 156 115 68 171 130 83 164 123 76 155 114 67 169 128 81 161 120 73 163 122 75 161 120 73 149 108 61 171 130 83 174 133 86 161 120 73 173 132 85 165 124 77 164 123 76 170 129 82 156 115 68 161 120 73 167 126 79 165 124 77 156 115 68 171 130 83 171 130 83 162 121 74 170 129 82 171 130 83 159 118 71 170 129 82 163 122 75 157 116 69 166 125 78 160 119 72 169 128 81 169 128 81 168 127 80 163 122 75 163 122 75 157 116 69 166 125 78 153 112 65 175 134 87 165 124 77 164 123 76 150 109 62 167 126 79 168 127 80 164 123 76 155 114 67 160 119 72 159 118 71 167 126 79 161 120 73 158 117 70 168 127 80 165 124 77 167 126 79 172 131 84 163 122 75 167 126 79 165 124 77 171 130 83 160 119 72 168 127 80 168 127 80 156 115 68 157 116 69 168 127 80 170 129 82 164 123 76 159 118 71 163 122 75 160 119 72 152 111 64 165 124 77 159 118 71 169 128 81 162 121 74 172 131 84 169 128 81 160 119 72 161 120 73 165 124 77 169 128 81 167 126 79 160 119 72 155 114 67 154 113 66 172 131 84 160 119 72 155 114 67 156 115 68 174 133 86 165 124 77 159 118 71 166 125 78 169 128 81 161 120 73 159 118 71 169 128 81 161 120 73 172 131 84 158 117 70 154 113 66 168 127 80 161 120 73 170 129 82 166 125 78 177 136 89 171 130 83 160 119 72
154 113 66 155 114 67 157 116 69 157 116 69 155 114 67 157 116 69 174 133 86 162 121 74 159 118 71 159 118 71 156 115 68 166 125 78 170 129 82 171 130 83 172 131 84 158 117 70 158 117 70 175 134 87 150 109 62 168 127 80 168 127 80 164 123 76 169 128 81 161 120 73 160 119 72 153 112 65 162 121 74 170 129 82 156 115 68 166 125 78 168 127 80 155 114 67 171 130 83 175 134 87 155 114 67 153 112 65 159 118 71 165 124 77 158 117 70 149 108 61 166 125 78 153 112 65 156 115 68 167 126 79 166 125 78 171 130 83 163 122 75 152 111 64 162 121 74 162 121 74 170 129 82 166 125 78 163 122 75 163 122 75 160 119 72 170 129 82 163 122 75 168 127 80 158 117 70 174 133 86 168 127 80 158 117 70 168 127 80 164 123 76 163 122 75 169 128 81 159 118 71 173 132 85 162 121 74 160 119 72 159 118 71 160 119 72 157 116 69 157 116 69 170 129 82 175 134 87 173 132 85 166 125 78 163 122 75 163 122 75 153 112 65 174 133 86 170 129 82 157 116 69 159 118 71 159 118 71 154 113 66 155 114 67 168 127 80 159 118 71 158 117 70 174 133 86 161 120 73 158 117 70 164 123 76 161 120 73 167 126 79 171 130 83 154 113 66 159 118 71 156 115 68 169 128 81 157 116 69 160 119 72 152 111 64 161 120 73 165 124 77 174 133 86 166 125 78 171 130 83 167 126 79 162 121 74 172 131 84 153 112 65 157 116 69 168 127 80 152 111 64 157 116 69 152 111 64 151 110 63 162 121 74 165 124 77 160 119 72 165 124 77 156 115 68 162 121 74 167 126 79 172 131 84
170 129 82 162 121 74 168 127 80 169 128 81 162 121 74 154 113 66 172 131 84 158 117 70 168 127 80 151 110 63 170 129 82 151 110 63 164 123 76 156 115 68 169 128 81 169 128 81 153 112 65 169 128 81 165 124 77 163 122 75 156 115 68 168 127 80 157 116 69 158 117 70 169 128 81 169 128 81 155 114 67 173 132 85 158 117 70 163 122 75 167 126 79 169 128 81 162 121 74 173 132 85 158 117 70 151 110 63 172 131 84 163 122 75 174 133 86 168 127 80 155 114 67 159 118 71 156 115 68 168 127 80 167 126 79 159 118 71 155 114 67 161 120 73 165 124 77 153 112 65 161 120 73 171 130 83 176 135 88 164 123 76 169 128 81 160 119 72 151 110 63 158 117 70 162 121 74 164 123 76 165 124 77 163 122 75 172 131 84 174 133 86 173 132 85 167 126 79 164 123 76 170 129 82 156 115 68 172 131 84 170 129 82 166 125 78 151 110 63 161 120 73 164 123 76 154 113 66 167 126 79 165 124 77 163 122 75 168 127 80 165 124 77 169 128 81 167 126 79 153 112 65 169 128 81 169 128 81 165 124 77 168 127 80 169 128 81 165 124 77 163 122 75 161 120 73 155 114 67 162 121 74 171 130 83 151 110 63 164 123 76 161 120 73 170 129 82 175 134 87 165 124 77 165 124 77 163 122 75 156 115 68 161 120 73 160 119 72 164 123 76 169 128 81 155 114 67 162 121 74 167 126 79 167 126 79 158 117 70 153 112 65 150 109 62 158 117 70 168 127 80 158 117 70 152 111 64 152 111 64 166 125 78 156 115 68 170 129 82 169 128 81 164 123 76 161 120 73 162 121 74 166 125 78
165 124 77 158 117 70 163 122 75 169 128 81 164 123 76 172 131 84 165 124 77 166 125 78 168 127 80 170 129 82 164 123 76 162 121 74 149 108 61 166 125 78 157 116 69 165 124 77 155 114 67 149 108 61 165 124 77 169 128 81 163 122 75 157 116 69 154 113 66 152 111 64 165 124 77 165 124 77 166 125 78 166 125 78 152 111 64 166 125 78 157 116 69 172 131 84 161 120 73 154 113 66 166 125 78 170 129 82 153 112 65 150 109 62 162 121 74 168 127 80 160 119 72 161 120 73 166 125 78 169 128 81 171 130 83 170 129 82 151 110 63 165 124 77 162 121 74 173 132 85 165 124 77 174 133 86 158 117 70 154 113 66 151 110 63 162 121 74 164 123 76 174 133 86 153 112 65 170 129 82 172 131 84 172 131 84 161 120 73 168 127 80 152 111 64 162 121 74 166 125 78 151 110 63 154 113 66 159 118 71 157 116 69 171 130 83 162 121 74 162 121 74 167 126 79 168 127 80 165 124 77 166 125 78 165 124 77 152 111 64 170 129 82 173 132 85 167 126 79 169 128 81 150 109 62 168 127 80 167 126 79 162 121 74 161 120 73 162 121 74 158 117 70 157 116 69 167 126 79 169 128 81 169 128 81 155 114 67 166 125 78 167 126 79 152 111 64 160 119 72 164 123 76 164 123 76 164 123 76 166 125 78 169 128 81 157 116 69 159 118 71 163 122 75 161 120 73 160 119 72 160 119 72 165 124 77 170 129 82 168 127 80 166 125 78 175 134 87 170 129 82 175 134 87 156 115 68 169 128 81 159 118 71 168 127 80 166 125 78 162 121 74 161 120 73 169 128 81 163 122 75 159 118 71
167 126 79 156 115 68 154 113 66 161 120 73 168 127 80 156 115 68 157 116 69 163 122 75 164 123 76 166 125 78 171 130 83 166 125 78 164 123 76 156 115 68 167 126 79 167 126 79 151 110 63 161 120 73 164 123 76 159 118 71 157 116 69 170 129 82 150 109 62 164 123 76 166 125 78 169 128 81 165 124 77 164 123 76 169 128 81 155 114 67 170 129 82 172 131 84 169 128 81 153 112 65 164 123 76 175 134 87 162 121 74 158 117 70 171 130 83 171 130 83 174 133 86 161 120 73 170 129 82 166 125 78 159 118 71 166 125 78 170 129 82 158 117 70 159 118 71 154 113 66 162 121 74 166 125 78 168 127 80 159 118 71 157 116 69 161 120 73 170 129 82 169 128 81 161 120 73 155 114 67 159 118 71 170 129 82 163 122 75 163 122 75 157 116 69 154 113 66 174 133 86 155 114 67 166 125 78 175 134 87 156 115 68 167 126 79 160 119 72 166 125 78 169 128 81 173 132 85 153 112 65 165 124 77 169 128 81 166 125 78 168 127 80 171 130 83 172 131 84 162 121 74 168 127 80 174 133 86 157 116 69 172 131 84 157 116 69 153 112 65 162 121 74 160 119 72 164 123 76 160 119 72 158 117 70 167 126 79 168 127 80 153 112 65 153 112 65 158 117 70 166 125 78 160 119 72 154 113 66 171 130 83 164 123 76 169 128 81 169 128 81 168 127 80 161 120 73 162 121 74 172 131 84 162 121 74 158 117 70 164 123 76 161 120 73 164 123 76 156 115 68 168 127 80 160 119 72 166 125 78 167 126 79 167 126 79 154 113 66 166 125 78 169 128 81 168 127 80 157 116 69 161 120 73
153 112 65 155 114 67 163 122 75 153 112 65 160 119 72 159 118 71 156 115 68 155 114 67 169 128 81 175 134 87 168 127 80 167 126 79 170 129 82 164 123 76 165 124 77 156 115 68 159 118 71 167 126 79 167 126 79 157 116 69 166 125 78 165 124 77 170 129 82 172 131 84 170 129 82 172 131 84 172 131 84 167 126 79 161 120 73 166 125 78 168 127 80 154 113 66 165 124 77 163 122 75 166 125 78 168 127 80 170 129 82 158 117 70 155 114 67 160 119 72 167 126 79 175 134 87 159 118 71 159 118 71 171 130 83 162 121 74 160 119 72 163 122 75 168 127 80 157 116 69 169 128 81 164 123 76 161 120 73 173 132 85 172 131 84 160 119 72 167 126 79 157 116 69 156 115 68 167 126 79 152 111 64 171 130 83 156 115 68 161 120 73 164 123 76 157 116 69 165 124 77 155 114 67 157 116 69 159 118 71 165 124 77 168 127 80 164 123 76 167 126 79 171 130 83 152 111 64 163 122 75 156 115 68 152 111 64 161 120 73 160 119 72 160 119 72 170 129 82 170 129 82 169 128 81 162 121 74 164 123 76 160 119 72 157 116 69 173 132 85 163 122 75 164 123 76 171 130 83 167 126 79 158 117 70 165 124 77 163 122 75 169 128 81 164 123 76 158 117 70 172 131 84 170 129 82 158 117 70 156 115 68 160 119 72 158 117 70 160 119 72 168 127 80 161 120 73 164 123 76 156 115 68 158 117 70 173 132 85 160 119 72 161 120 73 163 122 75 166 125 78 162 121 74 153 112 65 156 115 68 160 119 72 168 127 80 157 116 69 155 114 67 158 117 70 174 133 86 175 134 87 169 128 81
157 116 69 166 125 78 156 115 68 159 118 71 177 136 89 172 131 84 168 127 80 162 121 74 173 132 85 167 126 79 162 121 74 173 132 85 160 119 72 156 115 68 170 129 82 151 110 63 161 120 73 160 119 72 164 123 76 167 126 79 167 126 79 158 117 70 166 125 78 161 120 73 173 132 85 159 118 71 159 118 71 169 128 81 160 119 72 160 119 72 171 130 83 171 130 83 161 120 73 169 128 81 158 117 70 157 116 69 159 118 71 166 125 78 173 132 85 164 123 76 163 122 75 166 125 78 158 117 70 173 132 85 164 123 76 159 118 71 159 118 71 165 124 77 167 126 79 166 125 78 155 114 67 158 117 70 162 121 74 166 125 78 162 121 74 170 129 82 156 115 68 171 130 83 175 134 87 153 112 65 168 127 80 170 129 82 160 119 72 157 116 69 161 120 73 159 118 71 171 130 83 172 131 84 171 130 83 161 120 73 157 116 69 173 132 85 175 134 87 153 112 65 161 120 73 169 128 81 159 118 71 161 120 73 168 127 80 161 120 73 161 120 73 169 128 81 151 110 63 166 125 78 151 110 63 162 121 74 166 125 78 165 124 77 176 135 88 165 124 77 160 119 72 171 130 83 155 114 67 173 132 85 175 134 87 174 133 86 154 113 66 152 111 64 159 118 71 165 124 77 172 131 84 164 123 76 169 128 81 168 127 80 160 119 72 165 124 77 165 124 77 160 119 72 174 133 86 161 120 73 156 115 68 166 125 78 165 124 77 172 131 84 167 126 79 166 125 78 170 129 82 165 124 77 156 115 68 175 134 87 164 123 76 156 115 68 174 133 86 161 120 73 162 121 74 170 129 82 172 131 84 158 117 70
165 124 77 156 115 68 164 123 76 164 123 76 162 121 74 158 117 70 163 122 75 179 138 91 175 134 87 164 123 76 171 130 83 170 129 82 163 122 75 161 120 73 158 117 70 172 131 84 175 134 87 169 128 81 157 116 69 168 127 80 172 131 84 170 129 82 163 122 75 162 121 74 165 124 77 158 117 70 174 133 86 163 122 75 163 122 75 167 126 79 156 115 68 163 122 75 152 111 64 161 120 73 161 120 73 160 119 72 173 132 85 164 123 76 155 114 67 173 132 85 173 132 85 171 130 83 153 112 65 170 129 82 159 118 71 178 137 90 167 126 79 167 126 79 164 123 76 161 120 73 161 120 73 160 119 72 177 136 89 168 127 80 173 132 85 172 131 84 159 118 71 170 129 82 173 132 85 162 121 74 152 111 64 154 113 66 171 130 83 175 134 87 167 126 79 168 127 80 166 125 78 178 137 90 171 130 83 169 128 81 161 120 73 173 132 85 160 119 72 173 132 85 162 121 74 163 122 75 159 118 71 161 120 73 169 128 81 157 116 69 158 117 70 165 124 77 167 126 79 172 131 84 164 123 76 164 123 76 160 119 72 165 124 77 162 121 74 167 126 79 165 124 77 170 129 82 155 114 67 157 116 69 167 126 79 159 118 71 177 136 89 157 116 69 164 123 76 172 131 84 171 130 83 158 117 70 168 127 80 168 127 80 155 114 67 175 134 87 174 133 86 158 117 70 155 114 67 164 123 76 171 130 83 163 122 75 172 131 84 170 129 82 167 126 79 171 130 83 172 131 84 155 114 67 176 135 88 162 121 74 168 127 80 156 115 68 171 130 83 166 125 78 176 135 88 172 131 84 165 124 77 160 119 72
168 127 80 160 119 72 167 126 79 177 136 89 153 112 65 162 121 74 164 123 76 175 134 87 177 136 89 172 131 84 156 115 68 165 124 77 165 124 77 170 129 82 164 123 76 163 122 75 167 126 79 172 131 84 160 119 72 171 130 83 156 115 68 155 114 67 175 134 87 169 128 81 163 122 75 165 124 77 163 122 75 162 121 74 169 128 81 163 122 75 170 129 82 172 131 84 178 137 90 172 131 84 173 132 85 159 118 71 171 130 83 170 129 82 159 118 71 160 119 72 156 115 68 170 129 82 158 117 70 175 134 87 155 114 67 177 136 89 168 127 80 168 127 80 158 117 70 153 112 65 166 125 78 173 132 85 166 125 78 172 131 84 166 125 78 162 121 74 156 115 68 174 133 86 163 122 75 161 120 73 154 113 66 170 129 82 173 132 85 169 128 81 174 133 86 174 133 86 171 130 83 161 120 73 165 124 77 160 119 72 171 130 83 169 128 81 161 120 73 170 129 82 161 120 73 163 122 75 163 122 75 161 120 73 162 121 74 157 116 69 160 119 72 159 118 71 164 123 76 165 124 77 153 112 65 173 132 85 168 127 80 162 121 74 174 133 86 166 125 78 162 121 74 171 130 83 172 131 84 170 129 82 177 136 89 165 124 77 170 129 82 167 126 79 165 124 77 166 125 78 164 123 76 172 131 84 171 130 83 160 119 72 166 125 78 167 126 79 159 118 71 165 124 77 160 119 72 168 127 80 158 117 70 171 130 83 171 130 83 177 136 89 161 120 73 175 134 87 154 113 66 178 137 90 173 132 85 157 116 69 159 118 71 158 117 70 167 126 79 170 129 82 162 121 74 161 120 73 160 119 72 160 119 72
170 129 82 160 119 72 161 120 73 173 132 85 168 127 80 174 133 86 163 122 75 160 119 72 154 113 66 160 119 72 165 124 77 172 131 84 170 129 82 163 122 75 155 114 67 172 131 84 164 123 76 165 124 77 165 124 77 161 120 73 177 136 89 169 128 81 163 122 75 172 131 84 174 133 86 156 115 68 168 127 80 173 132 85 169 128 81 172 131 84 170 129 82 172 131 84 158 117 70 169 128 81 166 125 78 166 125 78 169 128 81 161 120 73 169 128 81 167 126 79 176 135 88 167 126 79 168 127 80 163 122 75 171 130 83 170 129 82 173 132 85 165 124 77 164 123 76 159 118 71 165 124 77 167 126 79 163 122 75 159 118 71 166 125 78 172 131 84 176 135 88 172 131 84 170 129 82 170 129 82 173 132 85 172 131 84 164 123 76 163 122 75 161 120 73 157 116 69 168 127 80 157 116 69 158 117 70 161 120 73 173 132 85 168 127 80 171 130 83 156 115 68 169 128 81 178 137 90 158 117 70 162 121 74 164 123 76 159 118 71 165 124 77 176 135 88 170 129 82 166 125 78 155 114 67 177 136 89 161 120 73 164 123 76 161 120 73 161 120 73 169 128 81 157 116 69 166 125 78 157 116 69 163 122 75 162 121 74 160 119 72 156 115 68 169 128 81 168 127 80 158 117 70 173 132 85 157 116 69 167 126 79 168 127 80 164 123 76 156 115 68 174 133 86 167 126 79 171 130 83 169 128 81 168 127 80 161 120 73 167 126 79 158 117 70 172 131 84 164 123 76 163 122 75 170 129 82 155 114 67 168 127 80 175 134 87 163 122 75 169 128 81 167 126 79 166 125 78 160 119 72 166 125 78
175 134 87 158 117 70 166 125 78 161 120 73 162 121 74 178 137 90 161 120 73 163 122 75 164 123 76 169 128 81 173 132 85 155 114 67 161 120 73 174 133 86 171 130 83 171 130 83 170 129 82 171 130 83 159 118 71 162 121 74 174 133 86 161 120 73 171 130 83 170 129 82 168 127 80 170 129 82 163 122 75 165 124 77 164 123 76 170 129 82 172 131 84 177 136 89 168 127 80 154 113 66 163 122 75 169 128 81 175 134 87 167 126 79 172 131 84 166 125 78 170 129 82 168 127 80 173 132 85 171 130 83 175 134 87 164 123 76 173 132 85 172 131 84 155 114 67 159 118 71 174 133 86 159 118 71 172 131 84 167 126 79 152 111 64 171 130 83 177 136 89 166 125 78 171 130 83 169 128 81 167 126 79 172 131 84 164 123 76 162 121 74 161 120 73 160 119 72 168 127 80 160 119 72 161 120 73 157 116 69 163 122 75 170 129 82 164 123 76 171 130 83 159 118 71 159 118 71 172 131 84 161 120 73 169 128 81 155 114 67 158 117 70 161 120 73 167 126 79 161 120 73 165 124 77 167 126 79 168 127 80 158 117 70 176 135 88 172 131 84 170 129 82 176 135 88 169 128 81 167 126 79 170 129 82 176 135 88 165 124 77 167 126 79 156 115 68 156 115 68 173 132 85 164 123 76 170 129 82 173 132 85 165 124 77 171 130 83 163 122 75 171 130 83 165 124 77 175 134 87 158 117 70 160 119 72 163 122 75 169 128 81 173 132 85 169 128 81 159 118 71 162 121 74 174 133 86 169 128 81 171 130 83 169 128 81 156 115 68 162 121 74 157 116 69 163 122 75 172 131 84 172 131 84
155 114 67 175 134 87 168 127 80 164 123 76 171 130 83 175 134 87 179 138 91 156 115 68 178 137 90 159 118 71 164 123 76 161 120 73 167 126 79 171 130 83 170 129 82 161 120 73 160 119 72 167 126 79 161 120 73 169 128 81 161 120 73 161 120 73 171 130 83 162 121 74 159 118 71 173 132 85 172 131 84 170 129 82 160 119 72 172 131 84 171 130 83 160 119 72 161 120 73 157 116 69 172 131 84 163 122 75 157 116 69 159 118 71 159 118 71 164 123 76 171 130 83 160 119 72 163 122 75 169 128 81 156 115 68 159 118 71 163 122 75 170 129 82 171 130 83 172 131 84 159 118 71 173 132 85 166 125 78 168 127 80 171 130 83 176 135 88 174 133 86 178 137 90 166 125 78 167 126 79 163 122 75 170 129 82 176 135 88 173 132 85 160 119 72 163 122 75 167 126 79 166 125 78 173 132 85 162 121 74 166 125 78 157 116 69 160 119 72 166 125 78 174 133 86 168 127 80 173 132 85 171 130 83 169 128 81 170 129 82 159 118 71 171 130 83 157 116 69 159 118 71 173 132 85 160 119 72 168 127 80 160 119 72 165 124 77 173 132 85 174 133 86 159 118 71 176 135 88 154 113 66 155 114 67 157 116 69 156 115 68 158 117 70 167 126 79 159 118 71 166 125 78 175 134 87 164 123 76 160 119 72 166 125 78 160 119 72 160 119 72 165 124 77 156 115 68 166 125 78 174 133 86 166 125 78 169 128 81 163 122 75 164 123 76 160 119 72 168 127 80 158 117 70 166 125 78 171 130 83 157 116 69 164 123 76 163 122 75 158 117 70 175 134 87 165 124 77 158 117 70 157 116 69
164 123 76 163 122 75 175 134 87 160 119 72 176 135 88 155 114 67 158 117 70 173 132 85 162 121 74 165 124 77 162 121 74 159 118 71 173 132 85 171 130 83 174 133 86 172 131 84 156 115 68 164 123 76 173 132 85 167 126 79 160 119 72 155 114 67 169 128 81 174 133 86 161 120 73 160 119 72 151 110 63 175 134 87 163 122 75 161 120 73 169 128 81 175 134 87 167 126 79 166 125 78 159 118 71 166 125 78 165 124 77 168 127 80 171 130 83 166 125 78 159 118 71 175 134 87 166 125 78 166 125 78 168 127 80 157 116 69 170 129 82 172 131 84 170 129 82 170 129 82 162 121 74 172 131 84 169 128 81 166 125 78 160 119 72 167 126 79 169 128 81 163 122 75 164 123 76 162 121 74 165 124 77 167 126 79 173 132 85 163 122 75 165 124 77 172 131 84 155 114 67 158 117 70 157 116 69 169 128 81 168 127 80 164 123 76 169 128 81 166 125 78 156 115 68 158 117 70 164 123 76 168 127 80 158 117 70 159 118 71 156 115 68 166 125 78 172 131 84 169 128 81 157 116 69 174 133 86 156 115 68 164 123 76 166 125 78 155 114 67 154 113 66 164 123 76 171 130 83 174 133 86 164 123 76 161 120 73 172 131 84 172 131 84 175 134 87 156 115 68 163 122 75 171 130 83 162 121 74 153 112 65 160 119 72 157 116 69 165 124 77 159 118 71 159 118 71 174 133 86 169 128 81 168 127 80 176 135 88 169 128 81 178 137 90 174 133 86 168 127 80 172 131 84 156 115 68 176 135 88 170 129 82 171 130 83 167 126 79 164 123 76 167 126 79 154 113 66 166 125 78 172 131 84
165 124 77 161 120 73 158 117 70 163 122 75 160 119 72 175 134 87 162 121 74 167 126 79 168 127 80 163 122 75 169 128 81 169 128 81 169 128 81 163 122 75 174 133 86 170 129 82 170 129 82 174 133 86 167 126 79 170 129 82 168 127 80 156 115 68 164 123 76 170 129 82 159 118 71 164 123 76 167 126 79 160 119 72 152 111 64 150 109 62 162 121 74 156 115 68 168 127 80 154 113 66 163 122 75 162 121 74 169 128 81 165 124 77 162 121 74 167 126 79 159 118 71 161 120 73 159 118 71 176 135 88 163 122 75 167 126 79 170 129 82 173 132 85 156 115 68 173 132 85 168 127 80 167 126 79 165 124 77 168 127 80 162 121 74 154 113 66 167 126 79 161 120 73 168 127 80 158 117 70 167 126 79 154 113 66 164 123 76 175 134 87 161 120 73 161 120 73 161 120 73 159 118 71 161 120 73 159 118 71 160 119 72 160 119 72 168 127 80 169 128 81 163 122 75 158 117 70 176 135 88 162 121 74 172 131 84 157 116 69 172 131 84 164 123 76 160 119 72 153 112 65 153 112 65 164 123 76 166 125 78 171 130 83 168 127 80 170 129 82 172 131 84 155 114 67 156 115 68 170 129 82 169 128 81 157 116 69 173 132 85 174 133 86 163 122 75 163 122 75 170 129 82 174 133 86 163 122 75 162 121 74 161 120 73 159 118 71 161 120 73 156 115 68 155 114 67 158 117 70 159 118 71 173 132 85 174 133 86 159 118 71 164 123 76 168 127 80 166 125 78 161 120 73 150 109 62 155 114 67 167 126 79 154 113 66 163 122 75 174 133 86 172 131 84 165 124 77 172 131 84 162 121 74
165 124 77 153 112 65 163 122 75 156 115 68 168 127 80 152 111 64 164 123 76 167 126 79 160 119 72 151 110 63 160 119 72 161 120 73 156 115 68 149 108 61 155 114 67 170 129 82 167 126 79 161 120 73 162 121 74 159 118 71 168 127 80 171 130 83 170 129 82 166 125 78 164 123 76 162 121 74 159 118 71 168 127 80 167 126 79 165 124 77 170 129 82 166 125 78 163 122 75 154 113 66 169 128 81 158 117 70 161 120 73 168 127 80 155 114 67 168 127 80 152 111 64 163 122 75 163 122 75 160 119 72 157 116 69 165 124 77 158 117 70 166 125 78 163 122 75 172 131 84 161 120 73 158 117 70 149 108 61 172 131 84 175 134 87 159 118 71 175 134 87 155 114 67 152 111 64 155 114 67 166 125 78 165 124 77 162 121 74 153 112 65 159 118 71 156 115 68 168 127 80 158 117 70 167 126 79 160 119 72 160 119 72 155 114 67 168 127 80 161 120 73 167 126 79 174 133 86 166 125 78 171 130 83 161 120 73 153 112 65 161 120 73 167 126 79 160 119 72 169 128 81 156 115 68 155 114 67 164 123 76 154 113 66 169 128 81 169 128 81 158 117 70 159 118 71 159 118 71 160 119 72 166 125 78 173 132 85 156 115 68 156 115 68 155 114 67 151 110 63 152 111 64 163 122 75 165 124 77 150 109 62 156 115 68 155 114 67 166 125 78 163 122 75 149 108 61 165 124 77 165 124 77 167 126 79 159 118 71 161 120 73 166 125 78 159 118 71 165 124 77 164 123 76 166 125 78 173 132 85 152 111 64 167 126 79 164 123 76 174 133 86 164 123 76 156 115 68 167 126 79 157 116 69
157 116 69 154 113 66 167 126 79 152 111 64 166 125 78 167 126 79 160 119 72 159 118 71 154 113 66 157 116 69 165 124 77 157 116 69 164 123 76 160 119 72 162 121 74 156 115 68 170 129 82 162 121 74 164 123 76 171 130 83 169 128 81 168 127 80 173 132 85 165 124 77 168 127 80 158 117 70 173 132 85 158 117 70 156 115 68 156 115 68 173 132 85 152 111 64 154 113 66 151 110 63 166 125 78 158 117 70 166 125 78 163 122 75 160 119 72 164 123 76 160 119 72 168 127 80 168 127 80 163 122 75 176 135 88 166 125 78 152 111 64 158 117 70 157 116 69 171 130 83 159 118 71 151 110 63 155 114 67 164 123 76 152 111 64 156 115 68 168 127 80 156 115 68 159 118 71 173 132 85 169 128 81 157 116 69 160 119 72 158 117 70 154 113 66 166 125 78 153 112 65 152 111 64 169 128 81 161 120 73 158 117 70 171 130 83 162 121 74 163 122 75 157 116 69 161 120 73 154 113 66 172 131 84 172 131 84 171 130 83 166 125 78 158 117 70 162 121 74 160 119 72 159 118 71 157 116 69 165 124 77 164 123 76 167 126 79 155 114 67 156 115 68 171 130 83 170 129 82 167 126 79 173 132 85 158 117 70 153 112 65 155 114 67 161 120 73 166 125 78 170 129 82 162 121 74 152 111 64 166 125 78 160 119 72 159 118 71 156 115 68 172 131 84 166 125 78 167 126 79 150 109 62 155 114 67 156 115 68 173 132 85 165 124 77 155 114 67 163 122 75 159 118 71 159 118 71 170 129 82 168 127 80 163 122 75 164 123 76 155 114 67 175 134 87 156 115 68 164 123 76 167 126 79
152 111 64 169 128 81 176 135 88 163 122 75 165 124 77 166 125 78 163 122 75 163 122 75 158 117 70 165 124 77 153 112 65 163 122 75 166 125 78 174 133 86 161 120 73 166 125 78 153 112 65 163 122 75 156 115 68 172 131 84 165 124 77 163 122 75 172 131 84 158 117 70 162 121 74 174 133 86 169 128 81 158 117 70 162 121 74 161 120 73 156 115 68 154 113 66 156 115 68 155 114 67 158 117 70 166 125 78 167 126 79 166 125 78 152 111 64 169 128 81 153 112 65 153 112 65 160 119 72 162 121 74 172 131 84 166 125 78 166 125 78 157 116 69 160 119 72 164 123 76 167 126 79 170 129 82 168 127 80 162 121 74 170 129 82 164 123 76 153 112 65 168 127 80 170 129 82 163 122 75 165 124 77 157 116 69 166 125 78 155 114 67 155 114 67 153 112 65 161 120 73 161 120 73 162 121 74 154 113 66 156 115 68 160 119 72 160 119 72 158 117 70 161 120 73 164 123 76 155 114 67 152 111 64 164 123 76 170 129 82 167 126 79 160 119 72 161 120 73 163 122 75 157 116 69 165 124 77 154 113 66 162 121 74 165 124 77 169 128 81 167 126 79 165 124 77 166 125 78 151 110 63 161 120 73 167 126 79 160 119 72 153 112 65 170 129 82 155 114 67 169 128 81 159 118 71 152 111 64 171 130 83 168 127 80 163 122 75 163 122 75 168 127 80 157 116 69 164 123 76 157 116 69 169 128 81 168 127 80 159 118 71 174 133 86 157 116 69 165 124 77 170 129 82 161 120 73 159 118 71 164 123 76 173 132 85 157 116 69 167 126 79 163 122 75 167 126 79 154 113 66 169 128 81
156 115 68 159 118 71 159 118 71 157 116 69 157 116 69 165 124 77 171 130 83 173 132 85 156 115 68 165 124 77 162 121 74 152 111 64 168 127 80 164 123 76 163 122 75 156 115 68 167 126 79 160 119 72 165 124 77 159 118 71 163 122 75 164 123 76 153 112 65 157 116 69 167 126 79 174 133 86 157 116 69 171 130 83 170 129 82 157 116 69 155 114 67 150 109 62 168 127 80 158 117 70 158 117 70 159 118 71 157 116 69 156 115 68 159 118 71 157 116 69 164 123 76 169 128 81 171 130 83 155 114 67 161 120 73 171 130 83 166 125 78 174 133 86 165 124 77 166 125 78 152 111 64 168 127 80 156 115 68 150 109 62 157 116 69 162 121 74 157 116 69 156 115 68 166 125 78 171 130 83 162 121 74 155 114 67 159 118 71 160 119 72 164 123 76 169 128 81 152 111 64 156 115 68 173 132 85 156 115 68 153 112 65 161 120 73 151 110 63 160 119 72 154 113 66 170 129 82 151 110 63 162 121 74 161 120 73 171 130 83 154 113 66 173 132 85 159 118 71 155 114 67 154 113 66 162 121 74 156 115 68 169 128 81 161 120 73 155 114 67 154 113 66 153 112 65 164 123 76 160 119 72 170 129 82 162 121 74 154 113 66 172 131 84 164 123 76 169 128 81 161 120 73 149 108 61 171 130 83 166 125 78 154 113 66 159 118 71 157 116 69 157 116 69 160 119 72 169 128 81 168 127 80 164 123 76 156 115 68 174 133 86 168 127 80 151 110 63 165 124 77 166 125 78 170 129 82 160 119 72 160 119 72 160 119 72 154 113 66 159 118 71 155 114 67 154 113 66 153 112 65 159 118 71
173 132 85 154 113 66 155 114 67 155 114 67 155 114 67 164 123 76 164 123 76 165 124 77 166 125 78 160 119 72 174 133 86 161 120 73 151 110 63 167 126 79 169 128 81 158 117 70 163 122 75 165 124 77 171 130 83 160 119 72 163 122 75 164 123 76 164 123 76 175 134 87 164 123 76 166 125 78 175 134 87 167 126 79 172 131 84 175 134 87 159 118 71 168 127 80 166 125 78 156 115 68 174 133 86 153 112 65 161 120 73 160 119 72 164 123 76 159 118 71 166 125 78 171 130 83 164 123 76 171 130 83 166 125 78 156 115 68 163 122 75 155 114 67 173 132 85 153 112 65 169 128 81 153 112 65 156 115 68 154 113 66 152 111 64 166 125 78 151 110 63 170 129 82 172 131 84 166 125 78 165 124 77 167 126 79 157 116 69 166 125 78 153 112 65 163 122 75 161 120 73 168 127 80 163 122 75 165 124 77 160 119 72 155 114 67 153 112 65 165 124 77 160 119 72 167 126 79 162 121 74 160 119 72 165 124 77 158 117 70 157 116 69 154 113 66 159 118 71 155 114 67 163 122 75 170 129 82 158 117 70 162 121 74 163 122 75 163 122 75 164 123 76 172 131 84 164 123 76 152 111 64 159 118 71 162 121 74 165 124 77 158 117 70 171 130 83 155 114 67 156 115 68 165 124 77 173 132 85 170 129 82 170 129 82 170 129 82 164 123 76 165 124 77 154 113 66 162 121 74 161 120 73 170 129 82 164 123 76 172 131 84 168 127 80 165 124 77 164 123 76 161 120 73 172 131 84 158 117 70 161 120 73 156 115 68 158 117 70 155 114 67 172 131 84 159 118 71 159 118 71 170 129 82
170 129 82 160 119 72 162 121 74 169 128 81 161 120 73 153 112 65 163 122 75 173 132 85 165 124 77 156 115 68 166 125 78 158 117 70 162 121 74 153 112 65 162 121 74 168 127 80 169 128 81 169 128 81 156 115 68 156 115 68 169 128 81 168 127 80 161 120 73 159 118 71 165 124 77 166 125 78 177 136 89 174 133 86 166 125 78 172 131 84 165 124 77 167 126 79 168 127 80 168 127 80 168 127 80 152 111 64 154 113 66 161 120 73 169 128 81 157 116 69 163 122 75 157 116 69 167 126 79 160 119 72 160 119 72 154 113 66 169 128 81 169 128 81 173 132 85 166 125 78 169 128 81 166 125 78 166 125 78 170 129 82 168 127 80 167 126 79 157 116 69 154 113 66 172 131 84 170 129 82 172 131 84 174 133 86 153 112 65 174 133 86 155 114 67 167 126 79 160 119 72 169 128 81 176 135 88 160 119 72 161 120 73 168 127 80 170 129 82 174 133 86 172 131 84 167 126 79 174 133 86 163 122 75 159 118 71 168 127 80 157 116 69 160 119 72 155 114 67 155 114 67 157 116 69 170 129 82 174 133 86 154 113 66 162 121 74 157 116 69 160 119 72 171 130 83 163 122 75 154 113 66 156 115 68 159 118 71 171 130 83 171 130 83 171 130 83 165 124 77 171 130 83 166 125 78 178 137 90 171 130 83 162 121 74 163 122 75 172 131 84 162 121 74 164 123 76 172 131 84 158 117 70 162 121 74 162 121 74 171 130 83 169 128 81 165 124 77 163 122 75 158 117 70 172 131 84 169 128 81 169 128 81 157 116 69 169 128 81 164 123 76 153 112 65 164 123 76 163 122 75 158 117 70
166 125 78 172 131 84 175 134 87 170 129 82 152 111 64 174 133 86 176 135 88 159 118 71 160 119 72 164 123 76 161 120 73 155 114 67 165 124 77 171 130 83 170 129 82 160 119 72 154 113 66 167 126 79 158 117 70 168 127 80 160 119 72 174 133 86 171 130 83 167 126 79 168 127 80 160 119 72 166 125 78 164 123 76 166 125 78 163 122 75 165 124 77 168 127 80 154 113 66 158 117 70 167 126 79 164 123 76 165 124 77 158 117 70 160 119 72 161 120 73 166 125 78 168 127 80 168 127 80 161 120 73 157 116 69 173 132 85 169 128 81 164 123 76 167 126 79 170 129 82 158 117 70 170 129 82 163 122 75 170 129 82 164 123 76 166 125 78 171 130 83 160 119 72 164 123 76 176 135 88 156 115 68 154 113 66 170 129 82 171 130 83 163 122 75 153 112 65 155 114 67 163 122 75 167 126 79 161 120 73 165 124 77 164 123 76 160 119 72 169 128 81 160 119 72 159 118 71 172 131 84 169 128 81 158 117 70 167 126 79 174 133 86 172 131 84 160 119 72 161 120 73 163 122 75 154 113 66 168 127 80 177 136 89 158 117 70 166 125 78 174 133 86 173 132 85 160 119 72 159 118 71 164 123 76 173 132 85 168 127 80 155 114 67 169 128 81 170 129 82 169 128 81 168 127 80 173 132 85 167 126 79 170 129 82 166 125 78 169 128 81 158 117 70 159 118 71 160 119 72 155 114 67 159 118 71 168 127 80 169 128 81 174 133 86 168 127 80 153 112 65 168 127 80 163 122 75 153 112 65 172 131 84 164 123 76 167 126 79 166 125 78 157 116 69 167 126 79 153 112 65 168 127 80
169 128 81 163 122 75 171 130 83 162 121 74 158 117 70 162 121 74 169 128 81 158 117 70 160 119 72 160 119 72 176 135 88 157 116 69 169 128 81 166 125 78 169 128 81 167 126 79 166 125 78 154 113 66 163 122 75 171 130 83 155 114 67 163 122 75 170 129 82 158 117 70 166 125 78 174 133 86 157 116 69 164 123 76 174 133 86 160 119 72 165 124 77 157 116 69 163 122 75 155 114 67 161 120 73 161 120 73 173 132 85 170 129 82 164 123 76 163 122 75 176 135 88 170 129 82 163 122 75 167 126 79 155 114 67 171 130 83 172 131 84 158 117 70 164 123 76 164 123 76 164 123 76 170 129 82 169 128 81 175 134 87 164 123 76 157 116 69 163 122 75 160 119 72 164 123 76 159 118 71 161 120 73 170 129 82 155 114 67 172 131 84 160 119 72 158 117 70 167 126 79 155 114 67 177 136 89 166 125 78 158 117 70 164 123 76 156 115 68 165 124 77 168 127 80 168 127 80 167 126 79 153 112 65 161 120 73 161 120 73 171 130 83 156 115 68 163 122 75 161 120 73 171 130 83 165 124 77 172 131 84 167 126 79 169 128 81 160 119 72 177 136 89 169 128 81 167 126 79 164 123 76 165 124 77 166 125 78 168 127 80 166 125 78 155 114 67 166 125 78 171 130 83 167 126 79 170 129 82 162 121 74 167 126 79 154 113 66 163 122 75 163 122 75 160 119 72 172 131 84 167 126 79 163 122 75 158 117 70 165 124 77 153 112 65 168 127 80 168 127 80 166 125 78 170 129 82 169 128 81 172 131 84 174 133 86 165 124 77 174 133 86 166 125 78 168 127 80 169 128 81 157 116 69
163 122 75 158 117 70 167 126 79 163 122 75 173 132 85 153 112 65 177 136 89 167 126 79 171 130 83 160 119 72 161 120 73 171 130 83 159 118 71 167 126 79 171 130 83 159 118 71 160 119 72 159 118 71 159 118 71 158 117 70 166 125 78 174 133 86 159 118 71 169 128 81 159 118 71 169 128 81 152 111 64 163 122 75 173 132 85 167 126 79 163 122 75 169 128 81 158 117 70 171 130 83 171 130 83 159 118 71 168 127 80 171 130 83 162 121 74 165 124 77 165 124 77 157 116 69 168 127 80 171 130 83 173 132 85 173 132 85 167 126 79 161 120 73 155 114 67 166 125 78 155 114 67 173 132 85 155 114 67 163 122 75 166 125 78 170 129 82 169 128 81 156 115 68 165 124 77 169 128 81 158 117 70 169 128 81 167 126 79 168 127 80 174 133 86 172 131 84 166 125 78 161 120 73 163 122 75 171 130 83 164 123 76 173 132 85 172 131 84 169 128 81 166 125 78 165 124 77 175 134 87 177 136 89 155 114 67 163 122 75 161 120 73 169 128 81 168 127 80 153 112 65 162 121 74 160 119 72 164 123 76 159 118 71 175 134 87 169 128 81 167 126 79 164 123 76 175 134 87 166 125 78 167 126 79 165 124 77 163 122 75 177 136 89 155 114 67 161 120 73 164 123 76 165 124 77 156 115 68 156 115 68 162 121 74 172 131 84 169 128 81 158 117 70 173 132 85 170 129 82 159 118 71 154 113 66 168 127 80 162 121 74 160 119 72 171 130 83 166 125 78 168 127 80 155 114 67 159 118 71 171 130 83 160 119 72 168 127 80 162 121 74 167 126 79 171 130 83 173 132 85 159 118 71
165 124 77 166 125 78 168 127 80 175 134 87 168 127 80 176 135 88 177 136 89 170 129 82 176 135 88 164 123 76 161 120 73 170 129 82 173 132 85 177 136 89 156 115 68 168 127 80 162 121 74 172 131 84 158 117 70 172 131 84 162 121 74 166 125 78 165 124 77 168 127 80 154 113 66 172 131 84 160 119 72 167 126 79 175 134 87 172 131 84 170 129 82 161 120 73 176 135 88 156 115 68 159 118 71 169 128 81 157 116 69 167 126 79 171 130 83 169 128 81 177 136 89 156 115 68 166 125 78 163 122 75 170 129 82 174 133 86 169 128 81 169 128 81 177 136 89 174 133 86 159 118 71 167 126 79 168 127 80 155 114 67 166 125 78 156 115 68 157 116 69 157 116 69 160 119 72 165 124 77 165 124 77 167 126 79 173 132 85 166 125 78 158 117 70 158 117 70 163 122 75 167 126 79 161 120 73 163 122 75 172 131 84 165 124 77 163 122 75 167 126 79 171 130 83 166 125 78 175 134 87 160 119 72 165 124 77 171 130 83 156 115 68 164 123 76 155 114 67 172 131 84 165 124 77 170 129 82 162 121 74 172 131 84 172 131 84 160 119 72 176 135 88 167 126 79 169 128 81 162 121 74 159 118 71 167 126 79 173 132 85 169 128 81 173 132 85 166 125 78 162 121 74 157 116 69 172 131 84 154 113 66 160 119 72 156 115 68 169 128 81 165 124 77 161 120 73 161 120 73 168 127 80 166 125 78 170 129 82 164 123 76 165 124 77 159 118 71 159 118 71 171 130 83 163 122 75 163 122 75 164 123 76 169 128 81 159 118 71 166 125 78 179 138 91 154 113 66 161 120 73 167 126 79
162 121 74 170 129 82 166 125 78 176 135 88 156 115 68 170 129 82 175 134 87 173 132 85 172 131 84 174 133 86 173 132 85 161 120 73 168 127 80 160 119 72 172 131 84 160 119 72 165 124 77 169 128 81 164 123 76 164 123 76 163 122 75 158 117 70 174 133 86 170 129 82 153 112 65 161 120 73 171 130 83 170 129 82 167 126 79 165 124 77 162 121 74 160 119 72 174 133 86 158 117 70 164 123 76 161 120 73 176 135 88 162 121 74 167 126 79 165 124 77 162 121 74 169 128 81 166 125 78 165 124 77 170 129 82 172 131 84 165 124 77 160 119 72 168 127 80 158 117 70 164 123 76 159 118 71 168 127 80 168 127 80 156 115 68 170 129 82 154 113 66 166 125 78 169 128 81 174 133 86 173 132 85 168 127 80 169 128 81 159 118 71 166 125 78 159 118 71 159 118 71 161 120 73 168 127 80 159 118 71 175 134 87 162 121 74 166 125 78 163 122 75 165 124 77 155 114 67 173 132 85 173 132 85 156 115 68 172 131 84 166 125 78 160 119 72 164 123 76 160 119 72 155 114 67 165 124 77 168 127 80 172 131 84 166 125 78 161 120 73 174 133 86 162 121 74 172 131 84 170 129 82 163 122 75 156 115 68 178 137 90 176 135 88 173 132 85 159 118 71 163 122 75 171 130 83 166 125 78 164 123 76 174 133 86 160 119 72 159 118 71 161 120 73 172 131 84 158 117 70 166 125 78 167 126 79 158 117 70 172 131 84 171 130 83 159 118 71 168 127 80 176 135 88 166 125 78 157 116 69 160 119 72 177 136 89 155 114 67 160 119 72 164 123 76 160 119 72 172 131 84 171 130 83
165 124 77 158 117 70 175 134 87 161 120 73 176 135 88 161 120 73 170 129 82 158 117 70 166 125 78 162 121 74 154 113 66 159 118 71 170 129 82 168 127 80 166 125 78 170 129 82 158 117 70 163 122 75 173 132 85 169 128 81 169 128 81 172 131 84 176 135 88 169 128 81 152 111 64 160 119 72 165 124 77 157 116 69 166 125 78 156 115 68 167 126 79 157 116 69 162 121 74 171 130 83 160 119 72 157 116 69 162 121 74 165 124 77 170 129 82 159 118 71 154 113 66 163 122 75 157 116 69 171 130 83 161 120 73 175 134 87 154 113 66 162 121 74 171 130 83 163 122 75 173 132 85 159 118 71 156 115 68 171 130 83 161 120 73 165 124 77 168 127 80 172 131 84 176 135 88 168 127 80 170 129 82 155 114 67 154 113 66 167 126 79 160 119 72 159 118 71 163 122 75 159 118 71 161 120 73 167 126 79 159 118 71 171 130 83 174 133 86 158 117 70 160 119 72 154 113 66 159 118 71 174 133 86 160 119 72 153 112 65 161 120 73 168 127 80 167 126 79 170 129 82 172 131 84 169 128 81 169 128 81 166 125 78 162 121 74 160 119 72 167 126 79 161 120 73 173 132 85 171 130 83 174 133 86 174 133 86 173 132 85 168 127 80 164 123 76 162 121 74 172 131 84 167 126 79 170 129 82 164 123 76 171 130 83 166 125 78 156 115 68 155 114 67 165 124 77 152 111 64 173 132 85 163 122 75 163 122 75 174 133 86 165 124 77 164 123 76 165 124 77 159 118 71 166 125 78 173 132 85 173 132 85 170 129 82 169 128 81 164 123 76 159 118 71 165 124 77 175 134 87 165 124 77
174 133 86 160 119 72 165 124 77 162 121 74 160 119 72 169 128 81 150 109 62 164 123 76 161 120 73 158 117 70 166 125 78 162 121 74 173 132 85 169 128 81 158 117 70 160 119 72 164 123 76 163 122 75 173 132 85 168 127 80 157 116 69 163 122 75 170 129 82 161 120 73 165 124 77 152 111 64 156 115 68 162 121 74 161 120 73 153 112 65 155 114 67 157 116 69 176 135 88 172 131 84 165 124 77 163 122 75 166 125 78 162 121 74 159 118 71 161 120 73 158 117 70 166 125 78 151 110 63 151 110 63 170 129 82 165 124 77 155 114 67 154 113 66 155 114 67 169 128 81 174 133 86 162 121 74 158 117 70 168 127 80 163 122 75 169 128 81 164 123 76 171 130 83 151 110 63 156 115 68 152 111 64 163 122 75 167 126 79 164 123 76 160 119 72 168 127 80 160 119 72 152 111 64 175 134 87 168 127 80 169 128 81 157 116 69 169 128 81 163 122 75 156 115 68 158 117 70 154 113 66 171 130 83 155 114 67 163 122 75 168 127 80 166 125 78 152 111 64 161 120 73 174 133 86 167 126 79 158 117 70 171 130 83 155 114 67 155 114 67 173 132 85 154 113 66 171 130 83 156 115 68 160 119 72 161 120 73 169 128 81 171 130 83 161 120 73 175 134 87 150 109 62 161 120 73 157 116 69 157 116 69 159 118 71 173 132 85 162 121 74 152 111 64 157 116 69 157 116 69 176 135 88 164 123 76 161 120 73 169 128 81 162 121 74 174 133 86 168 127 80 170 129 82 163 122 75 166 125 78 156 115 68 164 123 76 156 115 68 152 111 64 151 110 63 157 116 69 166 125 78 157 116 69
165 124 77 173 132 85 161 120 73 168 127 80 163 122 75 154 113 66 162 121 74 153 112 65 156 115 68 153 112 65 153 112 65 165 124 77 160 119 72 163 122 75 163 122 75 159 118 71 161 120 73 160 119 72 159 118 71 151 110 63 160 119 72 168 127 80 157 116 69 172 131 84 172 131 84 176 135 88 170 129 82 165 124 77 165 124 77 154 113 66 159 118 71 162 121 74 164 123 76 168 127 80 171 130 83 161 120 73 158 117 70 155 114 67 157 116 69 160 119 72 175 134 87 163 122 75 156 115 68 164 123 76 165 124 77 168 127 80 164 123 76 169 128 81 166 125 78 156 115 68 159 118 71 173 132 85 151 110 63 159 118 71 151 110 63 162 121 74 163 122 75 161 120 73 161 120 73 153 112 65 174 133 86 155 114 67 152 111 64 155 114 67 164 123 76 169 128 81 174 133 86 159 118 71 160 119 72 173 132 85 165 124 77 168 127 80 156 115 68 169 128 81 165 124 77 170 129 82 168 127 80 173 132 85 169 128 81 170 129 82 159 118 71 161 120 73 161 120 73 165 124 77 168 127 80 157 116 69 163 122 75 155 114 67 161 120 73 156 115 68 163 122 75 161 120 73 159 118 71 169 128 81 160 119 72 156 115 68 165 124 77 159 118 71 161 120 73 166 125 78 169 128 81 161 120 73 156 115 68 167 126 79 150 109 62 157 116 69 162 121 74 170 129 82 157 116 69 162 121 74 163 122 75 152 111 64 170 129 82 168 127 80 167 126 79 170 129 82 172 131 84 161 120 73 154 113 66 156 115 68 163 122 75 160 119 72 156 115 68 162 121 74 160 119 72 154 113 66 176 135 88 173 132 85
166 125 78 159 118 71 171 130 83 168 127 80 170 129 82 158 117 70 161 120 73 164 123 76 149 108 61 170 129 82 166 125 78 161 120 73 170 129 82 152 111 64 159 118 71 159 118 71 154 113 66 154 113 66 165 124 77 153 112 65 170 129 82 166 125 78 173 132 85 169 128 81 169 128 81 161 120 73 152 111 64 165 124 77 169 128 81 167 126 79 149 108 61 163 122 75 159 118 71 166 125 78 165 124 77 159 118 71 170 129 82 159 118 71 156 115 68 165 124 77 164 123 76 161 120 73 170 129 82 171 130 83 156 115 68 157 116 69 172 131 84 167 126 79 156 115 68 162 121 74 161 120 73 174 133 86 171 130 83 154 113 66 171 130 83 156 115 68 155 114 67 174 133 86 172 131 84 163 122 75 163 122 75 157 116 69 158 117 70 154 113 66 156 115 68 161 120 73 166 125 78 168 127 80 163 122 75 159 118 71 173 132 85 169 128 81 170 129 82 171 130 83 165 124 77 155 114 67 157 116 69 158 117 70 164 123 76 158 117 70 171 130 83 160 119 72 173 132 85 158 117 70 159 118 71 151 110 63 153 112 65 152 111 64 159 118 71 153 112 65 154 113 66 167 126 79 169 128 81 168 127 80 162 121 74 165 124 77 168 127 80 166 125 78 163 122 75 165 124 77 158 117 70 169 128 81 174 133 86 164 123 76 163 122 75 168 127 80 162 121 74 164 123 76 167 126 79 154 113 66 169 128 81 164 123 76 155 114 67 168 127 80 153 112 65 158 117 70 168 127 80 156 115 68 158 117 70 160 119 72 164 123 76 157 116 69 156 115 68 168 127 80 167 126 79 156 115 68 155 114 67 166 125 78
161 120 73 154 113 66 165 124 77 155 114 67 155 114 67 156 115 68 157 116 69 165 124 77 160 119 72 156 115 68 154 113 66 160 119 72 161 120 73 158 117 70 165 124 77 160 119 72 166 125 78 169 128 81 173 132 85 156 115 68 168 127 80 166 125 78 156 115 68 176 135 88 151 110 63 171 130 83 169 128 81 171 130 83 159 118 71 160 119 72 158 117 70 174 133 86 169 128 81 163 122 75 163 122 75 152 111 64 156 115 68 163 122 75 173 132 85 162 121 74 170 129 82 173 132 85 167 126 79 163 122 75 159 118 71 162 121 74 152 111 64 161 120 73 163 122 75 168 127 80 163 122 75 160 119 72 161 120 73 169 128 81 159 118 71 167 126 79 154 113 66 169 128 81 158 117 70 170 129 82 157 116 69 150 109 62 169 128 81 161 120 73 165 124 77 170 129 82 163 122 75 157 116 69 155 114 67 159 118 71 163 122 75 163 122 75 157 116 69 157 116 69 168 127 80 153 112 65 162 121 74 162 121 74 156 115 68 155 114 67 153 112 65 166 125 78 173 132 85 163 122 75 165 124 77 171 130 83 159 118 71 159 118 71 149 108 61 163 122 75 159 118 71 154 113 66 153 112 65 169 128 81 157 116 69 172 131 84 159 118 71 158 117 70 154 113 66 151 110 63 168 127 80 162 121 74 160 119 72 163 122 75 164 123 76 154 113 66 163 122 75 159 118 71 170 129 82 162 121 74 158 117 70 157 116 69 165 124 77 152 111 64 155 114 67 167 126 79 174 133 86 168 127 80 169 128 81 160 119 72 159 118 71 162 121 74 170 129 82 173 132 85 154 113 66 165 124 77 154 113 66 173 132 85
163 122 75 162 121 74 164 123 76 170 129 82 161 120 73 154 113 66 158 117 70 163 122 75 153 112 65 166 125 78 162 121 74 159 118 71 162 121 74 160 119 72 158 117 70 167 126 79 161 120 73 153 112 65 157 116 69 164 123 76 162 121 74 174 133 86 162 121 74 154 113 66 158 117 70 174 133 86 149 108 61 157 116 69 163 122 75 163 122 75 164 123 76 173 132 85 167 126 79 171 130 83 157 116 69 159 118 71 166 125 78 151 110 63 168 127 80 170 129 82 158 117 70 159 118 71 160 119 72 166 125 78 172 131 84 171 130 83 164 123 76 173 132 85 156 115 68 156 115 68 166 125 78 175 134 87 151 110 63 169 128 81 154 113 66 160 119 72 164 123 76 159 118 71 162 121 74 162 121 74 155 114 67 174 133 86 157 116 69 171 130 83 158 117 70 153 112 65 167 126 79 163 122 75 159 118 71 161 120 73 172 131 84 157 116 69 166 125 78 166 125 78 158 117 70 166 125 78 169 128 81 156 115 68 162 121 74 167 126 79 167 126 79 173 132 85 153 112 65 155 114 67 164 123 76 163 122 75 164 123 76 159 118 71 171 130 83 171 130 83 164 123 76 166 125 78 170 129 82 172 131 84 162 121 74 156 115 68 164 123 76 170 129 82 170 129 82 172 131 84 160 119 72 167 126 79 165 124 77 165 124 77 166 125 78 167 126 79 155 114 67 167 126 79 166 125 78 150 109 62 161 120 73 166 125 78 151 110 63 161 120 73 167 126 79 162 121 74 167 126 79 165 124 77 158 117 70 161 120 73 168 127 80 153 112 65 156 115 68 159 118 71 162 121 74 152 111 64 153 112 65 170 129 82
163 122 75 171 130 83 171 130 83 162 121 74 158 117 70 157 116 69 169 128 81 169 128 81 168 127 80 158 117 70 165 124 77 166 125 78 154 113 66 168 127 80 156 115 68 169 128 81 157 116 69 161 120 73 153 112 65 157 116 69 159 118 71 165 124 77 153 112 65 159 118 71 175 134 87 155 114 67 150 109 62 158 117 70 176 135 88 164 123 76 172 131 84 157 116 69 171 130 83 167 126 79 170 129 82 171 130 83 153 112 65 166 125 78 163 122 75 161 120 73 164 123 76 166 125 78 167 126 79 167 126 79 153 112 65 166 125 78 151 110 63 160 119 72 151 110 63 163 122 75 159 118 71 164 123 76 164 123 76 170 129 82 157 116 69 165 124 77 167 126 79 167 126 79 160 119 72 159 118 71 168 127 80 158 117 70 151 110 63 169 128 81 155 114 67 165 124 77 174 133 86 163 122 75 156 115 68 152 111 64 165 124 77 163 122 75 167 126 79 172 131 84 158 117 70 165 124 77 153 112 65 159 118 71 174 133 86 173 132 85 166 125 78 162 121 74 154 113 66 172 131 84 163 122 75 169 128 81 161 120 73 167 126 79 171 130 83 167 126 79 169 128 81 161 120 73 169 128 81 167 126 79 167 126 79 166 125 78 164 123 76 165 124 77 153 112 65 168 127 80 153 112 65 162 121 74 162 121 74 168 127 80 171 130 83 158 117 70 155 114 67 160 119 72 153 112 65 156 115 68 155 114 67 174 133 86 165 124 77 156 115 68 157 116 69 166 125 78 163 122 75 168 127 80 160 119 72 161 120 73 158 117 70 170 129 82 157 116 69 156 115 68 158 117 70 162 121 74 160 119 72 159 118 71
163 122 75 165 124 77 165 124 77 171 130 83 163 122 75 171 130 83 166 125 78 169 128 81 164 123 76 171 130 83 164 123 76 159 118 71 161 120 73 167 126 79 172 131 84 163 122 75 159 118 71 159 118 71 167 126 79 157 116 69 167 126 79 172 131 84 158 117 70 158 117 70 164 123 76 167 126 79 154 113 66 166 125 78 154 113 66 167 126 79 168 127 80 170 129 82 151 110 63 163 122 75 173 132 85 170 129 82 159 118 71 162 121 74 158 117 70 159 118 71 158 117 70 173 132 85 170 129 82 168 127 80 169 128 81 170 129 82 164 123 76 161 120 73 176 135 88 160 119 72 162 121 74 162 121 74 163 122 75 162 121 74 167 126 79 164 123 76 172 131 84 167 126 79 155 114 67 161 120 73 164 123 76 167 126 79 175 134 87 173 132 85 157 116 69 160 119 72 167 126 79 160 119 72 157 116 69 157 116 69 156 115 68 154 113 66 172 131 84 160 119 72 163 122 75 171 130 83 170 129 82 161 120 73 163 122 75 171 130 83 167 126 79 165 124 77 164 123 76 158 117 70 168 127 80 161 120 73 161 120 73 168 127 80 163 122 75 153 112 65 163 122 75 175 134 87 167 126 79 169 128 81 167 126 79 162 121 74 174 133 86 170 129 82 173 132 85 165 124 77 171 130 83 153 112 65 162 121 74 171 130 83 160 119 72 167 126 79 155 114 67 165 124 77 162 121 74 169 128 81 159 118 71 162 121 74 159 118 71 162 121 74 161 120 73 161 120 73 168 127 80 165 124 77 171 130 83 161 120 73 151 110 63 163 122 75 164 123 76 159 118 71 175 134 87 159 118 71 162 121 74 166 125 78
169 128 81 160 119 72 166 125 78 166 125 78 159 118 71 172 131 84 173 132 85 165 124 77 166 125 78 160 119 72 161 120 73 161 120 73 168 127 80 168 127 80 170 129 82 178 137 90 160 119 72 158 117 70 168 127 80 158 117 70 164 123 76 177 136 89 153 112 65 169 128 81 177 136 89 160 119 72 174 133 86 161 120 73 163 122 75 166 125 78 162 121 74 175 134 87 165 124 77 168 127 80 151 110 63 169 128 81 161 120 73 167 126 79 175 134 87 162 121 74 176 135 88 167 126 79 160 119 72 157 116 69 160 119 72 175 134 87 158 117 70 152 111 64 169 128 81 170 129 82 170 129 82 171 130 83 167 126 79 158 117 70 164 123 76 171 130 83 160 119 72 166 125 78 154 113 66 167 126 79 171 130 83 152 111 64 159 118 71 163 122 75 170 129 82 159 118 71 176 135 88 153 112 65 165 124 77 169 128 81 172 131 84 164 123 76 152 111 64 159 118 71 156 115 68 166 125 78 158 117 70 163 122 75 169 128 81 176 135 88 165 124 77 162 121 74 160 119 72 172 131 84 157 116 69 164 123 76 157 116 69 160 119 72 171 130 83 163 122 75 166 125 78 163 122 75 167 126 79 177 136 89 168 127 80 174 133 86 152 111 64 163 122 75 167 126 79 174 133 86 161 120 73 158 117 70 167 126 79 165 124 77 173 132 85 172 131 84 168 127 80 160 119 72 156 115 68 163 122 75 155 114 67 170 129 82 173 132 85 161 120 73 162 121 74 174 133 86 174 133 86 174 133 86 161 120 73 162 121 74 167 126 79 153 112 65 172 131 84 164 123 76 159 118 71 163 122 75 162 121 74 169 128 81
173 132 85 162 121 74 163 122 75 158 117 70 170 129 82 160 119 72 166 125 78 170 129 82 164 123 76 170 129 82 160 119 72 167 126 79 167 126 79 162 121 74 172 131 84 174 133 86 161 120 73 164 123 76 165 124 77 175 134 87 176 135 88 171 130 83 156 115 68 166 125 78 158 117 70 156 115 68 159 118 71 154 113 66 156 115 68 154 113 66 167 126 79 173 132 85 166 125 78 179 138 91 160 119 72 162 121 74 171 130 83 170 129 82 156 115 68 172 131 84 163 122 75 159 118 71 167 126 79 176 135 88 166 125 78 168 127 80 158 117 70 175 134 87 164 123 76 163 122 75 165 124 77 164 123 76 164 123 76 163 122 75 172 131 84 170 129 82 160 119 72 160 119 72 175 134 87 174 133 86 176 135 88 162 121 74 158 117 70 167 126 79 175 134 87 165 124 77 169 128 81 176 135 88 171 130 83 161 120 73 160 119 72 169 128 81 166 125 78 165 124 77 165 124 77 163 122 75 162 121 74 172 131 84 172 131 84 167 126 79 162 121 74 165 124 77 175 134 87 165 124 77 159 118 71 167 126 79 159 118 71 160 119 72 167 126 79 179 138 91 171 130 83 172 131 84 172 131 84 167 126 79 174 133 86 174 133 86 173 132 85 169 128 81 167 126 79 167 126 79 161 120 73 161 120 73 176 135 88 174 133 86 167 126 79 169 128 81 158 117 70 158 117 70 157 116 69 164 123 76 163 122 75 168 127 80 160 119 72 158 117 70 153 112 65 172 131 84 159 118 71 161 120 73 164 123 76 175 134 87 162 121 74 172 131 84 165 124 77 166 125 78 175 134 87 160 119 72 160 119 72 170 129 82
163 122 75 166 125 78 166 125 78 160 119 72 172 131 84 171 130 83 164 123 76 165 124 77 158 117 70 163 122 75 159 118 71 164 123 76 169 128 81 155 114 67 156 115 68 165 124 77 174 133 86 165 124 77 160 119 72 165 124 77 173 132 85 165 124 77 160 119 72 172 131 84 162 121 74 161 120 73 160 119 72 172 131 84 154 113 66 173 132 85 160 119 72 166 125 78 161 120 73 174 133 86 168 127 80 170 129 82 161 120 73 165 124 77 170 129 82 163 122 75 162 121 74 161 120 73 163 122 75 173 132 85 173 132 85 166 125 78 164 123 76 164 123 76 165 124 77 173 132 85 166 125 78 160 119 72 172 131 84 169 128 81 175 134 87 166 125 78 156 115 68 158 117 70 161 120 73 169 128 81 171 130 83 166 125 78 166 125 78 165 124 77 166 125 78 159 118 71 159 118 71 160 119 72 166 125 78 156 115 68 167 126 79 168 127 80 171 130 83 172 131 84 168 127 80 171 130 83 153 112 65 169 128 81 176 135 88 173 132 85 155 114 67 175 134 87 178 137 90 156 115 68 174 133 86 157 116 69 168 127 80 161 120 73 171 130 83 169 128 81 166 125 78 162 121 74 171 130 83 166 125 78 158 117 70 162 121 74 178 137 90 165 124 77 154 113 66 167 126 79 162 121 74 168 127 80 172 131 84 163 122 75 155 114 67 158 117 70 162 121 74 174 133 86 154 113 66 169 128 81 174 133 86 162 121 74 176 135 88 163 122 75 159 118 71 163 122 75 168 127 80 155 114 67 161 120 73 178 137 90 170 129 82 175 134 87 169 128 81 173 132 85 163 122 75 169 128 81 175 134 87 172 131 84
157 116 69 173 132 85 168 127 80 167 126 79 175 134 87 164 123 76 169 128 81 168 127 80 168 127 80 170 129 82 163 122 75 170 129 82 162 121 74 171 130 83 160 119 72 175 134 87 160 119 72 176 135 88 162 121 74 174 133 86 170 129 82 167 126 79 171 130 83 176 135 88 177 136 89 177 136 89 156 115 68 154 113 66 164 123 76 158 117 70 162 121 74 163 122 75 162 121 74 171 130 83 172 131 84 169 128 81 163 122 75 172 131 84 173 132 85 172 131 84 175 134 87 172 131 84 158 117 70 170 129 82 167 126 79 159 118 71 161 120 73 153 112 65 161 120 73 167 126 79 175 134 87 172 131 84 174 133 86 177 136 89 156 115 68 174 133 86 169 128 81 168 127 80 152 111 64 168 127 80 167 126 79 177 136 89 169 128 81 160 119 72 169 128 81 164 123 76 169 128 81 178 137 90 164 123 76 171 130 83 173 132 85 164 123 76 171 130 83 176 135 88 160 119 72 166 125 78 166 125 78 163 122 75 175 134 87 172 131 84 173 132 85 176 135 88 165 124 77 159 118 71 159 118 71 156 115 68 170 129 82 168 127 80 179 138 91 157 116 69 164 123 76 160 119 72 158 117 70 173 132 85 159 118 71 163 122 75 160 119 72 163 122 75 175 134 87 157 116 69 160 119 72 172 131 84 166 125 78 160 119 72 173 132 85 173 132 85 169 128 81 166 125 78 169 128 81 169 128 81 174 133 86 161 120 73 160 119 72 161 120 73 177 136 89 169 128 81 170 129 82 164 123 76 175 134 87 159 118 71 168 127 80 155 114 67 169 128 81 164 123 76 165 124 77 177 136 89 171 130 83 176 135 88
172 131 84 161 120 73 161 120 73 176 135 88 155 114 67 173 132 85 171 130 83 166 125 78 171 130 83 172 131 84 166 125 78 176 135 88 173 132 85 174 133 86 158 117 70 167 126 79 174 133 86 168 127 80 171 130 83 170 129 82 164 123 76 162 121 74 160 119 72 167 126 79 157 116 69 169 128 81 161 120 73 164 123 76 165 124 77 155 114 67 162 121 74 162 121 74 156 115 68 174 133 86 158 117 70 156 115 68 164 123 76 168 127 80 174 133 86 163 122 75 163 122 75 175 134 87 164 123 76 163 122 75 165 124 77 166 125 78 155 114 67 166 125 78 171 130 83 161 120 73 171 130 83 164 123 76 178 137 90 169 128 81 176 135 88 167 126 79 170 129 82 166 125 78 161 120 73 169 128 81 161 120 73 170 129 82 170 129 82 171 130 83 164 123 76 162 121 74 157 116 69 155 114 67 155 114 67 173 132 85 160 119 72 173 132 85 171 130 83 165 124 77 166 125 78 173 132 85 170 129 82 171 130 83 165 124 77 167 126 79 171 130 83 171 130 83 177 136 89 172 131 84 169 128 81 171 130 83 175 134 87 161 120 73 160 119 72 170 129 82 166 125 78 158 117 70 159 118 71 178 137 90 173 132 85 162 121 74 173 132 85 157 116 69 174 133 86 170 129 82 173 132 85 172 131 84 163 122 75 156 115 68 167 126 79 169 128 81 163 122 75 153 112 65 162 121 74 164 123 76 172 131 84 172 131 84 176 135 88 162 121 74 161 120 73 168 127 80 175 134 87 169 128 81 169 128 81 169 128 81 165 124 77 159 118 71 172 131 84 157 116 69 156 115 68 167 126 79 169 128 81 158 117 70
159 118 71 157 116 69 166 125 78 163 122 75 158 117 70 155 114 67 170 129 82 161 120 73 174 133 86 162 121 74 168 127 80 170 129 82 173 132 85 164 123 76 156 115 68 170 129 82 160 119 72 157 116 69 171 130 83 158 117 70 174 133 86 163 122 75 160 119 72 167 126 79 168 127 80 161 120 73 162 121 74 178 137 90 160 119 72 171 130 83 152 111 64 162 121 74 169 128 81 177 136 89 163 122 75 173 132 85 159 118 71 169 128 81 161 120 73 175 134 87 159 118 71 160 119 72 158 117 70 164 123 76 160 119 72 169 128 81 173 132 85 164 123 76 160 119 72 167 126 79 176 135 88 159 118 71 170 129 82 169 128 81 168 127 80 169 128 81 175 134 87 175 134 87 165 124 77 170 129 82 160 119 72 168 127 80 168 127 80 174 133 86 164 123 76 170 129 82 175 134 87 173 132 85 173 132 85 161 120 73 171 130 83 172 131 84 158 117 70 171 130 83 161 120 73 170 129 82 172 131 84 161 120 73 156 115 68 169 128 81 162 121 74 158 117 70 167 126 79 166 125 78 162 121 74 163 122 75 174 133 86 166 125 78 169 128 81 156 115 68 161 120 73 164 123 76 163 122 75 167 126 79 170 129 82 166 125 78 171 130 83 170 129 82 156 115 68 156 115 68 158 117 70 163 122 75 174 133 86 157 116 69 170 129 82 156 115 68 163 122 75 174 133 86 167 126 79 169 128 81 164 123 76 169 128 81 160 119 72 164 123 76 159 118 71 157 116 69 152 111 64 168 127 80 162 121 74 175 134 87 169 128 81 172 131 84 173 132 85 172 131 84 171 130 83 164 123 76 165 124 77 168 127 80
166 125 78 163 122 75 171 130 83 167 126 79 169 128 81 170 129 82 160 119 72 170 129 82 168 127 80 164 123 76 174 133 86 174 133 86 165 124 77 170 129 82 173 132 85 156 115 68 162 121 74 167 126 79 151 110 63 164 123 76 170 129 82 168 127 80 161 120 73 166 125 78 155 114 67 162 121 74 169 128 81 160 119 72 173 132 85 163 122 75 159 118 71 170 129 82 163 122 75 159 118 71 165 124 77 167 126 79 171 130 83 177 136 89 172 131 84 152 111 64 159 118 71 171 130 83 171 130 83 160 119 72 175 134 87 166 125 78 160 119 72 160 119 72 175 134 87 155 114 67 171 130 83 171 130 83 166 125 78 173 132 85 155 114 67 169 128 81 163 122 75 169 128 81 163 122 75 171 130 83 165 124 77 164 123 76 153 112 65 171 130 83 161 120 73 166 125 78 161 120 73 172 131 84 158 117 70 163 122 75 162 121 74 175 134 87 170 129 82 154 113 66 162 121 74 159 118 71 171 130 83 169 128 81 170 129 82 158 117 70 160 119 72 166 125 78 155 114 67 173 132 85 158 117 70 167 126 79 163 122 75 170 129 82 155 114 67 164 123 76 173 132 85 159 118 71 154 113 66 166 125 78 156 115 68 160 119 72 164 123 76 168 127 80 160 119 72 164 123 76 175 134 87 175 134 87 170 129 82 160 119 72 158 117 70 167 126 79 174 133 86 169 128 81 163 122 75 155 114 67 155 114 67 169 128 81 166 125 78 167 126 79 161 120 73 171 130 83 170 129 82 165 124 77 165 124 77 171 130 83 157 116 69 170 129 82 161 120 73 164 123 76 153 112 65 158 117 70 163 122 75 157 116 69
