P3
128 128
255
92 91 85 73 73 70 90 90 86 95 95 91 99 99 92 90 90 85 96 96 90 88 88 84 84 84 80 97 97 90 99 99 93 97 97 92 98 98 93 100 100 94 96 96 90 102 102 97 115 114 107 99 99 94 79 80 77 111 111 104 96 96 90 104 103 97 108 107 100 99 98 91 65 66 62 106 105 98 92 92 87 92 91 86 97 97 91 94 94 89 80 81 78 72 72 68 96 95 90 91 91 85 84 84 78 86 86 79 88 87 80 82 81 75 60 61 57 73 73 68 86 85 79 64 65 61 80 80 74 101 100 93 98 97 91 97 97 91 76 76 72 77 77 73 62 63 60 85 85 78 66 66 63 74 74 69 95 94 87 72 72 68 104 103 97 108 107 101 103 102 96 92 92 87 98 98 93 79 79 76 93 93 88 97 97 92 87 87 83 76 77 73 107 106 99 94 94 89 80 81 78 77 78 75 94 94 89 99 99 94 81 82 79 82 83 80 75 76 73 78 79 75 101 100 93 95 95 90 73 74 71 74 75 71 100 99 93 83 84 79 96 95 89 98 98 92 86 86 80 101 100 93 76 77 73 79 80 76 99 98 92 79 79 74 85 84 78 79 78 72 65 65 62 84 83 78 62 62 59 93 93 86 75 75 71 95 95 89 63 64 61 64 65 62 95 94 87 94 94 88 71 72 69 78 78 73 65 66 62 93 92 86 67 68 64 84 83 78 86 86 81 88 88 82 116 115 108 101 100 94 91 92 88 98 98 93 97 97 92 82 82 78 104 104 98 94 94 89 94 94 88 68 69 66 73 74 71 100 100 95 100 100 95 95 95 90 119 118 111 94 95 90 120 119 112 107 107 100 104 103 97 86 87 82
97 96 90 80 81 78 116 115 108 119 118 111 93 93 88 88 89 85 97 97 91 99 99 92 76 77 74 94 94 88 94 94 89 97 97 91 107 107 100 106 106 100 98 98 94 106 105 99 93 93 89 89 89 85 98 98 93 103 102 96 81 81 77 101 100 94 82 82 78 85 85 79 81 81 76 67 68 65 83 83 77 96 96 89 70 71 68 82 82 78 85 85 81 76 77 73 70 71 67 93 92 86 92 92 85 83 82 76 91 90 84 84 84 78 60 61 57 61 62 59 91 91 85 95 94 87 68 69 65 84 84 79 80 80 77 72 73 70 88 88 82 73 74 70 104 103 96 77 78 73 88 88 82 72 73 70 106 105 99 89 89 83 84 85 81 113 113 106 85 86 82 105 104 99 95 95 91 87 87 84 87 88 84 99 99 93 83 84 80 95 95 90 99 99 93 85 86 82 109 108 102 84 84 80 101 101 96 116 115 109 114 113 106 77 78 74 80 81 77 101 101 95 86 86 81 93 92 86 69 70 66 96 96 89 75 75 71 75 75 71 104 103 96 76 76 72 98 97 90 101 100 94 91 91 85 78 78 73 90 90 84 68 69 65 97 96 89 75 75 70 72 72 67 82 82 76 67 68 65 73 74 70 98 97 90 63 64 61 70 71 68 105 104 98 72 72 69 87 87 81 67 67 64 81 81 77 70 71 67 94 94 88 86 86 81 74 75 71 81 81 77 71 72 69 90 91 87 94 94 90 85 86 81 95 95 91 103 102 96 87 87 83 87 88 84 73 74 70 84 84 81 111 110 104 86 86 81 80 80 77 80 81 77 100 99 94 93 93 88 106 105 99 88 89 84 98 98 93 75 76 73 75 76 72
114 113 107 94 95 90 101 100 94 97 98 94 111 110 104 107 106 101 95 95 90 78 78 74 92 92 86 81 82 79 73 74 71 109 108 101 80 81 78 107 107 101 91 91 87 77 78 75 110 109 103 107 106 100 95 94 88 67 68 65 81 81 77 96 95 88 75 75 71 101 101 94 75 75 71 79 79 74 86 86 82 62 63 60 65 66 63 89 89 84 79 80 75 83 83 78 95 94 88 81 81 75 85 84 78 74 74 70 88 87 80 87 86 80 88 87 81 88 87 82 62 63 60 83 83 78 88 88 83 87 87 82 67 68 65 103 102 96 74 75 70 82 82 78 72 73 70 76 76 72 108 107 100 90 90 84 88 88 84 85 85 80 104 103 97 97 97 93 108 107 101 112 111 104 96 96 91 103 103 97 89 90 86 78 79 75 87 87 82 83 84 80 97 97 92 85 86 82 78 79 76 83 83 80 85 85 82 85 85 81 109 108 102 76 77 73 101 100 94 83 83 77 70 71 67 82 82 76 70 71 67 72 73 68 69 69 65 71 72 67 80 80 76 77 77 72 108 107 100 91 91 86 98 97 91 96 96 89 84 84 79 61 62 59 85 85 79 90 89 83 72 72 68 72 73 68 95 95 88 79 78 73 86 86 81 76 77 74 105 105 98 103 102 96 82 82 77 99 98 92 87 87 81 103 102 95 93 92 86 85 85 80 73 74 70 92 92 87 101 101 95 90 91 87 98 98 93 97 97 93 115 114 108 102 102 96 95 95 91 100 99 93 88 88 83 90 90 84 95 94 89 75 76 72 89 90 86 89 89 85 99 98 92 82 83 80 98 98 93 112 111 104 102 101 94 105 104 97 91 91 86 97 97 91
97 97 91 90 90 86 103 103 97 113 112 106 100 99 93 109 108 101 90 90 86 76 77 74 98 97 91 86 86 81 85 85 80 91 91 87 92 92 87 94 94 89 109 109 103 114 113 107 114 113 106 98 98 92 97 96 89 79 79 74 65 66 63 94 93 87 68 69 66 72 72 67 84 84 80 62 63 60 99 98 91 80 80 76 75 76 73 95 94 88 92 91 84 58 59 56 84 84 77 99 98 91 74 74 69 83 82 75 91 91 84 70 70 66 97 96 89 82 82 76 69 70 66 100 99 93 101 101 95 96 95 90 87 87 82 78 78 74 85 85 81 94 94 89 90 90 85 101 100 93 73 74 70 83 84 80 98 99 94 75 76 73 111 111 104 99 99 95 122 121 114 80 81 78 79 80 76 89 89 85 88 88 84 86 86 82 96 95 89 84 84 79 82 82 77 106 105 99 110 109 102 96 96 90 102 102 96 86 87 83 92 92 87 76 76 72 70 71 68 101 100 93 70 71 67 67 67 64 84 83 77 70 71 67 59 60 56 66 67 63 96 95 90 91 91 84 82 82 78 75 75 71 96 96 89 72 73 68 88 88 81 76 76 70 64 65 62 74 74 69 65 66 62 86 86 81 89 89 83 75 75 72 85 85 81 84 85 80 73 73 70 82 83 79 75 76 73 102 102 95 97 96 90 90 90 84 99 98 91 97 96 91 75 75 72 104 103 98 111 110 104 110 110 104 86 87 83 104 103 97 102 102 97 86 87 83 94 94 89 86 86 83 95 95 90 79 80 77 75 76 72 85 86 81 88 88 84 93 93 88 114 114 107 77 78 74 71 72 69 88 88 84 67 68 65 87 86 81 70 70 66 67 67 64
88 89 86 100 100 95 92 93 88 97 97 92 110 109 103 86 86 82 100 99 93 80 81 77 91 92 87 102 101 95 105 105 98 89 89 84 90 90 84 83 83 79 80 81 77 94 93 88 98 98 93 77 77 73 83 83 77 99 99 92 95 94 88 94 93 87 65 65 61 82 82 78 92 91 85 80 80 75 87 87 83 79 79 73 97 96 90 90 90 84 75 76 72 92 92 85 71 71 66 67 67 63 84 84 78 86 85 79 69 69 65 98 98 91 79 79 74 103 102 96 80 80 76 79 80 76 91 91 87 72 73 70 84 84 79 89 89 84 100 99 93 77 78 74 97 97 91 94 93 87 94 94 88 110 109 103 92 93 88 83 83 80 79 79 76 107 107 101 105 105 100 96 95 90 77 78 74 73 73 70 87 88 83 73 74 71 79 80 76 97 96 91 81 82 78 93 93 89 104 103 96 82 83 80 92 92 88 86 87 82 92 91 86 78 78 74 66 67 63 87 87 82 86 86 81 92 92 86 91 90 83 70 70 67 68 69 65 88 88 82 73 74 71 73 74 71 80 80 75 64 65 62 70 71 67 76 76 70 77 77 72 61 62 58 76 75 70 100 99 92 76 76 71 93 93 87 105 104 98 100 99 93 104 103 98 90 91 86 100 99 93 103 102 96 68 69 66 88 88 84 84 84 80 95 95 90 86 86 82 86 86 83 98 98 92 96 96 92 113 113 107 118 117 110 99 99 95 100 100 94 86 87 82 107 107 101 103 103 97 108 108 101 102 101 94 88 88 82 82 82 78 103 102 96 95 94 89 103 102 97 100 99 93 111 110 103 100 99 93 91 91 85 70 71 67 91 90 83 82 82 77 85 85 79
100 99 94 97 97 91 111 110 105 97 97 92 88 89 85 75 76 73 80 80 76 102 101 95 80 81 77 92 92 87 90 90 84 86 86 83 94 94 89 101 101 95 93 93 88 83 83 79 97 97 90 108 107 100 85 85 79 56 57 54 68 69 65 74 73 68 99 98 91 80 80 74 91 91 84 88 88 83 70 71 67 96 95 88 67 68 65 75 76 72 78 78 73 81 80 75 85 84 79 61 62 58 64 64 61 73 74 69 89 88 82 69 70 67 91 90 85 98 97 92 78 79 76 102 101 96 93 93 87 93 92 87 70 71 67 64 65 62 105 104 97 77 78 74 83 83 78 98 98 91 81 82 79 108 108 102 102 102 96 84 85 82 115 114 107 81 82 78 97 97 91 76 77 73 93 93 88 96 95 90 80 80 76 102 101 95 84 84 80 105 104 97 79 80 77 102 101 95 85 85 80 75 76 73 102 102 95 80 80 76 103 102 95 73 73 68 58 59 56 64 65 61 84 84 78 66 66 62 84 84 79 75 75 70 71 71 67 96 96 90 88 88 81 92 92 85 93 92 87 79 79 74 62 63 60 85 84 79 75 75 70 92 91 84 89 88 82 79 79 74 66 67 64 95 94 88 95 95 89 103 103 97 111 110 104 87 88 84 97 97 91 92 92 87 87 87 83 74 75 71 80 80 76 87 87 83 89 89 84 106 106 100 108 107 101 79 80 77 106 105 99 91 91 88 99 99 95 87 87 83 82 82 79 78 78 75 86 86 81 66 67 64 70 71 67 90 89 84 85 85 80 78 79 74 93 93 88 95 95 90 85 85 82 107 106 99 73 74 70 72 73 69 87 86 80 84 84 78 67 68 63 68 68 64
92 93 89 94 95 90 94 94 90 97 97 92 110 109 103 95 94 88 68 69 66 73 73 69 100 99 92 101 101 95 95 95 90 80 81 78 81 81 77 103 102 95 89 88 83 90 89 84 72 72 68 84 84 79 76 75 70 68 68 64 69 70 66 64 65 62 59 60 57 78 78 73 71 72 68 93 92 86 71 71 67 101 100 93 94 93 87 80 80 75 77 77 72 68 69 65 65 65 62 75 75 70 55 56 53 65 66 62 96 95 88 90 90 85 102 101 95 91 91 86 75 75 72 103 103 97 84 85 81 76 77 73 91 91 85 90 90 84 98 97 91 106 105 99 69 70 67 116 115 108 94 95 90 118 117 110 80 81 78 114 113 107 111 111 104 99 99 94 109 108 102 101 101 95 106 105 98 97 96 91 93 92 87 91 91 86 76 77 73 87 87 82 103 102 96 101 101 94 108 107 101 113 112 105 81 81 76 73 74 71 70 70 66 82 82 77 95 94 87 72 72 67 87 86 79 84 83 77 103 102 95 93 92 86 85 85 80 107 106 99 63 64 61 61 62 59 69 70 66 81 81 76 78 78 73 79 79 73 89 89 83 87 86 81 77 78 73 67 68 64 101 101 94 82 82 79 102 102 97 78 79 75 94 94 90 101 101 95 92 92 87 78 79 76 97 96 91 92 92 87 87 87 82 108 108 101 103 102 97 98 98 92 109 109 102 95 96 91 81 82 79 96 96 91 84 85 82 102 102 97 104 103 97 86 87 83 74 74 71 81 82 78 78 79 74 83 83 79 83 83 78 69 70 66 80 80 76 85 85 82 85 85 80 83 83 78 94 94 88 76 76 71 81 81 75 75 75 70 71 71 67 76 76 70
110 109 102 93 94 90 100 100 95 73 74 71 102 101 94 81 82 78 74 75 71 92 92 87 80 80 75 97 97 91 70 71 68 90 90 85 94 94 89 95 95 90 106 105 99 81 81 76 69 70 67 76 76 72 88 88 82 84 83 77 80 80 74 71 72 68 62 63 60 92 92 85 83 83 78 103 102 96 90 90 83 84 84 79 70 71 67 66 67 63 66 67 63 91 90 83 58 59 56 87 86 81 89 88 82 98 98 92 77 78 75 83 83 79 108 107 100 103 102 96 102 101 96 83 84 80 68 69 65 95 94 88 91 91 86 98 98 91 84 84 79 107 106 100 88 88 85 92 92 88 105 105 100 84 84 80 108 107 102 105 105 99 109 109 104 85 85 82 101 101 95 107 106 100 78 78 74 81 81 77 71 72 68 87 87 81 77 78 74 88 88 83 84 84 81 87 88 83 106 105 99 94 94 88 92 92 86 76 76 71 76 76 71 89 88 81 80 80 74 57 58 54 55 56 53 82 82 76 92 92 85 92 91 85 68 69 65 88 88 82 93 93 87 78 79 75 73 73 68 64 65 61 87 86 80 85 85 79 74 74 69 68 69 65 76 77 73 104 104 97 86 86 82 94 94 90 75 76 73 90 91 87 96 96 91 99 98 92 95 95 90 78 78 74 93 92 86 96 96 90 94 94 89 88 88 83 88 88 83 90 90 86 108 108 102 92 93 89 90 91 88 113 113 106 97 97 92 93 94 89 104 103 96 85 85 80 101 100 93 92 92 87 92 92 86 110 109 102 77 77 73 87 87 81 81 81 77 103 103 96 99 98 93 89 89 85 89 89 82 69 69 65 70 71 66 68 68 64 83 83 78 68 69 64
94 94 89 100 100 95 75 76 72 76 77 74 88 88 83 78 79 76 79 79 75 77 78 74 89 90 85 103 103 97 95 95 90 107 106 100 85 85 80 81 82 77 84 84 80 79 79 74 88 88 83 65 66 63 88 87 80 80 80 74 87 86 80 71 72 68 94 93 88 73 74 70 94 94 87 81 81 76 102 101 94 70 70 66 86 86 80 78 78 74 69 69 66 84 84 79 87 86 80 77 77 72 85 85 79 83 83 79 82 82 77 101 101 94 77 78 75 85 86 83 89 90 85 97 97 91 91 90 85 89 89 85 101 101 95 97 96 89 108 108 101 93 92 86 95 95 90 87 87 84 106 106 100 112 111 104 103 103 97 88 89 85 79 80 76 102 102 96 78 79 76 74 75 72 76 77 73 110 109 102 102 101 94 101 100 94 91 91 85 104 103 96 110 109 102 96 96 90 90 90 84 82 82 78 80 81 76 82 82 77 86 86 79 84 83 77 92 92 85 89 88 81 71 71 66 80 80 75 83 83 78 79 79 74 91 90 85 76 76 73 95 94 88 94 94 88 72 72 68 78 78 73 78 79 74 94 93 87 82 81 76 89 89 82 81 81 77 77 77 73 101 101 95 102 102 96 105 105 99 93 93 89 86 86 82 95 95 90 75 76 72 86 86 82 99 98 93 104 103 97 94 94 88 109 108 101 96 96 91 98 98 93 85 86 82 94 94 90 94 94 89 86 87 83 100 99 93 104 103 97 96 96 90 72 73 70 70 71 67 78 79 75 74 75 71 84 84 79 69 70 67 96 96 89 91 91 87 78 79 75 108 107 101 84 83 78 77 77 73 65 66 63 68 68 65 57 58 54 91 91 85 67 67 63
108 107 100 102 102 95 107 107 100 87 88 83 74 74 70 94 94 89 78 78 74 91 92 87 75 76 72 87 87 83 106 105 99 84 84 80 79 79 75 68 69 65 91 91 85 78 78 73 81 81 77 62 63 59 63 64 61 74 74 70 84 84 79 87 87 81 91 91 85 80 80 76 101 100 94 83 83 79 77 77 74 77 77 73 89 88 82 67 68 65 61 61 58 88 87 80 78 78 73 83 82 77 66 66 63 103 103 96 104 104 97 94 94 88 114 113 107 81 82 79 110 109 103 96 96 91 78 79 76 98 97 90 99 98 92 75 76 72 101 101 96 79 79 76 82 83 80 103 102 97 102 103 98 90 91 87 89 89 85 89 89 84 105 104 97 94 93 87 100 99 92 95 95 88 100 99 92 86 86 81 76 77 73 94 94 88 87 87 82 101 100 93 68 69 65 72 73 69 80 81 78 63 64 60 79 79 74 71 71 68 59 60 57 63 63 59 85 85 79 80 80 74 95 94 88 83 83 78 63 64 60 84 84 78 91 90 84 101 100 94 92 91 85 75 75 70 79 79 74 76 76 71 61 61 58 87 87 81 84 83 78 94 93 86 74 74 70 107 106 99 90 90 85 114 113 106 100 99 93 115 114 107 99 99 93 94 93 87 86 86 82 73 73 69 94 94 90 110 109 102 102 101 95 99 99 94 113 112 106 101 101 96 96 96 91 93 94 90 100 100 94 112 111 104 87 88 83 66 67 64 92 91 85 104 103 96 92 92 87 89 89 83 87 87 83 97 97 91 71 72 68 75 75 72 89 89 85 89 89 84 98 98 91 80 80 75 82 82 77 68 68 64 80 80 75 80 80 75 62 62 59 92 91 84
116 115 108 100 100 94 80 81 77 70 70 67 82 82 77 93 93 88 103 102 96 100 100 94 97 97 91 100 100 94 79 79 75 111 111 104 89 89 84 83 83 78 78 78 74 74 74 70 94 93 87 86 85 79 60 61 57 87 87 80 97 96 90 82 82 76 76 76 71 98 97 91 80 80 76 83 83 77 79 79 74 88 88 82 87 86 80 69 69 65 64 65 61 73 73 69 81 81 77 77 78 74 107 106 99 85 85 81 100 99 93 87 87 82 81 82 79 110 109 103 90 90 86 82 82 78 109 108 101 103 102 95 87 87 82 94 94 88 102 102 95 83 83 80 84 85 81 84 85 81 105 105 99 107 106 100 83 83 80 83 84 80 100 100 94 108 107 100 94 94 89 70 71 67 78 79 75 83 84 79 94 94 88 69 70 67 97 97 91 93 93 87 98 97 91 76 77 74 85 85 80 93 93 87 63 64 60 59 59 56 86 85 79 60 61 57 85 84 78 68 68 65 98 97 91 96 95 88 83 82 77 88 88 83 93 92 86 69 69 65 94 94 87 75 76 71 87 86 80 82 82 76 57 58 55 68 68 64 97 96 89 105 104 97 77 77 73 105 104 98 78 79 76 72 73 70 112 111 105 101 101 95 75 76 72 68 69 66 93 93 87 71 72 69 86 86 81 104 103 96 82 83 78 88 88 85 111 110 103 83 84 80 113 112 106 101 100 94 114 113 107 108 107 101 78 79 75 92 92 87 74 75 72 86 86 80 86 86 82 102 101 95 78 78 75 68 69 66 74 75 71 82 83 78 112 111 104 72 73 69 91 91 85 77 78 73 93 92 85 72 72 67 91 91 84 57 58 55 72 72 67 72 72 67
105 104 98 88 88 84 92 92 86 99 98 91 84 84 80 96 96 90 90 91 86 99 99 92 106 105 99 102 102 96 95 95 90 101 101 95 89 89 83 90 90 85 76 76 72 87 87 81 65 65 62 55 56 52 96 95 88 68 68 64 89 88 83 64 65 61 81 81 77 85 85 79 93 92 86 80 81 76 60 61 57 91 90 84 91 91 85 76 76 72 94 93 86 76 76 70 73 73 68 91 91 86 112 111 104 93 93 88 95 95 90 78 79 76 91 91 87 83 84 79 79 80 77 82 82 77 93 93 88 102 102 96 90 90 85 90 90 85 110 109 102 92 92 88 81 82 78 115 114 108 88 89 86 94 94 90 101 101 95 82 83 80 71 72 69 78 78 74 72 73 69 73 74 70 67 68 65 104 103 96 71 72 68 103 102 96 89 89 85 74 75 72 84 84 79 74 74 70 74 74 70 81 82 77 82 82 76 100 99 92 74 73 68 97 97 90 86 86 81 90 89 83 87 87 82 63 64 60 93 93 87 90 90 85 107 106 99 76 76 73 62 63 59 75 75 71 73 73 70 73 73 68 91 90 83 78 79 74 89 89 84 79 79 76 104 104 97 112 111 105 106 105 100 90 90 86 96 96 91 113 112 105 105 104 97 88 88 82 100 100 94 81 81 76 74 74 71 96 96 91 90 90 85 112 111 105 111 110 105 110 109 103 87 87 83 87 87 83 88 88 84 94 94 89 84 84 80 76 77 72 85 86 81 105 104 97 85 85 80 100 100 95 85 86 81 108 107 101 77 78 74 77 77 73 84 84 78 76 76 71 81 81 76 93 92 86 77 77 71 58 59 55 83 83 77 78 78 74 88 88 82 90 89 83
88 88 83 101 101 95 80 81 77 85 85 81 75 76 72 100 99 94 85 85 81 101 101 95 77 77 73 99 99 93 98 97 92 91 91 86 80 81 77 86 86 81 66 67 63 85 85 80 90 90 84 65 66 62 65 66 62 87 86 80 69 70 67 93 92 85 78 79 74 105 104 98 86 86 81 86 86 81 70 70 66 87 87 81 66 67 64 59 60 57 78 78 73 90 90 84 80 81 77 96 95 89 95 95 90 103 102 95 69 70 67 72 73 70 107 106 100 74 75 71 93 93 88 81 82 78 76 77 73 70 71 67 96 96 90 98 97 92 90 90 85 105 104 99 87 88 84 97 97 92 91 92 89 95 95 91 81 82 78 83 84 81 97 97 91 90 90 85 107 106 100 84 84 80 103 103 96 93 92 86 84 84 81 86 86 83 96 96 91 82 83 79 80 80 76 80 81 76 94 93 87 77 77 72 82 82 77 65 65 61 72 72 68 84 84 79 72 73 69 90 90 84 95 94 88 77 77 73 83 83 78 85 85 80 75 75 71 86 86 80 69 70 66 77 77 73 72 72 68 93 93 86 94 94 87 75 75 72 84 84 79 92 92 87 91 91 86 97 97 91 98 98 92 88 89 84 100 99 93 73 74 70 90 90 86 100 100 94 83 83 79 91 90 85 83 83 79 91 91 87 99 99 94 102 102 96 102 102 96 107 107 101 81 82 78 80 81 78 116 115 108 96 96 91 77 77 74 74 75 72 78 79 75 88 88 83 102 102 95 100 99 93 102 102 96 76 77 74 90 90 85 81 82 78 70 71 67 98 97 91 66 67 63 72 72 69 55 56 52 86 86 80 84 84 78 57 58 55 93 93 86 62 62 59
86 87 83 80 80 77 87 87 82 101 100 94 80 80 76 100 100 94 85 86 81 85 85 81 82 82 79 98 97 91 79 80 76 91 90 85 82 82 78 75 75 71 81 80 75 77 77 73 73 73 70 87 87 81 69 70 65 94 93 87 70 71 68 73 73 69 84 84 78 92 91 85 92 92 86 64 65 61 77 77 72 52 53 50 84 83 78 72 72 66 73 73 69 100 99 93 97 96 89 69 70 66 96 95 90 86 87 82 105 105 98 108 107 101 100 99 92 105 104 97 98 97 90 76 76 72 84 84 80 94 94 89 94 94 88 91 91 86 106 105 100 85 86 82 114 114 108 117 116 109 95 96 91 117 116 109 89 90 86 106 106 100 87 87 82 93 93 88 73 73 70 99 99 93 80 80 76 87 87 82 105 104 98 104 103 98 90 90 86 90 90 86 82 82 77 79 80 76 71 72 69 96 95 89 86 86 80 98 97 90 67 67 63 68 69 65 67 68 64 88 87 82 75 76 73 68 69 66 69 70 66 93 92 85 83 82 77 101 100 93 85 85 79 72 72 68 70 70 66 74 74 69 92 91 85 80 80 76 78 78 74 105 105 99 90 90 84 80 80 75 93 93 87 85 85 80 80 81 78 92 92 87 90 89 84 84 84 79 84 85 80 87 87 83 89 89 85 114 114 107 100 99 94 92 92 88 117 116 110 103 103 98 80 81 78 82 82 78 96 96 90 82 83 79 77 78 74 98 97 92 90 91 86 104 103 97 68 69 66 83 84 81 106 106 99 91 91 86 96 96 90 89 89 83 94 94 88 99 98 92 77 77 73 72 72 68 72 72 67 75 75 70 76 76 71 82 82 76 57 58 55 91 90 83
101 101 94 74 75 71 85 85 80 72 73 69 108 107 100 107 106 100 99 98 93 115 114 107 98 97 92 106 106 99 70 71 68 95 95 88 103 102 96 76 77 73 85 85 80 87 86 80 98 98 91 98 97 91 103 102 95 87 87 81 98 97 91 79 80 76 78 78 74 101 101 94 67 67 63 73 74 70 71 71 67 91 90 83 83 82 76 76 76 71 90 89 82 68 69 65 86 85 80 76 77 73 70 70 67 86 86 81 97 97 91 89 88 83 91 91 85 73 74 70 86 86 82 76 77 72 70 71 67 98 97 91 91 91 85 90 90 86 113 112 105 107 106 100 85 86 82 104 104 99 82 82 79 97 97 93 95 95 89 105 104 98 71 72 69 89 89 85 102 101 94 106 105 99 107 107 100 113 112 106 92 93 88 83 84 80 90 91 87 98 98 93 67 67 64 75 75 72 100 99 92 65 66 62 79 79 74 62 63 59 91 90 84 80 80 76 76 76 71 88 88 83 83 84 79 101 100 94 84 84 78 75 76 72 85 84 79 67 68 64 64 65 62 88 87 81 64 65 62 88 88 82 74 75 70 99 98 92 93 92 87 91 91 86 92 92 86 78 78 74 84 84 80 73 73 70 89 89 84 84 84 79 103 102 96 83 83 79 93 93 87 74 75 71 84 84 81 108 107 100 101 101 96 85 86 83 107 106 100 89 90 87 75 75 72 74 75 72 94 94 90 93 93 88 102 102 96 81 82 78 101 101 95 81 82 77 80 81 77 81 81 77 85 85 80 77 78 74 76 77 73 93 93 88 92 92 86 100 99 92 57 58 55 76 76 71 89 88 82 78 78 73 65 65 62 93 92 86 75 75 71 82 82 78
95 94 88 104 104 98 91 91 87 80 81 78 113 113 106 102 102 96 86 87 83 112 111 104 98 98 92 97 97 93 80 81 78 103 103 97 83 83 77 83 83 79 91 90 83 71 71 67 76 76 72 77 77 73 71 72 68 92 91 86 82 83 78 63 64 61 70 70 66 104 103 96 93 92 87 82 82 77 79 79 74 70 70 65 74 75 70 65 65 61 88 87 81 75 76 71 83 83 79 83 83 78 76 77 74 102 101 94 85 85 79 76 77 73 103 102 95 78 78 74 91 90 83 71 72 68 89 89 84 100 100 94 71 72 69 93 93 89 107 107 100 97 97 92 119 118 111 89 90 86 109 108 101 104 103 97 88 88 83 87 87 81 108 107 100 109 108 102 96 96 90 80 80 76 109 109 103 103 103 97 96 96 91 102 102 97 96 96 90 76 77 73 96 96 89 81 81 76 75 75 70 91 91 86 69 70 66 70 71 68 107 106 99 92 92 86 77 78 74 78 79 75 107 106 99 85 85 79 94 93 86 85 85 79 84 84 77 61 62 58 64 64 61 91 90 83 85 85 80 75 75 70 64 65 62 89 89 83 95 95 89 91 90 85 72 72 69 91 91 86 93 93 87 73 74 70 70 71 67 90 90 84 70 71 67 73 74 71 101 100 94 79 80 76 76 77 74 94 95 91 76 77 74 91 92 88 87 88 85 113 112 105 85 85 81 97 97 92 86 86 80 99 98 92 85 85 80 111 110 103 94 93 88 85 85 81 111 110 104 79 80 77 77 78 75 113 112 105 96 96 91 92 92 87 93 92 86 88 88 82 74 74 70 70 70 65 85 84 78 78 78 74 89 88 82 83 83 77 90 90 84 100 99 93
107 107 100 89 89 83 104 104 98 81 81 78 95 94 89 99 99 95 87 88 83 87 88 84 107 106 101 75 76 73 90 90 86 90 90 86 107 106 99 103 102 95 68 68 64 68 69 65 104 103 96 102 101 94 71 72 68 109 108 102 78 79 75 83 83 78 92 91 86 80 80 76 57 58 55 85 85 79 60 61 57 61 62 58 59 60 57 81 81 75 68 68 64 88 87 81 72 73 70 87 87 82 93 92 87 83 83 78 97 96 89 101 100 93 77 77 72 66 66 62 68 68 64 105 104 97 91 90 84 96 96 91 97 97 91 96 96 91 96 97 92 93 93 88 86 87 83 106 106 100 95 95 89 106 105 99 87 87 82 106 106 99 85 85 81 75 76 73 104 104 98 100 100 94 81 81 78 110 110 104 113 112 105 82 83 79 106 106 100 83 83 79 77 77 73 99 98 91 91 91 85 74 74 70 96 96 89 88 88 83 79 79 75 96 96 90 81 82 78 68 68 65 75 75 71 75 75 71 72 73 69 98 97 91 63 63 60 70 71 67 60 61 57 97 96 89 84 83 78 93 93 87 69 70 66 91 90 85 65 66 63 92 92 87 66 67 63 83 83 78 87 87 82 83 83 78 98 97 91 74 74 70 68 69 66 90 89 84 82 82 77 95 95 91 78 79 75 102 101 95 87 88 85 94 94 89 105 105 99 92 92 87 85 85 81 107 107 100 86 87 83 97 97 91 74 74 71 95 95 89 84 85 82 89 89 85 116 116 109 88 89 85 118 117 110 79 80 77 100 99 94 77 77 73 94 94 89 91 90 85 78 78 73 89 88 83 80 81 76 91 91 85 84 84 79 95 95 89 106 105 98 69 70 66
77 78 74 93 93 87 113 112 106 91 92 87 111 110 103 114 114 107 91 91 86 117 116 110 77 78 75 100 100 95 86 86 82 91 91 86 90 90 85 98 98 92 92 91 85 84 84 81 76 77 73 89 88 83 77 77 73 88 88 83 83 83 78 95 94 88 102 101 94 82 82 77 78 78 73 69 70 65 89 89 83 79 79 74 70 71 67 73 73 70 64 64 61 103 102 96 67 67 64 91 91 86 78 78 73 100 99 92 64 65 61 79 78 73 83 82 76 97 96 89 83 83 78 72 73 70 91 90 85 76 77 72 92 92 87 106 106 100 103 102 95 99 99 95 89 89 86 105 104 97 98 97 92 104 103 96 75 75 72 103 102 95 80 81 76 85 86 82 99 99 94 92 93 88 92 93 89 87 87 83 94 94 90 108 108 101 88 88 84 75 76 72 87 87 82 74 74 70 101 100 94 83 84 80 97 96 90 73 74 71 88 87 82 76 77 73 106 105 98 89 89 84 70 71 67 107 106 99 74 74 70 88 87 81 97 96 90 99 98 91 67 67 63 87 86 81 88 88 82 87 86 80 84 84 78 79 79 74 78 79 75 82 82 78 65 66 62 90 90 84 74 74 70 89 88 81 76 76 71 70 71 66 84 84 79 80 80 75 92 92 87 96 96 90 90 91 87 105 105 99 112 112 105 110 110 103 87 88 83 99 99 93 78 78 74 69 70 66 97 97 91 74 74 70 82 82 79 77 77 74 104 104 98 109 108 102 84 85 81 75 76 73 98 98 92 109 108 102 102 101 95 76 77 73 101 101 95 99 98 91 93 92 86 89 89 83 91 91 86 74 74 71 83 83 79 81 81 76 71 72 68 86 86 81
84 85 81 110 109 103 93 93 88 105 105 99 78 79 76 91 91 86 98 98 93 97 98 93 100 100 95 88 88 84 77 78 75 81 81 76 87 87 82 101 100 94 83 83 79 91 90 85 72 73 70 111 110 104 102 102 95 94 94 89 98 98 91 92 91 85 91 90 84 64 64 61 87 86 81 77 77 72 87 87 81 56 57 53 84 84 79 84 84 79 86 86 80 71 71 67 99 98 91 85 85 79 82 82 78 89 89 82 69 69 65 87 87 81 96 95 89 66 67 64 91 91 85 71 71 67 78 78 74 85 85 79 91 91 85 101 101 94 109 108 101 77 77 73 104 103 97 76 77 73 92 92 87 93 93 88 97 96 90 76 77 73 114 113 106 79 80 77 97 97 92 80 81 77 79 80 77 103 103 97 83 84 80 78 79 76 92 92 87 100 99 93 93 93 87 82 82 77 73 73 69 71 72 68 76 76 73 91 91 85 97 96 90 98 98 92 94 94 89 87 87 82 66 67 63 83 84 79 99 98 91 78 78 74 91 91 85 58 58 55 67 68 65 80 80 75 82 82 77 91 90 84 77 77 73 85 85 80 73 74 69 101 100 94 94 93 86 84 84 79 80 79 73 72 72 68 56 57 53 54 55 52 84 84 79 101 100 93 73 73 70 83 84 79 82 83 80 85 86 82 93 93 89 76 77 73 77 78 74 91 91 86 90 90 85 85 85 81 96 96 91 113 112 105 93 94 89 89 90 85 78 79 76 110 109 102 108 108 103 112 111 105 91 92 87 114 113 106 101 100 94 74 74 71 78 79 76 101 100 93 94 94 88 66 67 64 70 71 67 97 96 91 104 103 97 85 86 81 100 99 92 88 88 82
101 101 95 91 91 86 81 82 79 119 119 112 88 88 84 112 112 105 89 89 85 107 107 102 103 102 96 93 93 89 72 73 70 93 93 87 95 95 89 92 92 86 83 84 80 105 105 99 90 91 86 105 104 98 111 111 104 94 94 88 104 104 98 88 88 84 92 92 87 78 78 73 96 96 90 69 70 65 62 63 59 71 72 68 70 71 67 77 77 72 67 68 65 99 99 93 63 64 61 64 65 62 59 60 56 65 66 61 90 90 84 70 70 66 91 90 83 88 87 80 86 86 81 77 77 72 90 89 83 71 72 68 82 83 79 103 102 96 73 73 69 77 77 73 92 91 85 98 98 92 93 93 87 75 76 72 100 99 93 86 86 81 69 70 67 91 91 87 109 108 102 91 91 87 93 93 89 120 119 112 81 82 78 102 102 97 101 100 94 94 94 89 101 100 93 103 102 96 102 101 95 107 106 100 101 101 94 96 96 90 97 97 91 84 85 81 81 81 77 88 88 83 104 103 97 65 66 63 83 83 79 59 60 57 59 60 57 78 79 74 73 73 68 78 78 74 87 87 82 89 89 83 97 96 91 91 91 85 95 95 89 89 89 82 66 67 63 85 84 78 71 71 65 90 89 83 71 72 67 67 68 64 103 102 95 98 97 91 81 81 77 92 92 86 96 95 89 78 79 75 96 96 90 100 100 94 78 78 75 93 92 86 80 80 75 89 89 84 103 103 96 76 77 74 80 81 78 99 99 94 94 95 91 112 111 104 90 91 86 88 89 86 85 86 82 92 92 88 98 97 92 79 79 75 95 94 88 75 76 71 95 95 90 91 91 85 86 86 82 93 93 89 89 89 84 85 85 81 99 98 92 89 89 84
83 83 79 82 82 78 111 110 104 103 102 96 106 106 100 85 86 83 81 82 79 87 87 83 85 86 82 97 97 92 98 97 91 79 80 76 73 74 71 104 103 96 88 89 84 106 105 99 92 93 89 80 81 78 95 95 91 95 95 91 108 107 101 71 72 69 65 66 63 88 87 82 84 84 79 96 96 90 61 62 59 105 104 98 77 78 74 101 100 94 74 75 72 65 66 62 78 78 74 61 62 59 66 67 63 82 81 75 68 68 63 88 87 81 51 52 49 59 59 56 67 68 64 83 83 78 90 90 84 80 80 76 77 78 75 67 68 64 70 71 68 80 80 75 77 78 73 103 102 96 90 90 84 83 84 79 96 95 88 90 90 84 97 96 90 88 88 84 100 100 96 81 82 78 91 91 86 106 106 100 81 82 78 93 93 89 97 97 92 78 79 75 81 81 78 103 102 95 92 92 87 89 89 85 109 109 103 85 86 82 96 96 90 88 89 84 87 88 84 96 96 91 111 110 104 88 88 83 79 79 74 78 78 73 75 75 71 88 87 81 67 68 65 72 73 69 68 69 66 81 81 76 82 82 77 71 71 67 96 95 88 72 72 68 87 87 81 60 61 58 58 58 54 95 94 87 89 88 82 88 87 82 59 60 57 76 76 72 98 97 92 86 86 80 75 76 72 101 100 94 65 66 63 98 98 92 64 65 62 78 78 73 93 93 86 95 95 89 79 80 76 93 93 87 91 91 87 80 81 78 104 103 97 118 117 111 95 96 91 105 104 98 110 110 104 80 81 77 92 92 86 86 87 82 101 100 94 89 89 84 84 84 80 81 82 79 104 104 97 93 93 88 84 85 82 104 104 97 87 88 83 68 69 66
85 85 80 83 84 80 91 91 86 82 83 79 109 108 101 112 111 104 77 78 74 88 88 83 91 91 86 89 89 84 105 104 98 97 97 91 101 100 94 102 102 96 89 89 85 87 88 84 109 108 101 111 110 103 104 104 98 75 75 72 107 106 99 89 89 85 100 100 93 95 95 89 90 90 85 75 75 72 82 82 77 101 100 95 71 72 69 92 92 87 100 99 93 81 81 77 69 70 67 72 73 70 70 71 67 74 74 69 60 61 57 63 63 60 85 85 79 58 59 56 74 75 70 85 85 80 89 89 84 96 95 89 73 74 71 102 101 94 69 69 65 70 71 66 95 94 88 70 71 67 86 86 80 83 83 78 73 74 71 96 96 90 96 96 91 91 92 88 85 86 82 110 109 103 83 83 79 105 105 98 78 78 74 99 98 91 102 101 95 72 73 69 86 86 82 108 107 100 78 79 76 98 98 92 82 83 80 104 103 97 88 89 86 88 88 84 108 107 101 80 81 77 98 97 90 90 90 85 89 88 82 97 96 90 74 75 71 82 83 78 95 94 89 108 108 101 78 78 73 89 89 84 77 78 74 106 105 98 100 99 93 92 91 86 62 63 58 61 61 58 65 66 62 67 67 63 65 66 61 83 83 78 91 91 85 74 75 71 101 100 93 89 89 83 86 86 81 89 89 82 89 89 83 72 73 69 78 78 72 85 84 78 74 75 71 69 70 67 95 95 90 80 81 76 92 92 87 81 82 78 97 97 92 82 83 80 91 92 87 110 109 102 82 82 79 96 96 89 85 86 81 95 95 89 79 80 77 108 107 100 90 90 86 76 77 73 99 99 95 113 112 105 94 95 90 92 92 86 75 76 73 94 94 89
77 77 74 79 80 76 77 77 74 71 72 68 85 85 80 72 73 70 84 85 81 105 104 97 84 84 79 77 78 75 98 98 92 94 94 88 97 97 92 82 83 79 84 84 81 106 105 99 86 86 82 93 94 89 84 85 81 94 94 90 96 95 90 80 81 76 79 79 76 70 70 67 100 100 94 88 89 84 94 94 88 75 76 72 87 88 84 80 81 78 71 72 68 78 79 75 70 70 66 70 71 67 74 74 70 98 97 90 65 66 62 90 89 83 83 83 77 66 66 62 84 84 80 77 77 73 75 76 73 81 81 76 87 87 81 101 101 94 77 77 72 93 92 85 77 77 72 79 78 73 72 72 68 79 79 73 86 86 81 80 80 75 90 90 86 88 88 83 100 100 95 85 86 82 107 106 99 81 82 77 94 93 87 100 100 94 85 86 82 101 100 94 94 94 87 80 81 77 80 81 77 106 106 100 113 113 106 96 96 91 115 114 107 80 81 77 99 99 93 88 88 84 99 98 92 70 71 67 96 95 90 81 82 78 71 72 69 98 97 92 106 105 99 82 83 80 90 89 84 93 93 87 93 93 88 75 75 71 79 80 75 72 72 68 74 74 69 89 88 81 58 59 55 60 61 57 88 88 82 76 76 70 86 85 80 94 93 86 95 94 87 101 101 94 97 97 91 89 89 84 91 90 84 84 84 79 78 78 72 81 81 77 84 84 78 78 78 75 72 72 68 66 67 64 105 104 98 97 97 92 84 84 80 96 96 90 80 80 76 103 102 96 93 93 88 90 90 85 75 76 72 98 98 92 110 109 102 103 103 97 101 101 95 112 112 105 93 93 90 99 99 94 112 111 105 92 92 88 83 84 80 75 75 71
73 74 71 103 102 96 93 92 86 73 73 69 91 90 84 78 78 74 77 78 74 80 80 75 74 75 72 106 105 98 87 88 83 88 88 84 86 86 82 111 110 104 107 107 102 107 107 101 87 88 84 93 93 88 115 115 108 108 107 101 92 92 87 101 101 95 100 99 93 93 93 87 76 76 72 106 105 98 103 103 97 88 89 85 81 82 78 106 105 100 87 88 84 84 84 79 97 96 89 93 92 86 89 88 82 90 89 83 96 96 89 78 78 74 77 77 72 92 91 84 89 89 83 86 86 81 89 89 84 92 92 86 91 90 84 80 79 74 93 92 86 97 96 89 94 93 86 58 59 56 64 65 61 59 60 57 73 73 69 81 82 78 74 75 72 80 81 76 109 108 102 106 105 99 99 98 91 82 82 78 75 76 72 82 82 78 83 83 79 84 84 79 98 98 91 115 114 107 114 113 106 99 98 93 103 103 98 85 85 81 106 106 99 106 106 99 87 88 83 93 93 89 109 109 102 79 79 75 72 73 69 101 100 93 92 92 86 76 76 72 83 84 80 95 95 91 81 81 77 75 75 72 98 97 91 95 95 88 81 81 77 84 84 79 65 66 63 68 68 65 78 77 72 81 81 76 81 81 76 77 77 72 100 100 93 74 75 71 71 71 68 77 77 73 62 63 60 95 95 88 70 71 67 91 90 83 73 73 69 71 72 68 67 68 64 94 93 87 93 93 86 97 96 90 104 104 97 88 89 85 109 108 101 85 85 81 68 69 66 87 86 81 86 86 80 71 72 69 104 104 97 99 98 92 83 84 81 113 112 105 84 85 82 107 106 99 87 88 84 104 104 98 99 99 94 89 90 85 99 99 92 97 96 90
74 74 70 92 91 85 91 90 84 92 91 85 72 72 69 88 87 82 99 99 92 102 101 94 85 85 80 69 70 67 82 83 78 100 99 93 105 105 99 95 95 91 79 79 76 98 97 92 97 97 91 90 91 87 77 78 74 81 82 79 81 82 78 92 92 87 97 97 92 79 80 76 104 103 97 101 101 95 99 99 94 114 114 107 82 83 79 86 86 82 105 105 98 94 94 88 71 71 68 64 65 62 100 99 92 77 77 72 93 92 86 82 82 76 89 89 83 105 105 98 86 86 80 91 91 86 64 65 62 91 90 84 71 71 67 79 78 72 64 64 60 68 69 65 86 85 78 72 72 68 90 90 84 83 82 77 74 74 71 96 96 90 103 103 96 100 99 93 89 89 83 100 99 93 91 90 84 65 66 62 69 70 67 87 87 82 82 82 77 74 74 70 72 73 70 89 90 86 120 119 112 82 82 78 76 77 73 84 85 82 112 111 104 83 84 80 93 93 88 98 97 91 95 95 90 82 82 77 107 106 100 71 72 69 105 105 99 102 102 96 108 107 101 92 91 86 75 76 73 85 85 82 72 73 70 71 71 68 77 77 72 91 91 85 83 83 77 63 64 60 75 75 70 96 95 88 68 69 65 100 99 92 78 78 74 82 83 78 76 76 73 82 82 76 89 89 82 84 83 77 62 63 58 76 76 71 58 59 56 58 59 55 87 87 81 81 81 77 73 74 71 82 82 78 93 93 87 104 103 97 95 95 90 81 81 77 80 80 75 79 80 75 81 81 77 72 72 68 104 104 97 106 105 99 101 101 94 92 92 88 113 112 106 104 103 97 85 85 81 102 102 97 102 102 96 72 73 70 94 94 88 97 96 91
73 74 70 88 87 81 70 70 66 85 85 80 80 81 76 76 76 71 61 62 58 92 91 85 72 73 69 75 75 71 86 86 81 84 84 80 98 97 92 102 102 97 118 117 110 112 112 106 79 79 76 103 103 98 106 106 100 101 100 93 112 111 104 83 83 80 84 85 81 114 113 106 112 111 104 114 114 107 81 82 79 118 117 110 86 87 84 81 82 79 81 81 77 80 81 77 90 89 83 66 67 63 89 88 83 77 78 74 70 71 67 81 81 76 73 74 71 82 83 78 76 76 72 80 81 77 86 86 81 76 76 71 64 65 61 64 64 61 97 96 89 59 60 56 61 61 57 68 69 64 91 90 83 80 80 75 88 87 81 73 74 69 81 81 76 74 75 71 69 70 66 95 94 88 94 94 88 62 63 60 97 96 89 69 70 66 98 97 90 86 86 81 98 97 92 91 91 87 106 105 99 83 84 80 113 112 106 89 90 86 90 91 87 91 91 86 83 83 78 108 107 100 99 98 92 90 90 85 89 90 86 91 91 85 89 89 85 88 88 84 109 108 102 94 94 90 108 107 100 84 85 81 76 77 74 82 83 79 73 73 69 89 88 82 87 86 81 101 100 93 84 84 79 82 82 77 75 76 71 94 94 88 79 79 76 67 68 65 77 77 73 82 81 75 70 71 67 96 95 88 56 57 53 74 74 70 84 84 78 69 69 65 91 90 84 93 93 87 70 71 67 68 69 66 94 94 88 66 66 63 84 84 79 70 70 66 72 72 69 67 67 64 90 90 83 78 78 74 74 75 70 107 106 100 109 108 101 95 95 90 78 78 75 77 78 75 89 89 84 93 94 89 79 80 76 86 87 82 86 87 83 80 80 77
95 94 89 87 86 81 72 73 69 96 96 89 71 72 69 86 86 80 61 62 59 90 89 82 98 97 91 74 74 70 100 99 93 74 75 71 79 80 76 91 91 86 70 71 68 79 80 76 86 86 81 83 83 79 95 95 89 110 109 102 96 95 90 88 89 84 104 103 96 99 99 93 108 108 102 97 96 91 94 94 90 106 106 100 114 113 107 74 75 72 94 94 88 87 87 81 66 67 64 64 65 62 92 92 86 72 73 70 91 90 85 105 104 97 70 71 67 107 107 100 74 75 72 69 70 66 94 94 87 73 74 70 93 93 87 92 91 85 82 82 76 63 64 61 73 73 68 74 74 70 64 65 61 78 78 73 88 88 82 74 75 71 71 71 67 73 74 70 70 71 68 91 90 84 80 80 75 75 75 70 96 96 89 85 85 80 78 78 74 71 72 68 76 76 72 82 82 78 103 103 98 92 92 88 85 86 83 74 75 72 80 80 76 100 99 92 76 77 73 99 99 92 78 79 74 85 85 80 81 82 78 84 84 80 84 84 81 93 93 89 86 87 84 111 111 105 98 98 93 84 85 80 88 88 83 81 81 76 74 74 70 81 81 76 81 81 76 75 75 71 83 84 79 88 88 84 86 86 80 73 74 70 77 78 75 96 95 90 98 97 90 61 62 58 71 71 68 83 82 76 78 78 73 82 81 76 78 78 73 84 83 77 84 83 78 74 74 70 93 92 85 105 104 98 96 95 88 85 85 79 89 89 84 81 81 75 88 87 81 82 81 75 97 96 90 94 93 87 66 67 63 104 103 97 95 94 89 99 99 93 94 94 88 91 91 86 91 91 86 86 87 82 96 96 91 88 88 82 91 91 87 112 111 104
73 74 70 69 69 65 92 91 85 79 79 74 72 73 69 66 67 63 92 92 85 89 88 83 94 93 86 92 92 86 92 92 86 105 105 98 78 79 76 82 83 80 80 81 77 100 99 92 76 77 72 92 91 85 85 85 81 95 95 88 85 85 81 74 74 71 83 84 80 102 102 95 86 86 83 110 110 104 111 110 103 104 104 97 86 86 82 99 99 93 75 76 72 67 68 65 100 99 93 94 94 88 67 68 65 77 78 74 70 71 68 86 86 82 89 89 83 102 102 96 96 96 91 101 101 95 83 83 77 90 90 84 82 82 77 93 92 86 90 89 82 72 72 68 93 93 87 86 86 80 78 78 73 97 96 90 68 68 65 83 83 78 93 92 87 80 80 75 71 72 68 59 60 57 83 83 76 91 91 85 74 74 69 61 62 58 84 84 80 70 70 66 80 81 76 85 85 80 110 109 102 90 90 84 87 87 83 82 83 79 106 105 98 110 109 102 66 67 64 99 98 93 106 105 98 106 105 99 95 95 91 115 114 107 82 83 80 119 118 112 109 108 101 95 94 89 106 105 98 90 90 86 79 80 77 104 103 96 103 102 96 93 93 87 81 82 77 90 89 84 100 99 93 87 87 83 87 87 82 101 100 94 90 90 85 87 87 83 86 85 80 76 75 70 72 73 69 62 63 60 61 62 58 66 67 64 95 95 88 72 73 68 86 86 80 102 101 94 63 64 61 76 76 71 76 76 72 99 99 92 62 63 59 80 80 75 73 74 70 67 68 65 63 64 60 69 70 66 67 68 64 74 75 72 76 77 74 103 102 96 92 93 88 101 100 94 92 92 86 97 96 90 95 94 88 85 85 81 102 101 95 88 88 83
80 80 75 74 74 69 65 65 62 87 87 81 81 80 74 80 79 73 57 57 54 83 82 76 89 88 83 69 69 66 99 98 93 90 90 84 85 86 81 83 83 78 74 75 71 106 106 99 99 98 91 98 97 91 73 73 69 87 87 82 93 93 88 85 86 82 82 82 79 80 81 78 87 88 84 113 112 105 110 109 102 91 92 87 102 102 97 90 90 85 78 78 74 90 90 85 94 94 89 89 90 85 77 78 73 94 95 90 87 88 84 77 78 74 90 90 86 116 115 108 105 104 98 91 90 85 98 97 91 95 95 88 102 101 95 66 67 64 79 78 73 62 62 58 87 86 80 69 70 65 88 88 83 102 101 95 94 93 87 94 93 86 60 61 58 85 85 79 84 84 79 73 74 70 93 92 86 66 67 63 83 83 78 89 89 83 75 75 71 81 81 76 74 75 71 89 90 85 81 81 78 105 104 97 80 81 77 106 105 98 77 78 75 97 96 90 101 101 95 75 75 71 100 100 94 88 88 83 79 80 77 99 99 94 102 101 96 121 120 114 99 99 94 106 105 98 86 87 83 93 93 88 99 99 93 91 91 86 83 83 80 98 98 91 101 101 95 98 98 92 99 99 94 105 105 98 95 95 89 93 93 87 68 69 66 100 99 92 79 80 75 85 85 80 67 68 64 68 68 64 60 61 57 88 88 83 83 83 77 89 89 83 79 79 74 101 100 94 94 93 86 86 86 80 93 92 86 70 70 66 70 71 67 90 90 83 85 85 79 68 69 64 97 96 90 79 79 75 90 89 83 101 100 93 91 92 87 83 84 79 74 75 71 87 87 82 75 75 71 94 94 89 100 100 93 100 100 94 75 76 72 86 87 82
84 84 79 72 73 68 82 82 76 90 89 82 81 81 75 55 55 52 79 79 74 56 57 53 99 98 91 86 86 82 97 96 89 71 72 68 109 108 101 88 88 83 85 85 80 95 95 89 74 75 72 88 88 83 71 72 68 71 72 69 81 81 77 85 85 82 81 82 78 97 96 91 99 99 95 109 109 103 87 88 84 83 84 80 102 102 95 83 83 79 87 88 84 78 79 76 94 94 89 96 95 89 83 83 79 117 116 109 96 97 92 89 90 86 93 93 89 110 110 103 74 75 72 76 76 72 84 84 80 77 78 74 80 80 76 71 72 68 84 84 78 83 83 78 80 80 76 98 97 91 100 100 93 96 95 89 96 96 90 89 89 83 85 84 78 78 77 72 66 66 61 88 87 80 77 76 71 86 86 80 81 81 76 77 78 74 87 87 81 67 68 64 84 84 80 89 89 85 111 110 104 84 84 79 67 68 65 109 108 102 90 89 83 75 75 71 69 70 67 74 75 71 106 106 99 99 99 92 98 98 93 111 110 103 83 84 80 98 98 93 101 100 95 89 89 85 76 77 73 104 104 98 84 84 79 95 95 89 98 98 91 80 81 77 86 87 83 105 104 98 97 97 92 85 85 81 101 100 94 97 97 92 97 96 90 78 78 75 85 84 79 69 69 66 80 80 74 81 81 75 73 74 70 78 78 73 78 79 75 72 73 69 84 84 80 80 80 75 96 95 88 59 60 57 77 78 74 90 89 82 71 71 66 81 80 74 99 98 91 94 93 87 73 74 70 74 75 71 91 91 86 95 95 88 102 101 95 87 87 82 76 77 74 105 104 98 95 95 90 94 94 87 92 92 86 87 87 83 64 65 62 76 77 73
64 65 62 60 61 58 81 81 75 78 78 73 90 89 82 63 63 59 84 84 79 68 69 64 91 90 84 87 87 82 79 80 76 68 69 66 80 80 76 70 70 66 68 69 66 95 94 87 96 95 89 69 70 66 69 70 66 94 94 88 81 82 78 103 102 95 89 89 84 115 114 107 86 87 83 100 100 95 114 113 107 92 92 88 99 99 93 86 86 81 103 102 96 97 96 90 81 81 76 72 73 69 78 79 75 83 83 80 102 102 97 92 92 88 113 113 107 87 87 82 80 80 76 69 70 67 84 84 78 65 65 62 95 94 87 83 83 78 85 85 80 88 88 83 76 77 72 81 81 76 87 87 82 95 95 89 93 92 86 69 69 66 68 68 63 71 71 68 78 78 74 69 70 65 88 87 80 65 65 62 88 87 81 88 87 81 70 71 67 79 80 75 88 89 84 85 85 80 104 103 97 99 99 92 91 91 86 75 75 71 91 90 84 71 72 68 99 99 92 102 102 95 81 82 78 100 100 95 91 92 88 94 95 90 78 79 75 105 105 99 106 105 99 112 111 104 96 96 92 112 111 104 74 75 71 81 81 77 95 95 90 117 116 109 82 83 78 113 112 105 99 98 92 89 89 86 115 114 107 96 96 90 81 81 77 71 72 68 92 91 84 65 66 62 72 73 69 97 97 90 92 91 85 93 93 87 78 78 73 82 83 78 93 93 87 87 86 80 64 65 62 68 69 66 88 87 81 87 86 79 76 76 71 58 59 56 82 82 76 59 60 56 70 71 68 83 83 79 90 90 84 93 92 87 97 96 90 93 93 87 81 81 77 75 75 72 105 104 97 91 91 85 75 76 73 67 68 65 111 110 103 77 78 74
87 86 80 84 83 78 85 85 78 76 76 70 71 72 67 73 73 68 68 69 64 73 73 69 100 99 92 94 94 88 92 91 86 95 95 89 92 92 85 85 86 81 80 80 76 83 83 77 84 84 79 85 85 79 84 84 79 85 85 81 97 96 90 73 74 71 82 83 79 102 102 97 95 95 89 100 100 94 98 98 93 93 93 88 100 99 94 98 97 92 102 101 94 100 99 92 82 83 79 81 81 77 89 89 84 106 106 101 88 89 85 90 90 86 107 106 100 101 100 94 97 97 90 66 67 63 88 88 82 62 63 59 95 94 88 86 86 81 87 86 80 101 101 94 83 83 78 95 95 90 94 94 87 65 66 62 76 76 71 75 76 71 70 70 65 80 80 75 65 65 61 68 69 65 69 70 66 68 69 65 87 87 82 70 70 66 94 93 87 79 80 75 95 95 89 105 104 97 103 102 96 98 98 92 85 85 80 72 73 69 96 95 88 72 73 70 100 99 93 68 69 66 76 77 74 86 87 82 85 86 82 104 104 98 91 91 88 95 95 91 115 114 107 100 100 95 108 107 101 84 84 81 105 104 97 107 106 100 107 106 100 104 104 98 93 93 88 82 83 79 99 99 94 73 74 71 91 90 85 76 77 73 74 75 72 83 84 79 79 79 75 73 74 70 65 66 62 73 73 68 73 74 69 105 105 98 81 82 78 70 71 68 109 108 101 82 82 77 83 82 77 87 86 80 62 62 59 94 93 86 85 84 78 77 77 72 87 87 81 90 89 84 72 73 69 86 86 81 82 83 79 102 102 96 85 85 80 85 85 80 92 92 86 87 87 81 88 87 81 86 86 81 74 75 71 87 87 83 76 76 72 94 94 89
69 70 67 78 78 72 59 60 57 75 75 69 82 81 75 82 82 78 82 82 78 77 78 74 96 95 89 79 79 74 98 97 91 89 89 84 77 77 74 87 86 80 90 89 83 76 76 72 75 76 72 93 93 87 67 68 64 103 102 96 89 89 83 99 99 94 114 113 107 96 96 91 112 111 104 107 106 99 94 94 89 86 87 83 82 83 80 87 87 81 78 78 75 96 96 90 86 86 81 110 109 102 95 95 90 118 117 110 74 75 72 80 81 77 92 92 87 71 71 68 107 106 100 84 84 80 65 66 62 73 73 68 68 69 65 81 81 77 61 62 59 96 96 90 98 97 91 65 66 63 93 93 87 86 86 81 64 65 61 86 85 80 69 69 65 55 56 53 65 66 62 74 73 68 83 83 77 57 58 55 61 62 58 68 68 65 88 88 83 92 92 87 97 97 90 90 90 85 86 86 80 98 97 90 90 90 84 94 93 87 96 95 88 81 81 77 108 108 101 74 74 71 87 88 83 93 93 88 100 99 94 113 112 106 103 102 96 91 91 87 76 77 74 107 106 99 84 84 80 99 99 93 70 71 67 85 85 81 74 75 71 109 109 103 105 104 98 81 82 79 95 95 90 88 89 85 95 94 88 83 83 78 97 97 91 69 69 65 83 83 79 83 83 79 78 78 74 86 86 81 98 97 90 84 84 80 90 89 83 101 100 94 97 96 90 87 87 82 61 61 58 63 64 61 57 58 54 84 84 78 59 60 57 77 77 71 70 70 65 87 87 83 104 103 96 100 99 93 109 108 102 80 81 77 99 98 91 81 81 78 75 76 72 82 82 77 82 82 76 63 64 60 73 73 70 76 76 72 91 91 87 82 83 79
74 74 69 73 72 67 58 59 56 55 55 52 92 91 85 79 79 75 94 93 86 67 68 65 70 70 67 82 82 77 68 69 66 79 80 75 77 77 73 79 79 74 68 69 65 72 72 67 69 70 67 65 66 62 97 97 92 94 94 89 94 94 88 102 102 97 109 108 101 96 96 91 98 97 92 73 74 71 101 101 95 92 92 86 94 94 89 110 109 102 84 84 79 89 89 85 111 110 103 109 108 101 91 91 87 88 89 86 79 79 76 78 79 76 86 86 83 103 102 96 95 94 88 99 98 91 72 72 68 72 73 69 92 91 86 73 73 69 69 69 66 86 86 81 77 77 73 73 73 69 64 65 62 93 92 85 98 97 90 67 67 63 67 68 63 88 87 80 52 52 49 93 92 86 74 75 71 73 74 70 76 76 72 74 75 70 70 71 68 85 86 81 104 103 96 89 88 82 65 66 62 79 78 73 95 94 88 66 66 62 92 92 86 108 107 100 85 86 81 84 84 80 80 81 78 83 84 81 87 87 83 108 108 101 82 83 80 95 94 89 100 100 94 93 92 86 99 98 92 111 110 103 92 92 87 115 114 108 94 94 89 90 91 86 114 113 107 77 78 75 105 104 98 104 103 96 74 74 71 64 65 62 89 89 83 102 101 94 62 63 60 71 72 67 94 93 87 80 80 75 68 69 66 81 82 78 80 80 76 94 94 88 86 85 80 71 71 67 71 71 67 62 63 59 87 86 80 54 55 51 76 76 71 58 59 55 64 65 61 71 71 67 89 89 83 72 73 69 86 86 81 91 91 86 96 95 89 92 92 86 86 86 81 77 77 73 77 77 73 78 78 74 107 106 100 95 95 90 87 88 84 88 88 84
79 78 72 60 60 56 90 89 83 65 66 61 84 84 79 66 67 64 96 95 89 99 98 91 73 74 71 101 100 93 91 90 85 95 95 89 66 67 64 82 82 77 69 69 66 89 88 82 75 76 72 100 99 92 85 85 80 89 89 85 108 107 100 88 88 84 109 108 101 81 82 78 85 86 83 99 99 94 81 81 77 76 77 74 76 77 74 109 108 101 77 78 75 97 97 92 81 81 78 98 99 94 84 85 82 104 103 98 92 92 87 96 96 91 93 93 87 101 101 94 97 96 90 73 73 69 97 96 89 83 83 77 83 82 77 100 100 93 82 82 77 87 87 81 94 94 88 95 95 89 91 91 85 88 87 81 82 82 76 86 85 79 76 76 71 71 71 66 64 64 60 72 72 67 77 77 73 95 94 88 83 83 78 87 87 82 84 85 81 94 93 87 86 86 80 80 80 76 106 105 98 97 96 89 69 69 66 90 90 84 78 79 74 80 81 78 106 105 99 90 91 87 114 113 107 105 105 99 119 118 111 116 115 108 83 84 80 80 81 77 103 102 96 82 82 79 95 95 90 95 95 89 76 77 74 94 94 89 119 118 111 83 84 80 92 92 87 101 101 95 114 113 107 90 90 85 80 80 77 74 75 71 74 75 71 74 74 70 87 87 81 62 63 60 74 74 69 94 93 86 98 97 90 76 76 72 87 87 81 91 91 86 88 87 82 79 79 74 90 89 82 65 66 61 90 89 82 74 74 69 78 78 72 67 68 64 69 70 66 82 83 79 83 84 80 95 95 88 70 71 67 87 87 83 86 86 80 95 94 89 68 68 65 65 66 63 69 69 66 99 98 91 109 108 102 90 90 86 98 98 94 77 78 74
73 73 69 79 79 75 67 68 64 60 60 57 69 69 65 74 74 70 66 67 63 97 96 90 78 79 75 84 84 80 80 80 74 92 92 86 75 75 71 73 74 71 74 75 71 94 93 86 71 72 69 87 86 81 96 95 89 116 115 108 115 114 107 95 95 89 75 76 72 84 84 80 108 107 101 95 95 90 108 108 101 83 84 79 89 90 85 77 78 75 81 82 78 103 102 96 105 105 100 88 89 85 90 90 85 94 94 89 90 91 87 80 81 76 72 72 69 84 84 79 79 79 74 94 93 87 94 93 86 80 80 75 75 76 72 85 84 79 85 86 81 70 71 68 75 76 73 90 90 84 76 77 73 70 70 66 75 75 71 80 80 74 86 86 80 91 90 84 75 75 71 71 71 67 64 65 61 88 88 83 99 98 91 93 93 87 89 89 84 98 97 90 89 89 83 76 76 72 66 67 64 62 63 60 79 80 75 110 109 102 87 87 83 70 71 68 90 90 85 79 80 77 80 81 77 92 93 88 83 83 80 92 92 87 93 93 89 115 114 107 77 78 74 98 97 92 96 96 89 83 83 78 86 86 82 104 104 98 100 100 95 89 90 86 105 104 98 83 83 80 95 95 90 99 99 92 71 71 68 74 74 69 64 65 62 65 65 62 77 77 73 97 97 90 80 81 76 104 103 96 79 80 76 67 67 64 69 70 66 69 70 66 74 74 69 66 66 62 70 70 65 81 80 74 53 54 51 92 91 85 75 75 71 64 65 61 73 74 70 72 73 68 97 97 92 102 101 94 85 86 81 82 83 79 72 73 70 92 92 86 87 87 81 76 77 73 98 98 92 82 83 79 96 96 91 88 88 84 87 87 83 93 94 90
96 95 89 77 77 71 61 62 58 72 72 68 90 90 85 104 103 96 77 78 74 85 85 81 98 97 91 85 85 80 76 76 72 78 79 75 102 101 94 101 100 93 63 64 60 88 88 82 92 92 87 72 73 70 106 105 98 113 112 106 84 85 82 112 112 106 108 107 100 94 94 89 102 101 94 97 97 91 75 76 73 113 112 105 96 96 90 97 97 91 107 106 99 106 106 101 109 109 103 98 98 92 108 108 102 99 99 94 84 85 81 92 92 87 96 96 90 78 79 75 77 77 74 81 81 77 75 75 71 67 68 64 87 87 82 76 76 72 92 91 85 77 78 73 90 90 85 68 69 65 97 96 89 88 87 80 60 61 57 91 90 83 66 67 63 86 86 80 60 60 57 79 79 74 65 66 63 92 92 86 71 72 68 77 78 74 107 107 100 72 73 69 107 106 99 71 71 68 67 67 64 69 70 66 99 98 92 86 86 82 102 101 96 101 100 94 97 97 92 108 107 102 115 114 107 98 98 93 112 111 104 96 96 91 92 92 87 80 81 77 92 92 86 105 104 98 95 95 90 86 86 82 106 105 99 108 107 102 75 76 72 114 113 106 105 105 99 106 105 99 78 79 75 74 75 71 67 67 64 81 81 77 66 67 63 104 103 97 89 88 82 94 94 88 79 80 76 82 82 77 75 76 71 82 82 78 98 97 90 90 89 83 64 65 61 57 58 54 82 82 77 74 74 69 61 62 59 88 87 81 89 88 83 89 89 84 85 85 80 89 89 85 74 75 72 85 85 80 97 96 90 80 81 77 87 87 82 89 89 84 61 62 59 79 79 75 79 79 76 86 86 81 100 100 94 80 80 77 89 90 86 94 95 91
57 58 55 96 95 89 73 74 70 69 69 65 95 94 88 76 77 73 96 96 90 75 75 71 83 83 79 67 67 64 84 84 79 83 83 79 88 88 82 66 67 63 95 94 88 73 74 70 97 96 91 107 107 101 114 113 106 114 113 107 86 87 83 81 82 78 101 101 96 89 89 84 103 102 97 88 88 83 82 82 78 89 89 85 88 89 85 96 96 91 89 89 85 114 113 106 109 109 102 108 107 101 85 86 81 102 101 96 90 90 85 81 81 77 86 86 80 78 78 72 62 63 60 91 90 84 98 97 90 83 82 77 69 70 66 84 84 80 70 70 67 83 82 77 67 68 64 61 62 58 60 61 58 68 68 63 63 63 60 57 58 54 58 59 55 61 62 58 68 68 65 84 84 79 84 85 80 74 75 71 83 83 78 76 77 74 99 99 92 83 83 79 95 94 88 104 103 97 87 87 81 75 75 71 93 93 88 74 75 71 97 96 90 100 100 95 87 88 84 93 94 90 97 97 92 106 106 99 89 88 83 82 82 78 81 81 78 78 79 76 97 97 90 100 99 93 98 97 92 105 105 98 80 80 77 79 79 76 79 79 76 110 110 103 79 80 76 96 95 89 104 104 97 66 66 63 60 60 57 95 94 87 83 82 76 81 81 76 71 72 69 96 95 88 71 72 68 99 98 92 71 72 69 73 74 70 82 82 78 80 80 74 93 93 87 75 75 69 88 87 81 81 81 75 80 80 74 84 84 79 86 86 80 82 83 79 97 96 90 83 83 78 94 94 89 100 100 93 69 70 66 94 93 86 77 77 72 97 97 90 86 86 81 78 78 74 77 78 75 73 74 71 104 104 97 89 90 86 100 100 95 116 115 108
94 94 87 92 91 85 93 93 87 90 89 84 67 68 65 68 69 65 104 104 97 100 99 93 78 79 76 98 98 92 79 79 75 70 70 67 93 93 87 73 74 69 90 89 84 101 101 95 95 94 89 85 86 83 86 87 83 102 102 97 111 110 104 99 99 93 108 107 101 91 91 85 93 93 88 69 70 67 90 90 85 99 99 93 83 83 79 95 95 90 102 102 96 92 92 88 93 94 89 84 84 80 76 77 74 88 88 82 97 96 90 79 79 74 57 58 55 90 89 83 61 62 59 94 94 88 101 101 94 74 75 72 90 90 84 95 95 89 73 74 69 78 78 75 61 62 58 94 93 87 71 72 68 71 72 68 87 86 81 84 84 78 77 77 73 72 73 68 78 78 73 89 89 84 89 89 83 86 87 82 84 84 79 99 98 91 100 99 93 88 89 84 98 97 91 106 105 99 103 102 96 84 84 80 75 75 72 108 107 101 101 101 95 89 90 86 89 90 87 89 89 85 96 96 91 97 98 93 84 84 79 92 91 86 97 97 91 97 96 90 75 75 72 114 113 106 91 91 87 86 87 83 105 105 98 76 77 74 95 95 89 93 93 87 103 102 96 81 82 77 84 84 78 70 70 65 76 76 71 70 71 67 99 98 91 96 95 89 77 78 73 71 72 69 81 81 77 89 88 83 95 95 88 78 78 74 59 60 56 72 72 67 83 83 77 60 61 58 63 64 60 85 85 79 69 69 66 99 98 91 80 81 76 95 94 88 106 105 99 96 96 91 80 81 77 91 91 85 92 92 86 99 98 92 96 95 89 82 82 77 91 91 86 87 87 81 79 79 75 93 94 89 110 109 103 107 107 102 98 98 94 82 83 80
80 80 76 77 77 74 75 76 72 85 85 80 75 76 73 96 95 89 97 97 91 91 90 85 73 74 71 73 74 69 84 84 79 78 78 74 84 85 80 83 83 78 74 75 71 94 94 90 102 101 96 75 76 73 102 103 98 83 84 80 82 83 79 78 79 75 80 81 78 105 104 98 105 104 97 80 81 78 99 98 93 89 89 85 74 75 71 79 80 77 84 84 81 76 77 73 99 99 93 96 96 90 97 97 91 74 75 71 84 84 79 99 98 92 89 89 83 86 85 80 75 75 71 96 95 88 65 66 62 77 78 74 92 91 86 101 100 93 77 78 74 70 71 68 89 88 83 78 78 73 69 69 65 83 82 76 83 83 78 65 66 63 65 66 63 73 74 70 78 78 74 90 91 86 93 93 87 78 79 75 95 95 89 87 88 84 81 81 77 86 86 80 91 91 86 99 98 92 84 85 81 88 88 84 99 99 93 99 99 95 88 89 86 88 89 85 113 112 106 107 107 100 112 111 104 101 101 96 86 86 81 66 67 64 69 70 66 86 86 81 79 79 74 95 94 88 94 94 89 90 90 85 91 91 87 83 83 79 109 108 101 84 84 79 92 91 85 88 87 80 79 79 74 90 90 84 64 65 61 65 66 62 74 74 69 98 97 90 98 97 90 85 84 79 74 74 69 93 93 87 72 72 69 78 78 73 90 90 83 76 76 71 67 68 64 72 72 67 72 73 68 66 66 62 95 95 89 87 87 82 84 84 80 82 83 80 86 87 83 96 95 89 76 76 72 94 94 88 89 89 84 78 79 74 90 90 85 67 68 65 97 97 91 98 98 92 97 97 92 91 91 87 116 115 109 91 91 87 95 95 90 109 109 103
75 75 72 78 78 74 78 78 73 84 85 80 109 108 102 97 97 91 105 104 98 79 80 76 95 95 88 87 86 81 76 77 73 89 89 84 100 100 94 103 102 96 84 85 82 87 88 83 101 101 96 109 109 103 82 83 80 103 102 96 104 104 98 100 99 93 102 101 94 93 92 87 83 83 79 77 77 73 109 108 101 104 104 98 101 101 95 95 95 91 116 115 108 103 102 97 90 90 85 94 94 88 94 93 87 75 75 71 77 78 73 59 60 56 97 96 89 94 93 86 71 71 66 80 80 75 73 73 69 71 72 68 91 90 84 61 61 58 106 105 98 94 93 87 72 72 68 74 75 70 80 80 74 72 73 69 65 66 63 67 67 63 81 82 78 84 83 78 102 101 96 84 85 81 89 89 85 100 100 94 102 102 96 100 99 93 80 81 77 84 84 79 85 85 80 86 86 82 97 97 92 92 92 88 112 111 105 82 83 79 101 100 95 98 98 94 90 90 85 112 112 105 91 91 87 68 69 66 92 92 87 74 75 72 83 83 78 78 79 76 82 82 78 88 88 84 78 79 75 101 101 94 106 105 99 98 97 90 77 78 75 83 83 79 79 80 76 79 79 74 65 65 61 92 92 86 79 79 73 77 77 73 92 92 86 72 72 68 82 83 78 69 69 65 85 85 81 87 86 81 93 92 85 64 65 62 79 80 75 70 71 67 73 74 70 91 90 83 79 80 75 92 92 86 75 76 73 97 96 90 91 91 86 95 95 90 90 90 85 105 104 99 98 97 92 105 104 97 79 79 76 102 101 94 94 94 88 99 99 92 76 77 74 79 80 76 109 108 102 110 110 103 89 89 86 88 88 85 104 104 98 83 83 80
90 89 83 89 89 84 91 91 86 75 76 73 92 92 86 99 99 92 84 85 81 93 93 87 81 81 77 111 110 103 80 81 77 85 85 80 107 107 101 99 98 92 106 105 99 83 83 80 107 107 101 88 89 85 111 110 103 90 90 85 95 95 90 99 98 92 103 102 95 68 69 66 101 101 94 70 71 68 74 74 70 105 104 97 79 80 76 78 79 76 95 95 89 90 90 85 79 79 75 103 103 96 75 76 72 76 76 72 66 66 62 76 76 71 71 71 66 72 72 67 95 95 88 91 91 85 94 93 87 70 71 67 65 66 63 81 81 76 81 81 76 82 82 77 74 74 70 56 57 54 81 81 75 61 62 59 66 67 63 87 87 82 91 91 86 79 80 76 91 91 86 93 93 88 82 82 78 99 99 93 101 100 94 86 86 83 78 78 74 93 92 87 82 82 78 76 77 73 100 99 94 98 98 93 97 97 92 94 94 90 93 94 90 90 90 86 86 86 83 108 108 102 90 90 85 99 99 93 69 70 66 89 89 84 83 83 79 92 92 87 83 84 80 70 71 68 75 75 71 104 104 98 73 74 71 73 74 71 72 73 70 85 85 80 65 65 61 65 66 62 75 74 69 76 76 71 65 66 63 71 72 68 89 89 83 76 76 72 89 88 82 72 73 69 92 91 85 70 71 68 81 82 77 71 71 67 77 77 73 94 93 87 71 72 68 63 64 61 89 89 82 94 94 88 85 85 80 99 99 93 79 80 76 100 99 94 86 87 83 105 105 99 108 107 101 83 83 79 97 96 89 95 95 90 90 91 86 112 111 104 83 83 79 78 79 75 87 88 83 87 87 84 94 95 91 94 94 89 109 108 102 71 72 69
110 109 102 91 91 86 99 99 93 91 91 86 102 102 97 78 78 74 103 102 97 74 75 72 79 80 75 94 94 88 94 94 89 95 94 88 74 75 71 87 87 84 107 107 101 106 106 101 88 89 86 85 85 81 113 113 106 73 74 71 79 80 75 68 69 66 80 80 75 83 82 77 78 78 74 98 98 92 110 109 103 73 74 70 84 85 81 101 101 95 83 83 78 77 77 73 84 84 79 82 83 78 81 81 75 83 83 76 73 73 68 77 77 73 65 66 63 86 85 79 97 96 90 95 94 87 90 90 84 75 75 71 96 95 90 89 88 83 66 67 63 92 91 85 85 85 80 73 73 69 77 77 73 66 67 63 97 97 91 70 71 67 105 104 98 102 102 96 84 85 81 93 93 88 90 90 86 104 103 96 95 95 90 98 97 91 97 97 91 97 96 90 88 89 84 76 77 73 108 107 102 99 99 94 102 102 97 78 79 76 95 95 90 106 106 101 103 103 97 82 83 79 98 98 92 91 91 85 83 83 77 92 91 86 97 97 91 80 80 76 72 73 69 73 74 70 79 79 76 81 81 77 76 76 73 85 85 80 78 78 74 89 88 83 83 83 77 76 76 71 71 72 67 91 90 84 88 87 81 77 78 74 67 68 64 78 78 73 88 88 82 74 74 71 75 76 72 80 80 75 101 100 94 94 93 87 70 71 67 70 71 67 76 76 72 92 91 85 67 68 65 85 85 81 90 89 84 85 86 82 85 85 81 117 116 109 101 101 96 100 99 93 113 112 105 90 90 85 90 90 84 83 84 80 102 101 95 100 100 95 87 87 84 115 114 108 105 105 100 90 90 86 102 102 96 115 115 108 78 79 75 70 71 68
90 90 86 91 92 87 112 111 105 106 106 100 80 81 77 86 86 83 102 102 96 81 82 79 76 76 72 92 92 86 85 85 80 80 81 77 91 91 87 101 101 96 95 95 91 120 119 112 96 95 90 79 80 76 76 77 74 75 76 73 77 77 74 86 86 80 98 98 91 74 75 71 79 79 74 68 69 66 75 76 72 82 83 79 71 72 68 80 80 75 97 96 91 73 73 69 74 74 69 79 79 74 84 84 78 66 66 62 61 61 57 78 78 72 81 81 76 101 100 93 85 85 81 73 74 70 90 90 84 79 80 75 88 87 81 83 83 78 73 73 69 80 80 74 87 87 82 62 63 59 91 90 84 90 90 85 69 70 67 80 80 76 109 109 102 84 85 81 100 100 94 95 96 91 98 98 93 92 91 86 89 89 84 112 111 105 90 91 86 79 79 75 90 90 86 74 75 72 92 92 88 99 99 94 77 78 75 103 104 99 88 89 85 74 75 71 92 92 86 70 71 68 68 69 65 83 82 77 72 72 68 94 93 87 72 73 69 85 85 79 101 100 94 94 94 88 103 102 96 90 90 84 81 81 76 64 65 61 86 86 80 63 64 60 73 73 68 77 78 73 74 74 69 77 77 71 69 70 66 84 84 79 94 94 89 92 92 86 74 74 70 101 101 94 84 84 80 89 89 82 90 89 83 103 102 95 69 69 65 89 89 83 66 67 63 106 106 99 102 102 96 102 102 95 112 111 104 114 113 106 101 100 94 107 107 101 107 107 100 86 86 83 101 100 93 82 82 78 99 99 92 93 93 87 100 100 94 89 89 84 100 99 94 88 88 83 112 111 104 93 93 89 78 79 75 100 100 94 94 94 87 75 75 72
112 112 106 105 105 100 114 114 107 81 82 78 92 92 88 87 87 82 74 75 71 85 85 80 95 95 89 75 76 72 89 89 85 109 109 102 113 113 106 85 86 82 99 99 93 94 95 90 90 90 86 86 86 81 93 93 88 91 91 85 96 95 88 64 65 62 96 96 90 78 78 72 79 79 75 88 88 83 74 74 70 82 83 79 68 68 65 84 84 80 86 86 81 68 69 65 63 63 59 80 80 75 84 83 77 73 73 69 87 86 79 83 83 78 94 93 87 64 65 62 101 100 93 74 75 71 95 95 88 70 71 68 86 86 80 92 92 86 99 99 92 77 77 73 88 88 82 71 72 69 75 75 71 106 105 99 103 102 96 85 86 83 100 100 95 75 76 73 90 91 87 111 111 104 100 100 95 81 81 78 99 98 93 70 71 68 75 76 73 105 104 98 101 101 96 103 102 95 113 112 106 82 83 80 79 80 77 80 81 77 94 93 88 87 87 83 90 90 85 87 87 82 101 100 94 72 72 67 92 91 85 82 82 77 80 81 77 100 99 92 83 84 80 80 80 75 65 66 63 76 77 73 89 89 83 92 92 85 86 86 80 60 61 58 82 82 77 79 78 73 85 85 79 72 73 68 72 73 70 91 91 85 83 83 78 78 78 74 73 74 71 88 88 82 68 69 65 83 84 79 86 87 82 79 79 74 95 94 88 95 95 89 75 76 71 109 108 101 109 108 102 95 95 90 110 109 103 87 87 83 110 109 103 103 102 96 84 84 80 94 94 88 94 94 90 74 74 70 97 97 92 85 86 82 81 81 78 105 104 99 82 83 79 73 74 71 90 90 86 82 82 78 100 99 92 70 71 67 64 64 61 66 67 64
88 88 85 100 99 94 91 91 87 83 83 79 87 88 83 103 102 95 99 99 93 104 103 96 94 94 89 96 96 91 86 86 81 95 96 91 105 105 99 102 102 96 89 89 86 109 109 103 83 84 80 111 110 103 73 73 70 85 85 81 97 96 89 59 59 56 77 78 74 89 89 83 101 100 93 87 87 81 85 85 81 80 80 75 81 82 77 95 94 88 63 64 61 89 88 81 67 67 64 56 57 53 78 78 72 60 61 58 90 89 82 82 81 76 94 93 86 75 75 72 80 80 76 79 80 77 108 107 101 90 90 84 96 95 89 87 88 83 92 91 85 87 87 82 100 100 93 91 91 85 83 83 79 106 105 99 93 93 88 97 97 92 108 107 101 105 105 98 101 100 94 97 97 92 75 76 72 77 78 74 94 93 87 96 96 89 92 92 86 93 93 88 104 103 97 93 93 87 111 111 104 96 96 91 86 86 81 87 88 84 82 82 77 100 100 94 68 69 66 59 60 56 73 73 69 64 64 61 75 76 71 80 80 75 79 79 75 94 94 89 79 79 76 94 93 88 61 62 59 81 81 76 70 70 66 65 66 62 81 81 75 92 91 84 75 75 70 88 87 81 96 95 89 77 78 73 63 64 61 80 81 76 105 104 97 83 84 80 72 72 68 87 87 83 100 100 94 103 102 96 79 80 76 89 89 84 72 73 69 95 95 90 110 110 104 80 81 78 96 96 92 94 94 89 113 113 106 105 105 99 81 82 78 93 93 89 72 73 69 109 109 102 96 96 91 104 103 96 85 85 80 93 93 87 107 107 100 88 89 85 87 87 83 78 79 76 93 93 88 98 97 91 99 99 93 88 88 83 92 92 85 74 75 71
90 90 86 85 85 81 91 92 88 107 107 101 103 102 96 107 106 100 94 93 87 70 71 67 78 79 75 76 77 73 82 83 79 97 96 90 85 85 82 86 87 82 113 112 105 101 101 94 69 70 66 100 99 93 96 95 88 77 78 73 93 92 85 56 57 54 90 89 82 81 80 75 63 64 61 88 88 82 79 80 76 84 84 79 64 65 61 82 82 77 58 59 56 88 88 81 89 88 82 88 87 82 80 79 74 88 87 81 88 88 82 74 75 71 77 77 74 86 86 82 99 99 92 99 98 92 103 103 96 91 90 84 91 91 85 93 92 86 93 93 87 87 87 82 81 82 78 97 97 90 102 102 96 116 115 108 114 113 106 119 118 111 99 99 95 91 91 87 115 114 108 89 90 85 78 78 74 84 84 80 82 82 79 78 79 76 76 77 73 103 102 96 114 113 106 88 89 85 91 92 88 90 90 85 77 78 75 73 73 70 76 77 73 68 69 65 84 84 79 78 78 72 62 62 58 67 67 63 93 92 86 88 88 82 85 85 80 81 81 77 84 84 79 80 80 75 66 67 64 83 82 76 76 76 70 78 78 73 80 80 73 65 65 61 79 79 73 74 74 70 91 91 84 94 94 88 77 78 75 97 97 91 72 73 69 80 81 78 89 90 85 85 85 82 70 71 68 78 78 74 105 104 97 78 79 74 97 96 90 103 102 97 96 96 90 109 109 102 81 81 78 90 91 87 105 105 99 105 105 100 90 91 86 88 88 84 91 91 86 83 83 79 86 86 81 106 105 99 98 97 91 90 90 86 90 91 86 77 78 74 104 104 98 81 82 79 108 107 100 87 87 83 75 76 72 72 72 68 102 101 94 81 81 76
98 98 92 91 92 88 97 97 91 106 105 98 90 90 86 78 78 73 89 89 84 104 104 97 106 106 100 113 112 105 107 106 100 85 85 80 104 104 98 79 80 77 89 89 84 79 79 74 87 87 82 96 96 90 68 69 66 83 82 76 93 92 85 97 96 89 66 66 63 74 74 69 105 104 97 86 85 79 72 72 69 70 70 67 62 63 60 98 97 90 83 83 77 62 63 59 56 57 53 80 80 74 68 68 64 72 72 68 106 105 98 74 74 70 105 105 98 94 94 88 79 80 77 106 105 100 73 74 70 93 93 87 83 83 79 100 99 92 94 93 88 71 72 69 103 102 96 79 80 76 78 78 75 84 84 81 95 95 90 100 100 96 98 98 92 78 79 75 104 103 96 89 89 85 80 81 77 80 80 75 74 75 71 97 96 90 101 101 94 73 74 70 85 85 81 98 97 91 98 98 93 100 100 94 98 98 92 95 95 88 69 70 67 85 85 78 89 89 84 74 74 69 71 71 66 94 93 86 87 87 81 70 70 67 93 92 85 85 85 80 95 95 89 84 84 80 70 70 66 58 59 56 75 75 70 81 81 76 83 83 77 72 73 69 99 98 92 83 83 78 73 74 71 94 94 88 87 87 82 108 107 101 71 72 69 71 72 68 102 101 95 83 84 80 88 88 82 105 104 97 102 101 94 74 75 71 79 80 76 102 102 96 105 105 99 111 110 103 102 102 96 93 93 89 108 108 102 110 110 103 88 88 84 92 92 87 98 97 91 72 72 69 102 102 95 86 86 81 78 79 76 97 97 91 81 81 77 81 82 78 101 101 94 96 96 90 71 72 68 77 77 73 64 65 62 81 80 74 67 67 63 75 74 69
90 90 86 89 89 85 74 74 71 87 87 82 75 76 72 103 102 95 91 91 86 81 81 77 101 100 95 85 85 81 79 80 76 113 113 106 95 94 89 79 79 75 108 107 100 88 88 83 91 91 85 95 95 88 93 92 85 69 69 65 72 73 69 81 81 75 87 87 81 99 98 92 87 87 82 68 69 65 81 82 77 70 71 68 96 95 89 71 71 66 69 70 65 53 54 51 60 61 57 82 82 76 93 92 85 72 72 68 98 98 92 104 103 97 71 72 68 93 93 87 78 79 76 96 96 91 86 86 82 87 88 83 85 85 81 93 92 87 88 88 84 88 88 83 109 109 102 83 84 81 110 110 104 90 90 85 88 88 85 107 106 100 96 95 90 98 98 92 109 109 103 71 72 69 86 86 81 78 78 74 91 90 85 99 98 92 72 73 70 84 84 81 83 83 79 71 72 69 107 106 100 96 95 89 82 83 78 75 76 72 85 85 80 80 80 75 60 61 57 85 85 80 95 94 88 90 89 82 90 90 84 85 85 80 73 73 69 98 97 90 68 69 65 89 88 82 63 63 59 76 75 70 92 91 85 86 86 80 53 54 51 86 85 79 84 84 79 67 68 64 109 108 101 100 100 93 95 95 90 112 111 104 87 87 84 93 92 87 91 91 87 106 105 99 71 72 69 100 100 93 102 101 95 103 102 96 106 105 99 99 99 93 96 96 92 112 111 105 98 98 94 95 95 91 91 92 88 86 87 82 103 102 96 89 89 83 90 90 85 87 87 82 73 73 69 95 94 88 107 106 99 103 102 96 92 92 88 108 107 100 109 108 101 95 95 89 83 83 79 91 90 85 96 95 89 78 78 73 93 92 85 64 65 61
82 83 79 104 104 99 86 87 83 92 92 86 87 87 83 100 100 93 88 88 84 96 96 91 106 105 98 81 81 77 93 93 89 92 92 87 82 82 78 93 93 88 89 89 83 87 87 81 66 67 64 88 88 82 72 72 67 69 69 65 82 81 75 68 69 66 66 66 62 91 90 84 70 71 67 81 81 77 98 98 91 77 77 72 93 92 85 60 61 57 86 85 78 72 72 68 85 85 79 78 78 73 67 67 63 96 95 89 78 78 74 81 82 78 100 100 94 84 85 81 92 92 86 70 71 68 103 102 96 95 94 88 103 102 95 94 94 87 98 97 91 109 108 102 103 103 97 116 115 108 88 88 85 87 87 83 80 81 78 110 109 103 82 83 79 106 105 98 112 111 105 108 107 100 74 75 71 99 99 93 90 90 85 90 90 85 89 89 84 82 83 79 109 108 102 71 71 68 94 94 89 101 100 94 77 77 73 78 78 74 101 100 93 98 97 90 85 85 79 68 68 63 67 68 64 81 81 76 72 72 67 87 86 80 108 107 100 94 94 88 92 92 86 66 67 63 78 78 72 78 79 74 95 94 88 76 77 72 63 63 59 74 74 69 77 78 74 78 79 75 74 75 71 113 112 105 80 80 77 85 85 80 95 94 89 80 81 78 94 94 88 87 87 82 93 93 86 86 87 82 81 82 78 97 97 91 100 100 94 89 89 86 103 103 97 116 115 108 91 92 89 90 91 87 109 108 102 84 84 80 83 84 80 105 104 98 97 97 92 94 94 87 75 75 71 90 91 86 71 71 68 98 97 92 69 70 67 83 83 78 63 64 61 76 77 73 69 70 67 86 86 79 67 68 64 52 53 49 61 62 58 73 73 69
94 94 90 75 76 73 88 88 83 76 77 73 73 73 69 102 101 94 95 94 88 90 90 85 80 80 77 102 101 94 101 101 96 81 81 78 94 93 87 83 83 78 65 66 63 72 73 68 56 57 54 92 91 85 56 57 54 79 79 73 69 69 65 78 78 73 66 67 63 79 79 75 89 88 82 84 84 78 93 93 87 93 93 87 87 86 80 71 72 68 87 87 80 69 70 66 75 76 71 86 85 80 101 101 94 100 99 92 90 90 84 77 78 74 72 73 69 88 89 85 93 93 88 92 92 86 86 86 82 97 96 91 78 79 75 95 95 88 87 87 84 101 101 95 105 105 98 99 99 94 94 94 90 121 121 114 79 79 76 93 92 87 104 103 98 98 98 91 68 69 65 89 89 83 83 83 79 70 71 67 72 73 69 103 103 97 83 83 79 112 111 104 103 102 96 99 98 91 77 78 73 88 88 83 72 73 69 82 82 78 92 92 85 69 70 66 72 72 67 64 65 61 77 77 73 81 81 76 79 79 75 99 98 92 89 89 84 95 94 88 78 78 73 65 66 63 91 90 83 59 60 57 76 76 72 71 72 68 60 61 57 69 70 67 111 110 103 94 94 90 107 106 100 90 90 86 83 83 80 80 81 77 104 104 98 107 106 99 88 88 84 79 80 76 97 96 90 89 89 84 98 98 94 115 114 107 81 82 78 97 97 93 103 102 97 108 108 102 99 99 95 114 113 106 98 97 91 73 74 70 86 86 82 91 91 86 98 97 91 92 91 86 111 110 103 95 95 90 105 104 98 87 88 83 103 102 96 82 82 77 106 105 99 96 95 89 59 60 57 69 70 66 59 60 56 63 64 59 69 69 64 95 95 88
101 100 94 102 101 95 85 85 81 98 98 91 75 75 72 97 97 91 99 99 92 98 97 91 82 83 79 73 74 70 76 77 74 104 103 97 81 82 78 101 100 94 95 94 88 59 60 57 75 75 70 77 77 71 78 78 73 70 71 67 68 69 65 91 91 85 91 90 84 92 92 87 91 91 86 106 105 98 94 93 87 66 67 64 57 58 55 81 81 75 87 87 81 88 87 81 72 72 68 97 96 90 83 83 79 80 80 76 89 90 85 76 77 74 76 77 74 96 95 90 105 104 98 86 86 82 74 75 72 75 75 72 92 92 87 80 81 78 101 101 96 108 107 101 99 99 94 95 95 92 97 97 93 101 101 97 78 79 76 116 115 108 87 88 83 99 98 92 74 75 72 81 81 76 88 88 82 97 97 91 76 77 73 109 108 101 91 91 87 108 108 102 109 108 102 99 98 92 96 95 89 79 79 75 63 63 60 73 73 68 81 81 75 82 81 75 80 80 74 69 69 66 99 98 91 81 82 77 82 82 77 100 100 93 66 67 63 83 83 77 72 72 68 66 67 64 94 93 87 87 86 81 87 86 80 93 93 86 93 92 86 96 95 88 82 82 78 107 106 100 92 92 88 105 104 98 106 106 99 109 109 102 91 91 86 109 108 101 88 88 83 69 70 66 86 86 81 105 104 97 88 89 84 106 105 99 101 101 96 105 105 99 78 79 76 95 94 89 114 113 107 106 106 99 85 85 80 99 99 93 75 76 73 98 97 90 69 70 67 86 86 81 74 75 71 102 102 96 86 86 83 84 84 80 96 96 90 77 77 73 80 80 75 75 75 71 95 94 88 87 87 81 69 70 65 75 75 70 65 66 62 84 83 77
115 114 107 111 110 103 103 102 96 80 80 75 94 94 88 82 83 79 78 79 76 93 93 88 93 94 89 97 97 92 107 106 100 93 93 87 70 71 67 66 66 62 99 98 91 83 82 76 53 54 51 65 65 61 70 70 66 94 93 87 80 80 76 90 89 83 97 96 90 84 84 80 80 80 75 77 78 74 89 88 82 77 77 72 80 80 75 67 68 64 91 91 84 76 76 71 83 83 78 80 81 77 94 93 87 93 93 87 86 86 82 93 93 88 78 78 74 106 105 99 92 91 86 78 78 74 94 94 88 104 103 96 76 77 73 81 82 78 103 102 97 101 101 95 108 107 102 92 92 87 109 108 102 85 86 82 93 93 89 85 85 82 66 67 64 96 95 90 81 81 76 75 75 71 86 86 81 94 93 88 69 70 67 93 93 88 109 108 101 81 82 79 98 98 91 91 90 85 99 98 92 63 64 60 55 56 53 68 68 64 90 90 83 74 74 69 69 70 66 79 79 75 82 82 78 92 91 85 96 95 90 84 84 80 85 85 79 86 86 80 70 70 67 74 74 69 78 78 73 68 69 65 102 101 94 68 69 65 67 67 64 87 88 83 81 81 77 82 82 78 75 76 73 86 87 83 99 99 93 75 76 72 69 70 67 83 84 80 81 82 78 90 89 84 108 107 100 95 94 89 105 104 98 90 90 86 81 82 78 122 121 114 87 88 84 91 91 87 115 114 107 103 102 95 82 83 79 79 79 76 95 94 89 73 74 70 88 88 83 97 97 92 97 97 91 99 99 93 97 97 91 96 95 90 74 75 71 106 105 98 91 90 85 65 65 61 86 85 80 82 82 76 73 73 68 87 86 79 65 66 62 66 67 63
77 78 74 90 90 85 99 98 92 69 70 66 92 92 87 80 80 76 111 110 104 117 116 109 98 98 93 81 81 77 96 96 89 81 81 77 78 78 73 61 62 58 87 87 81 90 89 82 66 67 64 79 78 73 84 83 77 75 75 71 99 98 92 95 95 89 74 75 71 101 100 94 85 85 80 62 63 59 89 89 83 99 98 91 91 90 84 83 83 77 75 75 70 70 71 68 91 91 84 90 90 85 92 91 85 82 82 79 105 104 98 106 105 98 100 99 93 66 67 64 106 105 98 97 97 91 74 75 71 82 82 77 82 83 79 103 102 97 115 114 107 93 93 89 102 103 98 115 114 108 104 104 98 96 96 92 92 92 87 68 69 66 90 91 86 92 91 86 89 90 85 97 97 91 102 102 96 103 102 96 98 98 93 88 87 82 92 92 87 105 104 98 98 98 92 90 90 85 75 75 70 75 76 71 86 86 80 72 73 69 87 87 81 76 76 70 100 99 92 79 79 75 100 100 93 81 81 75 91 90 85 81 82 77 59 60 57 78 78 74 86 86 80 61 62 58 87 87 81 97 96 89 89 88 83 64 65 61 97 97 91 81 81 77 83 84 80 103 103 98 103 102 96 86 86 82 86 87 83 105 104 97 102 101 95 85 86 81 102 102 95 106 105 98 89 89 85 86 87 83 90 91 87 120 120 113 100 100 94 84 85 82 103 103 99 83 84 80 92 92 86 77 77 73 68 69 66 81 81 76 111 110 103 75 76 72 89 89 85 101 100 94 97 97 90 110 109 103 74 75 71 104 104 98 64 65 62 96 96 90 73 73 68 92 91 85 86 85 78 75 75 70 76 76 71 90 89 83 82 82 76 77 77 72
79 80 77 77 77 73 73 74 71 88 88 82 95 95 90 96 96 90 107 106 99 106 105 99 101 101 95 87 88 84 82 82 77 68 69 65 80 80 75 93 92 87 88 87 81 86 85 79 72 72 68 96 96 90 77 78 74 87 86 80 97 96 90 67 68 65 82 82 77 105 104 97 74 74 70 88 88 82 88 88 82 63 63 60 61 61 57 100 99 92 86 86 81 94 94 88 100 100 93 81 81 76 73 74 70 73 74 70 103 102 95 84 84 79 87 87 83 75 75 71 92 92 86 91 91 85 80 80 75 82 82 77 105 104 98 93 93 88 79 80 77 115 114 108 118 117 111 116 116 110 107 106 100 112 111 104 101 101 95 107 106 100 89 88 83 82 82 77 83 83 79 87 87 82 82 83 79 88 88 83 107 107 101 74 75 72 100 99 92 80 80 77 100 99 93 84 84 79 70 70 66 64 65 62 60 61 57 80 80 74 81 80 75 79 79 74 74 74 71 89 88 82 62 63 60 81 81 75 81 81 77 66 66 62 82 82 77 84 84 78 69 69 65 85 85 79 97 96 90 61 62 58 98 97 90 82 82 77 100 99 92 101 101 95 85 85 81 101 101 95 89 89 85 75 75 71 99 98 93 78 78 73 99 99 93 90 90 86 106 105 99 103 102 97 103 102 97 87 87 82 84 84 81 96 96 91 111 110 104 92 92 87 99 99 95 82 82 78 102 102 95 91 91 87 74 75 71 87 87 82 71 72 68 102 101 95 86 86 81 75 75 72 110 109 103 93 93 88 110 110 103 84 84 80 96 95 89 94 94 88 61 62 59 89 88 81 72 73 69 87 86 79 79 79 74 90 89 83 78 79 75 80 80 75
85 85 82 78 78 74 84 84 80 93 93 87 108 107 101 110 109 103 90 90 86 99 99 94 100 100 94 101 100 93 81 81 77 82 82 78 71 72 69 91 90 83 71 71 67 63 64 60 76 77 73 84 83 78 91 91 85 100 99 92 95 94 89 81 81 75 83 83 78 62 63 59 87 87 81 91 90 83 76 76 72 77 77 71 84 84 79 79 79 74 72 73 69 67 68 64 83 83 79 93 93 88 91 90 85 107 106 100 107 106 100 100 99 92 96 96 91 95 94 88 93 92 86 85 85 81 85 86 81 109 109 102 88 88 84 94 95 90 109 108 102 109 108 102 103 102 96 98 98 92 106 106 101 91 91 87 92 92 87 84 84 80 80 81 76 82 83 79 101 100 94 101 101 95 90 90 86 81 82 78 92 93 88 110 109 103 86 86 81 80 81 78 93 92 86 80 80 75 60 60 57 58 59 56 64 64 61 84 84 78 68 69 65 86 86 81 91 90 84 70 71 67 77 77 72 69 70 66 76 76 72 71 71 67 70 70 66 76 76 72 95 94 87 91 90 83 65 66 63 94 93 87 83 83 78 88 88 84 73 74 70 88 88 84 86 86 82 101 101 96 87 87 83 108 107 101 76 76 72 72 72 68 76 77 74 68 69 65 87 87 82 93 93 88 102 102 96 114 113 107 105 105 99 92 92 89 89 90 87 110 109 103 83 84 80 107 106 100 85 85 80 93 93 88 99 98 92 73 74 70 71 72 69 85 85 80 88 88 84 78 79 75 101 100 93 97 97 91 101 100 93 103 102 95 105 104 97 66 66 62 80 80 76 73 73 69 69 70 65 70 71 68 89 88 82 75 75 70 96 96 90 71 71 68
67 68 65 75 76 72 100 99 93 100 100 95 94 94 89 90 90 85 104 104 99 113 112 105 106 105 100 103 102 96 100 99 93 68 68 65 67 68 65 96 95 89 79 79 75 93 92 85 72 72 68 90 90 84 72 73 69 76 76 72 80 81 77 100 99 92 62 62 59 82 82 77 84 84 79 71 71 66 76 76 71 61 62 59 70 70 65 92 91 84 75 75 70 80 81 76 85 85 80 75 75 71 70 70 67 67 68 64 62 63 60 84 84 79 76 77 72 83 83 79 79 79 74 91 91 86 109 108 101 110 109 103 87 87 83 90 90 85 112 111 105 100 100 95 108 107 101 105 105 99 102 102 96 99 98 92 77 78 74 98 98 93 85 85 80 104 104 97 113 112 106 93 94 89 80 81 78 102 102 97 99 99 94 98 97 91 103 102 95 90 90 84 71 72 68 100 99 92 79 79 75 84 84 78 77 77 73 93 92 86 73 74 69 70 71 68 92 91 85 69 70 67 91 91 85 67 67 64 78 78 73 85 85 80 78 78 73 93 92 86 57 58 54 58 59 55 83 83 78 85 85 80 87 86 80 95 95 90 93 93 87 87 87 83 74 75 71 102 101 95 89 90 85 96 96 89 91 91 85 79 79 75 105 104 97 101 100 93 85 85 81 92 92 87 80 81 77 96 96 91 117 117 110 98 99 94 106 106 101 90 90 87 109 108 102 96 96 90 101 101 95 83 83 78 100 99 93 99 98 92 106 106 100 107 106 99 94 93 88 99 99 94 93 93 89 81 82 78 69 70 66 95 95 89 87 87 81 99 98 92 78 77 72 74 74 70 72 72 68 97 96 90 82 82 77 81 81 75 82 83 79 91 91 85
71 72 68 99 99 94 103 102 96 108 108 102 76 77 74 97 97 91 103 103 97 90 91 87 114 113 106 98 98 93 71 72 69 79 80 76 84 84 79 75 76 72 101 100 93 83 83 77 79 79 74 84 85 80 74 75 71 79 79 75 79 79 75 98 97 91 75 75 71 83 82 77 90 89 83 63 64 61 75 75 70 59 59 56 61 62 59 88 88 81 91 91 84 72 72 68 85 85 81 98 97 91 84 84 79 105 105 98 76 77 72 81 81 77 75 75 71 82 82 77 84 84 79 95 95 89 84 85 81 86 86 82 100 99 93 87 88 84 104 103 98 98 98 93 91 92 88 86 87 83 101 100 94 77 77 73 77 78 75 71 71 68 107 106 99 79 80 77 93 93 88 107 107 100 113 112 106 80 81 77 108 107 101 90 91 87 85 85 81 75 76 73 79 79 74 82 82 78 70 70 66 72 73 68 93 92 85 63 64 60 84 84 80 82 82 77 95 94 88 81 81 75 77 77 73 92 91 85 100 99 92 82 82 75 75 75 71 66 66 61 71 71 67 67 68 64 73 73 69 79 79 74 74 75 70 88 87 82 91 90 85 91 91 86 83 83 79 74 75 72 69 69 66 84 83 78 93 93 86 84 84 78 94 94 88 81 82 78 89 89 84 81 82 79 73 74 71 121 120 113 122 121 114 102 101 95 93 93 87 89 89 84 82 83 79 85 85 80 77 77 73 98 97 90 92 92 86 102 101 96 114 113 106 113 113 107 92 92 87 110 110 103 106 105 99 99 98 92 70 70 67 100 99 93 66 67 64 93 92 85 64 64 61 77 76 71 94 94 87 83 83 78 97 96 90 98 97 90 69 70 67 89 89 84
78 79 74 99 98 92 89 89 85 106 106 100 109 109 103 106 105 99 101 101 95 85 85 81 93 93 88 90 90 85 87 87 82 106 106 99 96 95 89 72 73 69 85 84 79 104 104 97 73 74 70 103 102 96 88 88 84 90 90 85 65 66 63 80 81 77 81 81 75 72 73 69 94 93 86 79 79 74 55 56 53 80 79 74 91 90 84 93 92 86 71 72 69 98 97 91 71 72 68 84 84 80 68 69 66 82 82 77 68 69 66 69 70 66 84 84 79 82 82 77 104 103 96 99 98 92 99 98 91 111 110 103 99 99 92 88 88 85 90 90 86 97 97 93 90 90 86 104 103 96 100 100 94 80 80 76 69 70 67 92 92 87 96 96 91 78 79 75 93 93 89 89 90 86 86 87 83 78 79 76 80 80 77 100 100 95 94 94 88 89 89 84 80 80 75 90 90 83 70 71 68 86 86 81 99 98 91 87 87 82 71 71 68 88 88 83 86 87 82 92 92 86 74 75 71 95 94 88 77 77 73 62 63 59 67 67 63 77 77 71 65 65 62 67 67 63 82 82 76 90 89 83 70 71 68 62 63 60 77 78 74 84 83 78 64 65 61 89 89 84 88 88 81 70 71 68 91 90 83 93 93 87 78 78 73 88 88 82 74 75 71 75 75 72 105 104 98 98 98 94 88 89 85 97 97 92 90 91 87 92 91 86 85 85 80 89 89 83 99 98 92 84 84 80 99 99 92 94 95 90 100 100 94 93 93 89 88 89 84 120 119 112 78 79 75 70 71 68 98 97 91 81 81 76 71 71 68 83 83 78 94 93 88 70 71 67 93 93 87 104 104 97 94 93 87 103 102 95 99 98 92 96 96 89
89 89 83 109 108 101 96 96 92 85 86 82 113 112 105 116 115 108 103 103 98 108 107 101 102 102 96 99 99 93 81 81 76 80 81 77 72 73 69 99 98 92 101 100 93 72 72 69 89 90 85 81 82 78 75 76 72 95 95 90 103 102 96 86 86 80 76 77 73 88 88 83 64 64 60 83 83 77 66 67 63 61 62 58 97 96 90 87 86 80 80 80 76 77 77 73 88 88 83 62 63 60 66 67 63 67 67 64 77 77 72 87 87 81 77 76 71 65 65 62 66 67 63 85 85 80 91 91 87 97 96 90 100 100 94 94 94 88 111 110 104 99 99 93 99 99 94 93 92 87 83 83 79 82 82 78 79 80 76 94 94 88 98 97 92 108 107 101 108 107 101 87 87 83 87 88 83 113 113 107 103 103 98 100 99 93 108 107 100 101 100 94 101 100 93 94 94 88 103 103 96 74 74 70 96 96 91 107 106 99 113 112 105 100 100 94 81 81 76 100 99 92 74 75 71 72 72 68 93 92 85 64 65 61 81 81 75 56 56 53 82 82 76 92 92 86 94 93 86 86 86 81 82 82 77 95 95 89 73 73 69 76 76 72 69 70 66 86 85 80 86 86 80 80 80 75 89 88 82 86 86 81 73 73 69 94 94 89 109 108 101 78 78 75 70 71 68 90 90 85 82 83 80 84 84 79 105 104 98 80 81 77 89 89 84 70 71 67 100 99 92 98 97 91 97 97 91 88 88 85 112 111 104 83 84 80 87 87 84 112 112 106 96 96 91 91 91 87 98 98 93 74 75 70 79 80 76 80 80 75 77 77 74 82 82 77 105 104 98 84 84 80 96 96 91 85 85 81 72 72 68 87 86 81
91 91 86 93 93 89 111 110 104 106 106 100 101 101 95 102 102 97 108 108 101 94 94 90 99 99 94 95 95 90 93 93 87 107 106 100 99 99 94 101 100 94 105 105 99 92 93 89 96 96 90 83 83 79 101 100 93 92 91 85 108 107 100 91 91 86 82 82 77 79 79 75 77 78 74 77 77 72 62 63 60 82 82 77 77 77 73 92 91 84 96 96 90 93 92 86 79 79 75 67 68 63 62 63 59 89 88 82 75 75 69 69 69 64 90 89 83 85 85 79 68 69 65 92 92 86 92 91 86 91 91 86 85 85 81 110 109 102 109 108 101 79 79 75 97 96 90 71 72 68 68 68 65 104 103 97 95 94 89 96 96 92 86 86 81 113 112 106 102 101 96 99 100 95 98 98 94 89 90 86 118 118 111 93 93 88 85 86 82 109 108 102 67 68 64 104 103 97 86 87 82 101 101 95 84 84 80 107 106 100 85 85 80 111 110 103 79 79 75 99 98 92 101 100 94 93 93 87 69 70 66 88 88 82 79 79 73 80 80 75 88 87 80 96 95 89 64 64 61 95 95 89 100 100 94 100 99 93 79 79 74 71 72 68 70 70 66 61 62 58 92 91 85 85 85 78 80 80 74 78 77 72 74 75 72 72 73 68 73 74 71 110 109 102 85 85 80 73 74 71 99 99 93 102 102 96 80 80 75 77 77 73 93 93 87 80 80 77 94 94 88 92 92 88 94 94 89 92 92 89 100 100 96 87 88 84 109 109 103 104 104 98 106 105 99 87 87 84 92 92 87 91 91 85 103 102 96 90 90 84 75 75 72 93 92 86 82 83 79 105 104 99 83 84 80 82 82 78 108 107 100 92 92 87
102 101 95 86 86 82 92 92 88 104 104 98 112 112 105 90 90 85 77 77 74 114 113 106 89 88 83 98 98 92 85 85 82 75 76 73 79 80 76 87 87 83 100 100 94 115 114 107 102 102 97 118 117 110 94 94 89 96 96 90 96 95 89 95 94 87 89 89 83 72 72 68 77 78 73 62 63 60 60 61 58 77 78 74 74 74 71 94 94 89 102 101 94 90 90 85 63 63 60 97 96 90 67 68 64 67 68 63 65 65 61 68 68 64 93 92 85 61 62 59 96 95 88 108 107 100 71 71 68 88 88 83 81 82 78 102 101 94 109 108 101 106 106 99 86 86 80 82 81 76 88 88 83 72 73 69 88 88 84 74 75 71 70 71 68 85 86 81 107 106 100 105 104 98 106 106 99 92 92 88 88 88 83 95 95 90 89 89 85 84 85 81 70 71 68 96 96 90 103 102 95 81 82 78 74 75 72 93 94 90 101 100 95 82 83 78 100 99 94 98 98 92 93 92 86 72 73 70 80 80 76 93 92 85 76 76 72 83 83 78 80 80 74 78 79 75 98 98 91 91 91 86 81 82 78 89 89 84 99 98 92 87 87 80 80 80 74 88 88 81 80 80 75 54 55 52 67 68 64 80 80 75 80 80 75 62 63 59 79 80 76 108 107 100 94 94 88 87 87 83 98 98 91 97 96 90 79 80 76 96 95 88 75 75 71 71 72 68 97 97 91 85 86 81 86 86 83 92 93 89 122 121 114 115 114 107 104 104 99 95 95 90 103 102 96 74 75 71 81 82 78 90 90 85 92 92 88 108 108 101 84 84 80 95 95 89 100 99 93 93 93 88 89 89 85 82 83 79 73 74 71 97 96 90
98 97 91 105 105 99 90 90 86 116 115 108 89 89 85 103 103 98 94 94 89 89 89 85 83 84 80 83 83 80 86 86 81 92 92 87 82 83 80 98 97 92 96 96 90 112 112 106 81 82 78 84 84 80 107 106 100 89 89 84 85 85 80 90 90 84 87 87 81 69 69 65 74 74 69 92 91 85 88 87 82 74 75 72 105 104 98 88 88 84 94 93 87 80 80 77 69 70 66 89 88 82 63 63 59 74 74 69 75 74 68 85 85 78 53 54 51 92 92 85 72 73 70 90 90 83 85 85 80 105 104 97 91 91 85 74 75 71 89 89 84 78 78 73 91 90 83 77 77 73 90 90 84 84 84 78 88 88 83 80 80 75 78 79 75 97 97 91 110 109 102 117 116 109 105 104 98 85 85 80 88 89 85 103 102 96 90 90 84 88 89 84 109 108 101 82 83 79 103 102 96 73 74 71 89 89 86 85 85 81 105 105 99 90 90 85 109 108 101 85 85 80 103 103 96 68 69 66 98 98 92 69 69 65 96 95 88 99 98 91 68 69 66 103 102 96 72 73 70 83 84 80 93 93 87 63 64 60 75 76 71 71 71 66 79 79 73 58 58 55 71 72 67 76 76 72 86 86 81 72 73 69 68 68 64 91 91 85 101 100 93 101 101 95 76 76 72 100 99 92 95 95 89 99 98 91 81 81 77 96 95 88 65 66 62 101 101 95 81 81 77 110 110 103 80 81 78 79 80 76 86 87 83 82 83 80 93 94 90 109 108 101 97 97 92 82 83 80 78 79 75 84 84 80 82 83 79 97 97 92 90 90 86 107 107 101 107 107 102 120 119 112 111 110 103 84 85 81 82 82 78 91 90 85
100 99 93 92 92 87 79 80 77 104 103 97 101 100 94 88 88 83 84 84 80 88 88 83 88 88 82 80 81 78 94 93 87 102 102 96 79 79 76 95 95 91 108 108 102 118 118 111 102 102 97 107 107 101 82 83 79 99 99 93 95 95 90 93 93 87 91 90 84 68 69 66 75 76 72 80 81 77 106 105 98 102 101 95 102 101 95 109 109 102 78 78 73 69 70 67 83 83 77 84 83 77 74 74 69 65 66 62 83 82 76 68 69 65 88 87 81 91 91 85 92 91 86 63 63 60 89 88 83 84 84 78 91 91 85 82 82 78 74 74 69 59 60 56 64 65 60 64 65 61 82 82 76 81 81 76 77 78 74 93 92 86 75 75 72 106 105 100 88 88 85 89 89 84 112 111 104 75 76 72 90 90 85 105 104 98 98 97 91 85 86 82 104 103 96 112 111 105 106 105 100 105 105 100 108 108 101 79 80 77 113 113 106 94 94 88 84 84 79 82 83 80 73 74 71 87 86 81 88 88 83 92 92 87 79 80 76 91 90 84 88 88 83 103 102 97 102 102 95 65 66 63 72 73 70 78 78 74 61 61 58 70 70 66 53 54 51 95 94 87 90 89 82 67 68 65 72 73 68 76 76 71 81 81 77 78 79 75 83 84 79 100 99 92 91 90 84 85 84 78 88 88 82 91 90 84 88 88 82 98 97 90 76 77 72 99 99 93 96 96 90 95 95 89 83 84 81 94 94 90 103 103 96 99 99 94 69 70 67 93 93 87 66 67 64 108 107 100 77 78 74 95 94 89 104 103 96 103 102 96 98 98 93 88 89 86 104 104 99 111 111 104 100 100 94 87 87 83 89 89 84 100 100 94
106 105 98 95 95 89 82 83 80 89 89 85 106 106 99 107 106 100 92 92 87 90 90 84 87 87 81 87 87 83 94 94 89 86 87 82 83 83 79 107 106 100 84 85 81 103 103 98 89 90 86 119 118 111 94 94 90 95 94 88 73 74 71 87 87 82 82 83 79 97 97 92 103 102 96 83 83 79 81 82 78 91 91 86 82 83 79 71 72 68 97 97 91 95 95 89 71 71 67 71 71 67 93 92 85 61 61 57 84 83 78 80 80 76 84 84 78 87 87 82 74 74 69 96 96 89 89 89 84 98 98 91 75 75 72 80 80 75 64 65 62 98 97 90 76 76 71 63 64 60 83 83 78 80 80 76 83 83 78 103 102 96 106 105 98 106 105 100 78 79 76 103 102 95 99 98 92 89 89 84 99 99 93 93 93 86 94 94 88 85 86 81 77 77 74 107 106 101 108 107 101 83 84 80 107 107 102 107 107 102 95 96 91 99 99 94 79 80 76 93 93 88 92 92 86 100 99 93 89 88 83 83 83 79 89 89 84 83 84 80 95 94 88 95 95 90 101 101 94 77 78 74 91 91 85 77 77 72 81 81 77 75 75 69 81 81 75 82 81 75 86 85 78 76 77 72 91 90 84 88 88 83 99 99 92 73 74 69 76 76 71 89 89 84 67 68 65 72 72 67 80 80 74 88 87 80 77 78 73 88 88 82 74 74 70 104 103 96 99 98 91 90 90 85 72 73 70 91 91 86 106 105 99 96 96 90 103 102 95 99 98 91 98 98 92 72 73 69 96 96 91 112 111 104 85 85 81 103 102 96 101 101 95 114 113 107 86 87 83 120 119 112 87 87 83 114 113 106 93 93 89 91 90 85
96 95 89 78 78 74 101 100 93 77 77 73 79 79 76 86 85 80 77 77 73 66 67 63 106 105 99 79 79 75 70 71 67 83 83 78 108 107 101 111 110 103 99 98 93 92 93 89 104 104 99 82 83 80 116 115 108 83 84 80 73 74 71 91 91 85 80 80 76 98 98 92 83 84 80 103 103 98 102 101 95 110 109 104 110 109 102 100 99 93 92 92 87 101 100 93 89 89 84 94 94 88 90 90 83 71 71 67 100 99 93 90 90 84 72 72 69 97 96 90 71 72 69 89 88 82 96 96 90 99 99 92 90 90 83 100 99 92 56 57 53 72 72 68 70 70 65 78 78 73 62 62 59 92 92 86 88 87 81 88 88 83 75 76 72 94 94 89 85 85 80 83 84 80 100 99 93 79 79 74 84 84 79 108 107 100 86 86 81 106 105 98 88 88 84 116 115 108 85 86 81 109 108 103 94 95 91 107 106 100 110 110 103 86 87 83 79 80 77 91 91 85 74 74 71 98 98 92 79 80 76 101 100 94 99 99 94 74 75 72 108 108 102 94 94 90 83 84 80 95 95 89 90 90 84 97 97 91 73 73 69 57 58 54 93 92 86 71 71 67 92 92 86 67 68 64 87 87 82 85 85 80 94 93 87 84 84 78 90 90 83 67 67 64 71 72 68 67 68 63 88 87 80 76 76 70 70 70 66 93 93 86 71 72 69 87 87 82 87 87 82 81 82 78 100 99 93 91 91 85 100 99 92 68 69 66 78 78 73 95 95 89 101 100 93 73 74 71 76 77 73 107 107 100 86 87 84 109 109 103 77 78 74 98 98 92 122 121 114 99 99 94 104 104 98 101 101 95 91 90 85 102 102 96
88 88 83 85 85 79 78 79 74 100 99 93 86 86 80 91 90 84 80 80 75 82 82 78 95 95 88 84 84 80 79 80 75 84 84 79 109 109 103 87 87 83 109 108 102 105 104 98 101 100 95 104 103 97 70 71 68 107 106 99 79 80 76 101 100 93 90 90 85 99 99 93 93 93 88 110 110 103 76 77 74 98 98 93 117 116 109 93 93 88 90 90 84 88 88 83 79 80 75 95 95 89 80 80 74 81 81 77 98 97 90 96 96 90 97 97 91 78 78 74 72 72 69 63 64 60 89 88 82 82 82 78 67 67 64 79 79 74 84 83 77 69 70 66 56 57 53 85 84 78 97 96 90 84 83 78 71 72 69 88 88 84 83 83 79 96 95 89 100 99 93 72 73 70 77 77 72 86 86 80 88 88 82 85 85 80 88 87 82 76 76 72 91 91 87 103 102 96 86 86 82 108 107 101 103 103 98 96 96 91 111 111 104 73 74 70 90 90 85 71 72 69 84 84 80 81 82 77 88 88 83 97 97 93 113 112 105 113 112 106 95 95 90 109 109 103 107 107 101 79 79 75 65 66 63 83 83 78 61 61 58 79 79 74 80 80 75 103 102 96 71 72 68 101 100 93 74 75 71 78 79 75 75 76 72 75 76 73 96 95 89 68 68 64 66 67 63 86 85 80 72 72 68 87 86 80 88 87 80 71 71 68 76 77 72 63 63 60 89 88 83 87 87 83 66 67 64 95 94 88 102 101 95 72 72 68 101 101 94 89 89 83 81 81 77 77 77 73 71 71 68 71 72 68 99 99 93 106 105 100 113 112 105 105 105 100 83 84 80 101 101 95 113 112 105 107 107 100 80 81 78 105 104 98
92 91 85 81 81 77 69 70 66 75 75 70 73 73 69 83 83 77 81 81 76 71 71 67 78 79 74 96 95 89 71 71 68 105 104 97 102 102 97 93 94 89 108 107 101 102 101 95 109 108 101 72 73 70 92 91 85 88 88 83 95 94 88 86 87 83 106 105 99 102 102 97 91 91 86 88 89 85 107 107 101 90 90 86 95 95 90 74 75 72 85 86 82 66 67 64 98 97 91 93 93 87 98 98 91 89 89 84 73 74 71 94 94 89 97 97 91 84 85 80 81 82 77 79 79 75 102 101 95 97 96 89 66 67 64 66 67 63 87 86 80 94 93 86 68 69 66 71 71 66 77 77 73 71 72 68 80 80 75 93 93 86 83 83 78 85 84 79 66 67 63 67 67 64 67 67 64 82 81 75 79 79 73 73 73 68 77 77 72 88 88 83 107 107 100 86 87 83 101 100 95 89 89 85 89 89 85 104 103 97 98 98 92 104 104 98 108 107 101 73 74 71 70 71 68 73 74 71 106 105 98 86 86 82 92 93 89 108 107 101 118 117 110 111 111 104 94 94 89 90 90 84 86 85 80 82 83 78 85 84 79 78 79 74 91 90 84 72 72 68 91 91 86 90 90 84 80 80 76 84 84 79 91 91 86 74 75 70 68 69 65 93 92 86 93 92 86 59 60 56 72 72 67 77 77 71 75 75 71 63 64 61 62 63 60 85 85 80 82 82 77 94 94 88 82 82 77 93 92 85 88 88 83 76 76 71 85 85 80 85 84 78 89 88 83 88 88 83 89 89 83 89 89 85 107 106 99 92 92 87 116 115 108 110 109 102 107 107 101 78 79 76 78 79 76 103 103 97 95 94 88 93 93 88
69 70 66 95 94 88 62 62 59 61 62 59 89 88 82 81 81 76 97 96 89 58 59 56 76 76 73 100 100 93 87 87 82 97 96 90 78 78 75 104 103 97 99 98 93 80 81 77 91 91 86 71 72 68 93 92 86 99 99 93 82 82 78 100 99 94 88 88 83 74 75 72 99 99 93 84 85 81 113 112 106 91 92 88 99 99 95 105 105 99 85 85 81 101 101 94 79 79 75 90 90 85 104 104 97 97 96 91 106 106 100 80 81 77 79 80 76 75 76 73 94 93 87 79 80 75 91 91 85 91 90 84 86 85 79 89 89 82 81 81 74 66 67 62 63 64 60 65 66 62 84 84 80 82 82 78 88 88 82 82 83 79 82 82 77 85 85 79 68 69 65 77 77 72 86 85 79 76 76 71 92 92 86 91 90 83 77 77 73 104 103 96 89 89 84 91 91 87 84 84 81 71 72 69 107 106 100 75 76 72 99 99 93 99 99 93 106 105 99 72 72 69 90 90 86 105 104 98 95 95 91 79 80 77 93 93 90 104 104 98 110 109 102 81 82 79 88 89 85 92 92 87 103 102 95 78 78 73 76 77 74 80 80 75 83 84 80 76 77 73 80 81 77 89 89 83 79 80 76 85 85 81 91 91 86 74 75 70 72 73 68 93 92 85 83 83 77 68 68 63 72 72 68 86 86 80 68 69 65 89 89 83 68 69 65 65 66 63 79 80 76 86 86 81 78 78 73 74 74 71 83 83 78 56 57 54 81 81 75 85 85 79 78 78 74 75 76 72 66 66 63 103 102 96 101 101 94 90 90 85 84 84 80 90 91 87 111 111 104 75 76 73 93 93 88 81 82 77 90 90 86 102 102 96
100 99 93 91 90 84 83 82 77 69 70 66 69 69 64 88 87 81 71 71 67 60 61 58 74 75 72 90 89 84 86 86 81 95 94 88 86 86 81 87 87 82 97 97 91 82 83 78 88 88 84 86 87 82 73 73 70 87 88 83 95 95 89 92 92 87 88 88 83 113 112 106 82 83 80 98 98 93 92 92 88 110 109 103 86 86 82 84 84 81 90 89 84 100 99 93 96 95 89 82 82 78 97 97 92 85 85 81 103 103 96 101 100 94 92 93 88 105 104 98 79 80 75 105 104 97 84 84 79 67 68 65 84 84 79 79 79 73 84 84 78 78 78 72 90 90 83 99 98 92 74 75 72 94 93 87 102 102 95 82 82 77 84 84 78 84 84 78 91 91 84 77 77 71 99 98 91 70 70 65 80 80 75 93 92 86 91 90 85 101 100 93 85 85 80 85 85 80 99 99 93 93 93 88 84 84 80 72 73 69 91 91 86 65 66 63 95 95 90 98 98 92 96 96 91 104 103 96 99 99 94 80 81 78 110 110 103 88 89 84 107 107 101 117 116 109 80 81 77 81 81 77 90 90 85 92 91 86 93 93 87 91 91 86 100 99 93 91 91 86 103 102 96 88 88 83 82 82 78 84 84 80 96 96 90 94 93 86 79 79 74 74 74 69 92 91 85 72 72 67 55 56 53 70 71 67 69 70 65 70 71 67 69 69 65 77 77 73 82 83 79 86 86 81 84 84 79 93 93 86 93 92 85 86 85 78 77 77 72 88 87 81 89 88 83 79 80 75 95 95 89 80 80 76 88 89 85 111 111 104 97 97 91 90 91 86 88 88 82 82 82 78 88 88 84 91 91 86 111 110 103 102 102 95
70 71 66 64 64 60 65 66 62 67 68 63 80 80 73 85 84 78 68 69 65 68 69 66 82 82 78 72 73 70 105 105 98 95 95 90 86 86 82 71 72 69 104 103 96 78 78 73 71 71 68 71 72 69 76 77 73 76 77 73 80 81 78 114 113 107 87 87 82 106 105 99 103 103 97 88 88 84 110 110 104 107 107 101 110 109 103 78 79 76 99 98 92 82 83 78 101 100 95 76 77 73 80 81 77 87 87 82 110 109 102 101 101 96 106 105 98 94 94 90 104 103 97 87 87 82 71 71 67 75 75 71 85 85 80 73 73 68 93 93 87 69 70 66 90 89 84 80 81 77 84 84 79 71 71 67 100 99 93 80 81 76 97 96 90 67 68 63 91 90 83 62 63 60 69 69 64 84 84 79 74 74 68 79 79 74 98 97 91 82 82 78 107 106 100 75 76 73 108 107 100 102 102 95 96 96 89 91 90 84 68 68 65 76 77 73 95 95 90 101 100 93 85 85 82 96 96 90 83 84 81 100 100 96 84 85 82 92 93 89 113 112 105 96 96 91 92 93 88 97 97 92 92 92 86 86 86 81 94 94 89 79 80 76 93 94 89 86 86 83 106 105 99 77 78 74 98 97 91 94 94 88 65 66 63 94 94 87 76 76 73 89 88 82 64 65 61 97 96 89 65 66 63 75 75 71 99 98 92 95 94 87 99 99 93 85 85 80 91 90 85 70 71 67 75 75 71 82 82 76 77 77 72 88 87 81 57 58 54 72 72 68 73 74 70 96 96 90 73 74 70 76 77 74 104 104 97 95 95 90 85 85 80 88 88 82 99 98 91 79 79 74 92 92 87 102 101 95 93 93 87 99 99 93
82 82 77 70 70 66 91 91 84 63 64 61 73 73 69 85 84 78 68 68 65 76 76 72 69 69 66 93 93 88 85 85 81 107 107 100 83 83 79 80 80 76 80 80 76 66 67 64 82 82 77 104 103 96 86 86 82 93 92 86 93 93 88 81 81 78 84 85 82 78 79 75 88 88 84 98 98 94 98 97 92 100 100 95 77 78 74 108 108 101 80 81 77 82 83 78 107 107 101 93 93 88 74 75 71 99 99 93 118 117 110 108 107 100 91 92 87 93 93 89 109 109 102 86 86 82 92 91 85 86 85 79 92 92 86 92 92 85 88 87 81 87 87 82 106 105 99 78 78 74 104 103 96 66 67 64 89 88 83 67 68 65 81 81 75 75 75 71 71 71 67 55 56 52 88 87 81 74 74 69 86 85 80 81 81 75 76 77 73 97 96 89 95 95 89 84 85 81 73 74 70 69 70 66 81 82 77 82 81 76 97 96 89 87 87 82 98 97 91 103 102 96 82 83 79 109 109 103 92 93 89 98 98 93 101 100 95 79 80 76 96 96 92 97 96 90 112 111 104 74 75 72 111 110 103 80 81 77 78 79 75 97 97 91 81 81 78 79 80 76 103 103 97 82 82 78 85 85 81 74 75 71 71 72 69 100 100 93 98 97 90 90 90 83 70 71 66 96 95 89 63 64 60 83 83 79 84 84 80 76 77 73 72 73 69 93 93 87 92 92 86 93 92 86 94 93 86 76 76 71 77 77 73 63 63 60 78 78 73 61 62 59 83 83 78 87 87 81 73 73 70 79 80 76 111 110 103 108 107 100 94 94 88 84 84 79 87 87 81 80 80 77 73 74 71 96 95 89 70 71 68 79 80 76
89 88 82 58 59 55 93 92 86 92 91 84 69 69 64 69 70 66 84 83 78 74 75 72 79 79 75 90 90 85 93 93 87 76 77 73 94 93 88 73 74 70 76 76 72 69 70 67 96 96 89 63 64 61 107 107 100 93 93 89 78 79 75 114 113 106 105 105 99 119 118 112 100 100 94 88 89 85 105 104 99 111 110 104 83 84 79 89 89 84 92 92 87 81 82 78 106 106 100 78 79 75 77 78 75 75 76 73 92 92 88 96 95 90 92 92 87 87 87 82 105 104 98 68 69 65 64 65 61 98 97 91 67 68 65 95 95 89 90 89 84 76 77 72 75 76 73 82 82 78 87 86 81 92 92 86 84 84 80 89 88 83 83 82 77 68 68 63 80 80 75 83 82 76 69 70 66 75 75 71 86 85 79 63 64 61 88 88 82 75 76 71 92 91 85 97 96 90 94 94 88 80 81 77 94 93 87 73 74 70 98 97 91 85 85 80 98 97 91 77 78 74 109 108 102 111 110 103 88 89 85 114 113 107 110 109 103 84 85 81 93 93 87 96 96 90 109 108 101 82 83 80 91 91 86 88 88 83 105 104 97 104 104 98 79 80 76 112 112 105 98 98 93 105 104 97 98 98 92 84 84 79 97 96 90 77 77 74 87 87 82 79 79 75 94 93 87 66 67 64 90 90 84 93 93 87 70 71 68 81 81 77 68 69 66 103 102 95 72 72 68 72 72 67 65 66 62 92 92 85 69 70 66 98 97 90 66 66 62 74 74 69 87 86 81 76 76 73 102 102 96 80 80 76 110 109 102 102 101 95 80 80 75 88 88 82 105 104 97 61 62 59 99 99 92 97 96 90 78 79 75 81 82 78
73 73 68 85 84 77 60 60 57 59 60 56 98 97 90 78 79 74 85 85 79 78 79 75 75 75 71 77 78 73 85 85 80 86 86 81 88 88 83 89 88 82 79 80 75 71 71 67 90 89 82 88 88 82 77 77 74 78 79 75 86 86 82 99 98 92 108 108 102 94 95 90 119 118 111 113 112 106 92 92 87 93 92 87 67 68 65 70 71 68 86 86 81 101 101 95 95 95 89 99 98 93 110 110 104 105 105 100 92 93 89 104 104 97 108 107 101 79 79 75 96 96 89 72 72 68 83 83 78 90 89 83 70 71 67 82 83 78 92 91 86 81 81 77 85 85 81 84 84 79 98 97 90 82 82 78 86 86 81 80 80 75 67 67 64 91 91 84 69 69 65 68 68 64 91 91 85 85 84 79 85 85 79 96 95 89 101 101 94 91 91 86 83 84 80 97 97 90 81 81 77 80 80 75 76 77 72 87 87 81 67 68 64 76 76 73 71 72 69 109 108 101 81 82 78 106 105 99 89 89 85 90 91 87 115 114 108 99 99 94 100 100 94 101 100 94 104 104 97 91 91 86 88 88 83 108 107 100 96 96 92 108 108 102 97 97 93 88 89 85 115 115 108 115 115 108 95 94 89 74 75 71 77 77 74 91 91 86 86 86 80 84 84 78 103 102 95 90 89 83 74 75 72 93 92 86 81 81 75 93 93 88 100 99 92 91 91 85 98 97 91 70 70 65 75 75 70 85 84 78 69 69 64 93 92 86 62 62 59 88 88 83 70 71 68 98 98 92 99 98 92 77 78 74 73 74 70 96 96 89 85 85 80 86 86 81 74 75 71 77 77 73 81 81 77 100 100 94 86 86 82 87 87 82
66 67 64 62 63 59 62 63 60 75 75 71 76 77 73 91 90 83 90 89 84 81 81 76 63 64 61 103 102 96 96 96 90 99 99 92 97 96 90 93 92 86 72 73 69 86 85 79 102 101 94 93 93 88 72 73 69 88 88 83 83 84 81 95 95 90 107 106 100 99 99 93 81 81 77 117 116 109 71 72 69 83 83 80 88 88 83 74 75 71 108 107 101 79 80 77 79 80 76 99 99 94 116 115 109 115 115 108 83 84 81 87 88 84 105 105 99 92 92 87 71 72 69 87 87 83 94 93 87 80 80 76 69 69 66 84 84 80 77 78 74 85 85 80 85 85 80 77 77 74 88 88 82 82 82 77 73 74 70 75 75 71 58 58 55 89 88 81 90 89 83 86 86 79 66 67 64 95 94 88 71 72 68 90 90 85 90 90 85 87 87 82 91 90 84 90 90 84 65 66 63 65 66 62 95 95 89 74 74 69 79 79 75 97 96 91 99 99 93 90 90 86 104 103 97 81 82 78 96 96 91 103 103 97 105 105 99 113 112 105 106 105 98 88 89 84 103 102 96 101 100 95 98 98 93 93 93 89 84 84 80 95 95 89 114 114 107 92 93 89 92 92 87 105 104 97 94 94 89 103 103 96 84 84 79 78 79 74 83 83 78 73 73 70 71 72 68 69 69 66 97 96 89 68 68 65 91 91 85 100 100 94 95 95 89 103 102 95 89 88 82 73 73 68 63 64 61 92 91 85 57 58 55 62 63 59 93 92 86 83 83 78 86 86 81 77 78 73 75 76 73 98 97 92 70 71 67 64 65 61 90 90 84 101 100 93 79 79 75 81 81 77 99 99 93 93 93 89 83 84 81 96 95 90
71 71 66 69 69 64 71 72 67 80 79 73 67 67 63 73 74 70 85 86 81 97 96 91 98 97 91 94 94 87 94 93 87 98 97 91 66 67 64 82 82 78 82 82 76 88 87 82 98 97 91 104 103 96 94 94 88 111 110 104 111 110 104 94 94 89 91 91 86 111 110 103 88 88 83 90 90 85 95 95 90 109 108 102 107 106 99 107 107 101 101 101 95 94 94 90 111 110 105 95 95 91 86 86 83 90 91 87 114 113 106 94 94 89 73 74 70 74 75 71 88 88 82 78 78 73 87 87 82 87 87 82 88 88 83 103 103 96 81 81 77 102 101 95 76 77 74 72 73 69 69 70 66 89 89 83 89 89 83 66 66 62 52 53 49 68 68 63 64 64 60 80 80 75 102 101 95 102 101 95 87 87 82 94 93 87 81 81 78 95 94 87 102 101 94 69 70 67 75 76 72 67 68 64 83 83 78 103 102 96 89 89 83 104 103 97 112 111 104 104 104 98 79 80 77 80 81 77 105 104 98 106 106 100 87 87 82 76 77 74 81 82 77 69 70 67 82 83 80 105 104 97 88 88 84 82 82 78 100 99 94 99 98 93 99 99 93 90 90 85 74 75 72 96 96 89 82 82 77 82 82 76 96 95 88 74 74 69 71 71 67 93 93 87 77 77 73 90 90 85 99 98 92 84 84 79 91 91 85 87 87 82 68 68 64 72 73 69 75 75 71 76 76 71 63 63 60 82 81 75 68 68 65 73 74 70 73 74 69 96 95 89 80 81 76 100 99 92 83 83 78 79 79 75 90 90 83 70 70 66 67 68 64 87 87 82 78 78 73 63 64 60 74 75 71 104 104 98 114 114 107 107 106 101
68 69 65 67 67 64 88 88 81 87 87 81 90 89 83 88 88 83 80 80 77 93 93 87 85 85 81 74 75 72 82 82 77 82 82 77 64 65 61 73 74 70 75 75 70 79 79 74 94 93 86 71 72 69 107 106 99 109 108 102 96 96 92 85 85 81 111 110 103 105 104 98 75 76 73 95 95 89 77 78 74 81 82 78 77 78 74 111 110 104 112 111 105 78 79 76 112 111 104 116 116 109 86 87 82 101 101 96 98 98 93 101 100 94 100 99 93 78 78 74 64 65 62 79 79 75 71 71 67 103 102 95 87 87 82 82 82 77 70 71 67 79 80 76 95 95 89 67 68 64 71 71 67 78 78 73 73 73 69 77 77 72 61 62 59 82 82 77 62 63 59 97 96 90 84 84 79 69 69 66 105 104 97 89 89 83 93 93 87 90 90 84 79 79 75 85 85 79 81 81 76 90 89 83 84 84 79 67 68 64 78 79 75 97 96 91 98 98 93 110 110 104 107 106 100 78 79 75 110 110 103 87 87 83 95 94 89 102 102 96 77 78 74 94 93 87 94 94 89 95 95 90 90 91 87 82 83 80 78 79 75 104 104 99 115 114 107 98 98 92 80 81 78 102 101 95 94 93 86 92 92 86 96 95 88 91 91 84 81 81 76 76 76 72 100 100 93 98 97 90 88 88 84 88 88 83 80 81 76 78 79 74 85 85 79 95 94 87 76 76 71 61 62 59 90 90 83 87 87 80 83 83 76 99 98 92 98 98 91 69 70 67 88 88 82 100 99 93 66 67 63 68 69 65 73 73 68 87 87 81 73 74 70 74 74 70 78 78 74 95 95 89 107 107 100 107 106 100 82 83 79 92 93 88
79 79 73 74 73 68 83 82 76 73 73 69 79 79 75 86 85 79 75 76 71 102 101 95 100 99 92 82 82 77 79 79 75 70 71 67 93 92 86 93 93 87 69 70 66 104 103 96 78 79 75 80 80 76 99 99 94 102 101 95 87 87 83 113 113 106 110 109 103 101 100 94 76 77 73 92 92 87 112 111 104 76 77 74 80 81 78 106 105 99 92 92 87 83 83 80 83 84 80 95 95 90 108 108 102 111 110 104 86 86 81 92 91 86 99 98 92 84 84 79 100 99 93 61 62 59 88 87 82 71 72 69 82 82 78 87 87 82 76 77 73 97 97 90 88 88 83 101 100 94 85 85 80 74 75 71 77 77 72 69 70 66 80 80 74 74 74 69 84 84 77 85 85 80 93 92 86 64 65 62 76 77 72 87 87 83 102 101 94 99 98 91 69 70 67 99 98 91 101 100 94 90 90 85 96 95 89 86 86 81 99 99 94 108 107 101 95 95 89 105 104 98 95 95 90 92 93 88 102 101 96 112 111 105 87 87 83 79 80 75 89 88 83 94 94 88 86 87 82 87 87 82 91 91 87 93 93 88 94 94 90 81 82 78 118 117 110 83 83 79 95 95 90 86 85 80 87 87 82 90 90 84 72 72 68 71 72 68 104 103 96 95 95 89 87 87 83 79 79 75 98 97 92 94 94 89 96 95 89 93 92 86 69 69 65 78 78 72 62 63 59 67 68 64 95 94 88 89 89 84 71 71 67 76 76 72 72 73 70 93 93 87 109 108 101 99 98 91 88 88 83 91 90 84 99 98 92 67 67 64 76 76 72 90 90 85 102 102 96 84 85 80 95 95 89 107 106 101 107 107 101 75 76 73
63 63 59 92 91 85 80 79 74 85 85 79 104 103 96 97 97 90 95 95 89 106 105 99 94 94 88 91 90 84 95 94 87 71 72 68 97 96 90 69 70 66 98 98 92 76 76 72 79 80 76 83 84 81 78 78 75 97 98 93 108 107 101 84 85 82 98 98 92 91 91 86 81 82 78 93 93 88 105 104 98 101 100 94 84 85 81 80 81 77 114 113 107 84 85 81 101 101 96 107 107 101 83 84 80 75 75 71 81 82 78 73 74 69 100 99 92 82 81 76 91 91 84 101 100 94 93 93 86 85 85 79 88 88 82 95 94 89 78 79 76 69 70 67 68 68 65 76 76 71 64 64 60 74 75 70 71 71 66 64 65 62 87 86 80 66 67 63 63 64 60 91 91 84 101 100 94 105 104 98 75 76 72 82 81 76 90 89 84 70 71 67 69 70 67 75 75 71 78 77 72 89 89 83 94 93 87 93 92 86 89 89 83 93 93 89 113 112 105 86 87 83 94 94 90 101 101 95 80 81 77 109 108 101 94 94 89 91 91 85 80 80 76 98 98 91 110 109 102 75 76 73 80 80 77 104 103 97 103 103 97 79 80 77 111 111 104 99 98 92 97 97 91 82 83 78 62 63 60 66 66 63 88 87 81 87 86 80 65 66 63 72 73 70 92 92 86 65 66 63 62 63 60 74 75 71 98 97 91 82 82 76 73 73 68 70 70 65 64 65 62 56 57 54 85 84 79 94 93 86 79 79 73 67 68 65 91 91 85 101 100 93 79 79 75 77 78 74 68 69 65 77 77 72 90 89 83 98 97 90 88 88 82 88 88 83 98 97 91 80 81 77 83 84 79 114 113 107 106 106 100 100 100 94
91 90 84 91 90 83 63 64 61 88 87 82 99 98 92 79 79 75 82 82 78 97 96 91 83 83 78 71 71 67 89 88 82 80 80 75 68 69 65 89 89 84 92 91 85 83 84 80 109 108 101 97 97 92 108 108 102 85 86 83 80 81 78 85 86 82 94 94 89 91 91 86 85 85 81 89 88 83 106 105 98 106 105 99 97 97 92 105 104 98 91 92 88 86 87 84 95 95 90 95 95 90 78 79 75 86 87 83 82 82 77 71 71 67 77 78 74 72 72 68 89 89 83 69 70 67 88 88 83 99 99 92 95 94 89 65 66 62 101 100 94 75 75 71 94 94 87 78 78 72 72 72 67 56 57 54 69 69 65 82 82 77 77 77 73 80 80 76 71 72 69 82 82 77 76 76 72 84 84 79 97 97 91 94 93 87 93 92 86 70 70 67 99 98 91 70 71 68 72 73 69 100 99 93 112 111 104 72 73 70 102 102 97 101 101 96 79 80 77 88 89 86 92 92 88 94 94 89 90 90 85 83 84 79 102 101 94 85 85 81 78 78 74 84 85 82 79 80 76 73 74 71 114 114 107 92 92 87 84 84 79 71 72 69 80 80 76 99 99 92 74 75 70 76 76 71 70 71 67 71 71 67 88 87 81 71 72 69 64 65 62 80 81 77 103 102 95 87 87 83 78 78 74 66 67 63 75 75 70 84 83 77 85 84 78 68 69 65 53 54 51 56 57 54 88 88 82 78 78 73 87 87 83 74 75 71 94 94 89 74 75 71 98 97 90 98 97 90 76 76 73 97 97 91 78 78 73 77 78 73 78 79 75 83 83 78 106 105 98 89 89 84 110 109 103 103 103 98 113 112 105 92 93 89
82 82 77 69 70 67 73 74 69 89 89 84 79 79 76 98 98 93 82 82 77 89 89 83 85 85 80 92 92 85 85 85 79 101 100 93 89 89 84 96 96 90 94 93 87 100 100 95 91 91 87 88 89 85 78 79 76 94 94 90 86 86 83 77 78 74 85 85 81 98 97 91 103 102 96 72 73 69 90 90 85 87 87 82 73 74 71 86 86 83 91 91 88 81 81 78 84 84 81 67 68 65 73 74 70 83 83 79 61 62 59 79 79 74 92 92 85 94 93 87 81 82 77 79 80 75 78 78 74 84 84 80 69 69 65 73 74 70 93 92 87 89 88 81 87 87 81 80 80 75 65 66 62 64 65 62 93 92 86 75 75 70 101 100 93 87 87 81 86 86 81 83 83 79 97 96 90 97 96 89 99 98 92 98 97 90 67 67 64 86 86 82 71 72 69 102 101 95 102 102 95 80 80 77 89 90 85 80 81 77 88 89 85 102 102 96 77 78 75 110 109 102 91 92 88 93 94 89 110 109 102 85 85 81 110 109 102 77 78 74 107 106 99 83 84 80 85 85 81 117 116 109 98 98 93 100 100 94 79 79 75 88 88 83 79 79 75 69 70 66 87 86 80 94 94 87 82 81 76 86 86 80 78 78 73 91 91 85 82 82 77 76 77 73 87 86 80 68 68 65 94 93 87 87 86 81 73 74 70 90 89 82 86 86 80 79 79 74 66 66 62 80 80 74 85 85 79 75 76 73 75 76 73 88 89 84 101 100 93 88 89 84 73 73 70 103 102 96 98 97 90 73 74 71 86 86 82 72 73 69 69 70 67 85 85 80 119 118 111 88 89 85 99 99 95 89 90 87 81 82 79 107 107 101
84 84 78 72 73 69 65 66 63 105 105 99 78 78 75 100 99 93 71 72 69 91 91 85 70 70 67 82 82 78 109 108 101 72 73 69 91 91 85 96 95 89 81 81 78 95 95 90 86 87 83 95 95 89 98 97 92 91 91 87 99 99 94 98 98 92 107 107 100 78 78 74 79 80 76 91 91 86 97 96 90 86 86 82 117 117 110 95 95 91 90 90 85 107 106 100 111 110 103 86 87 82 76 76 72 103 102 95 90 89 84 84 83 77 88 87 80 81 81 76 78 78 74 68 69 66 95 94 87 90 90 83 68 69 65 86 86 81 73 73 68 94 93 87 78 78 73 70 70 65 74 75 71 80 80 75 61 62 59 102 101 94 90 90 85 78 78 74 93 93 88 104 103 96 106 105 98 95 95 90 99 98 91 85 85 79 73 74 71 90 90 84 86 86 82 101 100 93 84 85 80 85 85 81 93 94 89 102 102 97 107 107 102 123 122 115 88 88 85 106 106 99 97 97 93 102 101 95 100 100 94 83 83 78 83 84 80 102 101 94 107 107 100 85 85 81 97 96 91 106 105 99 84 84 80 72 73 70 102 101 95 76 77 73 78 78 73 75 75 70 72 72 68 88 87 80 62 63 60 77 77 71 60 61 57 89 88 82 92 92 86 95 95 89 92 91 85 95 95 88 63 63 60 71 71 67 62 62 58 77 77 72 81 81 74 60 60 57 77 77 72 71 72 68 73 73 69 78 79 76 90 89 84 98 97 91 84 84 80 108 107 100 81 82 78 104 103 97 93 93 88 77 77 73 87 88 83 97 96 90 108 107 101 83 84 80 100 100 94 98 98 94 91 91 87 116 115 109 110 109 103 96 96 90
74 75 72 82 83 79 101 100 93 88 88 84 82 82 78 80 81 78 109 108 101 101 100 93 73 74 71 98 97 91 99 98 93 77 77 73 88 88 83 95 95 89 82 83 79 117 116 110 90 90 87 115 114 107 102 101 96 105 104 97 88 89 85 77 78 75 85 86 82 96 95 89 91 91 85 94 93 87 78 78 75 92 92 87 76 77 73 81 81 77 81 81 77 84 84 80 105 104 98 91 91 86 66 67 63 72 72 68 72 72 67 72 72 69 83 83 78 80 80 75 78 78 73 100 99 93 79 79 75 80 80 75 85 85 80 84 84 79 72 73 69 80 80 76 58 59 56 89 88 82 98 97 91 58 59 56 74 74 69 72 73 69 104 103 96 74 75 71 75 76 73 102 102 96 88 88 84 81 82 78 71 72 69 88 88 82 89 89 83 107 106 99 93 93 87 80 81 77 109 108 101 92 92 88 90 90 86 77 78 75 94 95 90 107 106 100 96 96 92 87 88 84 108 107 101 87 87 83 66 67 63 95 94 88 83 83 78 78 79 76 75 76 72 80 81 77 110 109 102 84 85 81 74 75 72 92 91 86 76 77 73 84 84 79 81 80 75 76 77 72 89 89 82 82 82 77 71 72 68 66 67 63 75 75 71 89 89 82 93 93 86 88 88 83 71 72 68 93 93 86 84 84 79 71 72 68 98 97 90 94 93 87 94 94 88 92 91 85 100 99 92 81 81 76 103 102 96 97 97 92 84 85 81 92 92 88 73 74 71 67 68 65 83 83 78 99 98 92 90 90 84 69 69 66 74 74 71 92 93 88 89 89 84 81 82 78 92 92 87 98 98 92 109 109 103 81 82 78 80 80 77 75 76 73
77 78 73 75 76 73 73 73 70 111 110 104 83 83 79 106 105 99 104 103 97 99 98 91 82 82 78 92 92 86 107 106 100 105 105 98 96 96 90 93 93 88 107 107 100 123 122 115 87 87 83 108 107 102 80 81 77 88 88 83 76 77 74 80 81 77 96 96 89 101 101 95 78 79 74 102 102 95 77 78 74 109 108 101 92 92 86 81 81 78 78 79 76 103 102 96 91 91 86 91 90 83 73 73 68 63 64 60 60 61 58 65 66 62 75 76 71 100 100 93 82 82 77 85 85 80 67 68 64 87 87 82 66 67 64 97 96 90 89 89 83 89 89 83 87 87 81 68 69 65 84 83 78 101 100 93 96 95 89 70 70 67 102 102 95 98 98 93 97 97 92 104 104 98 112 111 104 102 101 94 85 85 81 75 75 71 79 80 76 104 103 97 83 83 79 82 82 78 98 98 93 117 116 109 98 98 93 95 95 90 110 109 104 82 82 78 91 91 87 78 78 74 95 95 89 80 80 76 74 74 70 92 92 85 101 100 94 99 99 92 71 72 69 99 99 93 91 91 86 85 85 80 87 87 82 93 93 86 84 84 78 85 85 80 75 75 69 80 80 74 65 66 62 88 87 80 79 79 74 71 72 68 87 87 82 86 86 80 71 72 68 77 78 74 93 92 86 81 81 77 59 59 56 90 89 83 63 64 61 79 79 74 82 82 76 70 70 67 98 97 90 97 96 91 116 116 109 79 79 76 80 81 77 100 99 94 84 84 79 101 100 94 76 77 73 96 95 89 103 103 96 93 92 86 103 102 96 88 89 85 100 100 95 88 88 85 122 121 115 89 89 85 106 105 99 85 85 81 86 87 83 76 76 72
83 83 80 86 86 82 103 102 96 101 101 95 84 84 80 93 93 89 90 90 85 101 100 94 78 78 74 107 106 99 86 86 81 101 100 94 84 84 81 104 104 99 98 98 93 94 94 89 114 113 107 77 78 75 93 93 88 77 78 75 84 85 80 96 96 89 103 102 96 90 90 84 105 104 97 97 96 89 77 78 75 98 98 93 89 89 85 88 88 82 83 83 79 95 94 87 78 78 73 88 87 81 79 79 73 66 66 61 62 63 59 62 63 59 99 99 92 73 73 69 95 94 88 85 84 79 85 85 80 76 77 73 94 93 87 88 88 82 78 78 74 93 93 86 90 90 84 95 94 88 80 79 74 80 81 77 92 92 87 93 93 88 84 84 79 103 102 96 84 85 81 83 84 80 80 81 76 113 112 105 88 88 83 95 94 88 73 74 71 75 76 72 86 87 83 95 96 91 98 98 93 84 85 81 111 110 105 102 103 98 107 106 101 92 92 86 111 110 103 86 86 81 85 85 80 71 72 69 70 71 67 91 90 85 77 77 73 80 81 77 104 103 97 77 78 74 88 88 84 100 99 94 96 95 90 96 95 89 68 68 64 72 73 68 59 59 56 66 67 63 62 63 60 78 78 73 61 62 59 92 91 85 94 93 88 72 72 68 70 70 67 69 69 66 81 82 77 77 78 74 81 81 76 89 88 83 86 85 80 78 78 73 98 98 91 91 90 85 84 84 81 104 103 98 111 110 103 114 114 107 116 115 108 99 99 93 103 102 95 69 70 66 79 80 76 94 94 88 83 83 78 90 90 86 80 81 77 88 88 84 87 88 84 98 98 93 84 84 81 82 83 79 97 97 92 75 75 72 90 90 86 96 95 90
81 82 78 116 115 109 102 102 97 105 104 99 88 89 84 76 77 73 92 92 87 77 77 73 81 81 77 80 81 76 107 107 100 91 91 87 103 103 97 110 110 103 117 117 110 92 93 89 89 89 84 77 78 74 97 96 90 97 96 89 83 83 78 99 98 92 71 72 68 87 87 83 80 80 76 83 84 80 104 104 97 96 95 90 108 108 101 102 101 94 84 84 79 94 93 87 100 99 92 79 79 73 55 55 52 64 65 62 88 88 82 63 64 61 92 92 86 71 72 69 69 70 66 79 79 75 106 105 99 71 71 67 70 70 67 59 60 57 85 84 78 92 92 86 81 81 76 63 64 61 76 76 72 99 99 92 102 102 96 102 101 96 96 96 91 111 110 103 72 73 70 78 79 76 87 87 83 100 99 93 98 98 93 78 78 74 79 80 76 85 85 80 108 107 100 105 105 98 106 106 100 113 112 106 103 103 98 116 115 109 106 105 100 82 83 79 87 87 83 74 74 71 90 90 83 89 88 82 66 67 63 97 97 91 103 103 96 83 83 78 95 95 89 70 71 68 82 83 78 79 79 76 74 74 70 85 85 80 98 97 91 78 78 72 71 71 67 85 84 79 91 90 83 85 85 79 93 92 85 76 77 73 86 86 80 83 83 78 99 98 91 99 98 91 95 95 88 69 70 66 88 87 81 76 76 73 71 71 67 99 98 91 78 78 75 92 92 88 76 76 73 101 101 95 82 83 79 114 113 107 97 97 93 103 102 96 106 106 100 111 110 103 95 94 88 106 105 98 88 88 84 97 97 92 114 113 106 96 96 91 92 93 89 97 97 93 108 107 101 74 75 72 98 97 92 84 84 78 93 92 86 70 71 67
88 89 85 115 114 107 88 89 85 92 92 87 106 105 99 112 111 104 74 75 71 95 95 88 95 95 90 99 98 92 102 101 96 96 96 91 100 100 95 90 91 87 98 99 94 100 100 93 80 80 76 101 101 95 75 76 73 102 101 95 84 84 79 66 67 63 91 91 85 85 85 79 84 84 79 71 72 68 90 90 85 76 77 73 89 88 83 94 94 87 66 66 63 79 79 73 70 70 65 65 66 62 72 73 68 82 82 76 75 75 71 89 88 83 78 79 75 107 106 99 103 102 96 84 85 81 96 95 89 103 102 96 98 98 91 93 92 86 86 86 80 68 69 65 98 97 91 88 88 83 109 108 101 107 106 100 82 83 80 98 98 93 117 116 109 79 79 76 94 93 88 84 84 80 81 81 77 107 106 99 96 95 89 102 101 95 79 79 76 93 93 87 92 92 86 98 98 92 88 89 85 112 112 105 92 92 87 84 85 81 87 87 82 85 85 80 102 101 94 71 71 67 99 98 92 95 94 87 69 70 66 91 91 84 89 89 84 93 93 88 94 94 89 74 74 70 84 84 78 70 70 66 92 91 85 89 88 81 87 87 80 65 65 62 94 93 87 82 82 77 73 73 69 89 89 82 85 85 79 97 97 91 89 89 84 91 91 86 94 93 87 86 86 81 68 69 65 96 95 88 102 101 94 92 92 86 100 100 93 92 91 86 94 94 90 84 84 79 91 92 87 105 105 99 93 93 89 107 106 99 97 97 92 78 79 75 88 88 83 96 96 90 107 106 100 69 70 67 91 91 86 105 105 99 79 80 77 89 90 86 118 117 111 76 77 74 89 89 85 85 85 81 82 82 79 61 62 59 92 92 87 91 90 84
102 101 96 112 111 105 91 91 86 108 107 101 85 85 81 90 90 85 75 75 71 88 88 84 85 85 80 82 83 78 75 76 73 104 104 98 115 114 108 76 77 73 94 94 90 96 96 91 70 71 68 72 72 68 69 70 66 70 71 67 83 82 77 90 90 84 92 92 86 79 79 74 96 95 90 83 83 78 100 100 93 93 92 87 100 100 93 84 84 80 58 59 56 66 66 63 68 68 64 71 71 66 59 60 56 76 76 71 87 87 81 95 95 88 108 107 100 104 104 97 75 76 72 86 86 80 73 73 69 99 99 93 91 90 85 89 89 83 72 72 69 73 74 70 96 95 88 70 71 68 114 113 106 87 87 83 118 117 110 99 99 93 117 117 110 98 98 93 100 100 95 95 95 90 98 97 91 83 83 78 84 84 81 111 110 103 77 77 74 106 105 99 100 100 95 97 97 93 94 94 89 117 116 109 75 75 72 94 93 88 86 86 81 85 85 79 82 82 77 62 63 59 61 62 58 73 74 69 90 90 83 86 86 80 67 68 64 70 71 67 70 71 67 101 100 94 86 86 81 77 77 72 68 69 65 58 59 56 68 69 65 56 57 54 67 68 64 75 75 69 94 93 86 84 84 79 76 76 73 79 79 76 89 89 84 99 98 92 90 90 84 68 69 66 88 88 83 74 75 71 71 72 68 79 80 75 74 75 70 96 95 89 92 92 88 104 104 98 84 85 81 77 78 75 102 103 98 112 111 104 94 95 90 89 89 85 107 106 100 79 80 77 93 93 88 80 81 77 73 73 70 85 86 82 88 88 84 92 93 89 79 79 76 95 94 89 74 74 71 99 98 91 75 76 72 70 71 67 74 74 69 79 79 74
93 93 89 87 88 84 90 90 86 100 100 93 72 73 70 95 95 89 85 85 80 94 94 89 104 103 98 97 97 91 105 104 97 88 88 83 98 97 91 102 102 97 97 97 91 89 89 84 74 74 70 87 87 81 91 90 83 64 65 61 77 77 73 80 80 75 92 91 85 80 81 76 81 81 76 77 78 73 71 71 67 91 91 85 85 85 80 87 86 79 71 71 67 82 82 76 80 80 74 71 71 67 74 74 69 72 72 68 72 73 68 90 89 83 89 88 83 87 87 82 101 101 95 85 86 82 87 87 83 67 68 65 71 72 69 72 72 68 76 77 72 92 91 85 105 104 97 77 78 74 102 101 95 115 115 108 87 88 84 92 92 88 102 102 96 111 110 103 89 89 83 92 92 87 81 81 76 80 80 76 104 103 97 111 110 103 78 78 74 87 88 84 81 82 78 86 86 83 77 78 74 101 100 94 82 82 77 80 81 77 83 83 78 89 88 82 75 76 71 79 79 75 60 61 57 95 94 88 69 70 66 91 90 84 100 99 92 76 77 73 69 70 67 96 95 89 90 89 83 75 76 72 63 64 60 61 62 59 79 79 74 75 75 71 91 90 84 75 75 71 70 71 68 83 82 77 97 97 92 89 89 84 97 97 91 101 100 94 80 81 76 90 90 84 75 75 71 104 104 97 107 106 100 70 70 67 92 92 88 107 106 100 106 106 100 77 78 75 90 91 86 92 92 87 111 111 105 80 81 77 102 101 95 104 103 97 70 71 68 75 76 72 99 98 93 90 90 84 89 89 84 107 106 99 85 85 80 99 99 93 90 90 84 88 89 84 78 79 76 82 82 78 90 90 85 72 73 69 95 95 88 71 71 66
90 90 87 88 89 85 95 95 91 76 77 74 107 106 100 89 89 84 90 90 85 78 78 75 96 96 91 111 110 103 83 83 79 98 98 92 92 92 87 74 75 72 96 95 89 102 101 95 97 96 90 87 87 81 91 90 83 73 73 69 71 71 66 69 70 67 90 90 85 67 68 64 78 78 73 98 97 91 87 87 82 74 75 71 71 72 68 65 65 61 83 83 78 54 55 52 89 88 82 68 69 65 76 76 71 90 90 84 63 64 61 76 77 74 87 86 81 91 91 86 100 99 93 92 92 88 75 75 71 91 90 84 97 97 90 94 93 87 82 82 78 87 87 82 86 86 81 88 89 86 79 80 77 96 96 91 94 94 89 120 119 113 79 79 76 90 90 85 105 104 97 88 89 84 78 78 74 107 106 100 75 76 73 109 108 102 110 110 103 86 87 83 107 106 100 96 96 92 82 83 79 75 76 72 82 83 79 86 85 80 76 77 72 91 90 84 75 75 70 71 71 67 63 64 60 90 90 83 72 73 68 64 65 61 82 82 77 97 97 91 99 98 92 96 96 89 59 60 57 90 90 84 74 74 69 69 69 65 84 84 79 67 68 65 69 70 66 89 88 83 99 99 93 68 69 65 78 79 76 99 98 92 105 105 99 80 80 75 84 84 79 75 76 73 92 92 86 76 76 72 83 83 78 107 106 99 113 112 105 79 80 77 81 82 78 113 112 106 113 112 105 76 77 74 109 108 102 90 90 85 104 104 97 108 107 100 88 88 84 76 77 73 108 108 101 89 89 84 88 88 84 100 99 93 81 81 77 96 96 90 96 96 91 94 94 88 78 78 74 83 83 77 69 69 66 69 70 65 70 70 65 95 94 87
115 114 108 111 111 104 91 91 87 87 87 82 90 89 83 110 109 102 97 97 91 77 78 74 103 102 96 101 100 94 81 81 77 92 92 87 76 77 74 92 91 85 76 77 73 96 95 88 67 68 64 94 93 86 67 67 64 88 87 80 84 84 78 83 83 77 77 77 73 92 92 85 85 85 81 63 64 61 76 77 73 91 90 85 62 63 60 98 97 90 93 92 86 65 65 62 83 82 77 67 68 64 90 90 84 87 87 82 67 68 65 78 78 74 85 85 81 104 103 96 106 105 99 86 86 81 70 71 68 79 79 74 106 105 98 85 86 82 72 72 69 106 105 99 84 85 81 86 86 83 86 87 83 110 110 103 108 108 102 92 92 87 107 106 100 91 91 87 110 109 102 73 74 70 101 101 95 77 78 74 87 87 83 75 76 72 81 82 79 96 96 91 78 79 76 73 74 70 86 86 80 86 86 81 95 95 88 78 78 73 91 90 84 93 92 86 77 77 72 62 62 59 95 94 87 98 98 91 101 100 93 68 68 65 85 84 79 91 90 84 69 69 66 81 81 77 84 84 78 60 60 57 91 90 83 68 68 64 90 89 83 85 85 79 78 78 75 101 101 94 96 96 91 72 73 70 93 93 88 98 98 93 76 77 74 71 72 69 109 108 101 101 100 95 79 79 76 74 75 71 92 93 88 82 83 80 84 85 81 108 107 101 88 89 86 115 114 108 96 97 93 100 99 94 104 104 97 87 87 82 107 106 100 93 93 87 79 79 75 78 79 76 83 84 79 92 92 86 105 104 98 100 99 93 83 83 80 91 91 86 77 78 74 87 87 82 78 78 74 62 62 59 82 81 76 90 89 83 59 60 56 79 79 74
108 107 100 80 81 77 75 76 73 101 101 95 91 91 85 68 69 66 100 100 93 83 83 79 106 105 98 81 82 78 85 85 81 106 105 100 102 102 96 75 76 73 87 88 83 70 71 68 86 86 80 89 89 83 93 92 86 61 62 59 88 88 83 88 87 81 98 98 92 93 92 86 83 83 79 71 71 67 74 74 71 77 77 73 78 78 74 66 67 64 77 77 72 75 75 69 97 96 90 92 91 86 90 90 85 91 91 86 103 102 95 90 90 85 87 87 81 86 87 82 77 77 74 85 85 80 89 89 84 69 70 67 95 95 89 96 96 91 98 98 92 88 88 84 89 89 85 81 82 78 83 83 79 98 98 93 84 85 81 81 82 79 113 112 105 84 84 80 98 97 91 93 92 87 107 106 99 80 80 76 88 89 85 87 87 82 97 97 92 101 101 95 98 98 92 97 97 92 94 94 89 82 82 77 97 96 90 77 77 72 75 75 71 88 87 82 96 95 88 88 87 81 84 84 78 71 72 68 82 82 77 95 94 88 79 79 76 64 65 62 75 76 72 80 80 75 57 58 54 81 81 76 62 63 59 81 80 74 72 73 69 94 93 87 104 104 97 91 91 86 87 87 82 98 98 93 99 99 93 89 89 85 90 90 85 70 71 67 76 77 73 70 71 68 82 83 79 90 90 85 86 86 81 81 82 79 111 110 103 109 108 102 111 111 104 110 109 104 85 86 83 84 84 81 76 76 73 86 86 81 103 102 96 104 104 98 83 83 79 93 93 87 88 88 83 101 100 93 79 80 76 100 99 93 95 95 90 100 99 92 82 82 78 101 100 93 91 90 83 78 78 72 78 78 73 85 84 78 84 84 79 99 98 91
107 106 100 80 81 76 76 77 73 99 98 91 97 97 91 102 102 96 78 79 76 101 101 95 77 78 74 92 92 87 91 90 85 90 91 86 101 100 93 90 90 84 93 93 87 84 84 79 79 79 73 100 99 92 69 70 66 70 71 66 86 86 80 71 72 69 65 65 62 81 81 76 88 88 81 67 68 64 67 68 64 81 81 76 70 70 66 87 86 80 58 59 56 71 71 67 85 85 80 87 87 82 85 85 81 87 87 83 99 98 91 107 106 99 84 85 81 81 81 78 97 97 91 96 96 90 97 97 91 99 99 93 106 105 99 112 111 104 102 102 96 102 102 96 108 107 101 93 93 89 97 97 92 87 88 84 104 104 98 92 92 88 93 93 87 86 86 80 101 100 94 77 78 73 98 97 90 75 75 71 97 97 91 99 98 92 100 100 94 109 108 101 92 92 86 105 104 97 76 77 73 87 87 80 68 69 66 85 85 79 83 82 77 69 69 65 86 86 80 83 83 78 65 66 62 106 105 98 73 73 69 63 64 61 96 95 88 75 75 70 86 86 81 70 71 67 74 74 69 72 72 67 80 79 74 72 72 67 95 94 88 82 82 77 96 96 90 99 98 93 100 99 93 76 77 73 87 88 84 109 108 101 85 85 81 89 89 84 78 79 75 97 96 89 104 104 97 80 81 76 108 107 100 97 97 92 110 109 104 120 119 113 100 101 96 103 102 97 95 95 90 95 95 90 101 100 95 67 68 64 89 89 83 93 93 88 95 94 88 98 98 93 83 83 79 103 102 95 112 111 104 85 85 81 76 76 72 64 65 62 91 91 84 75 75 70 83 82 76 63 63 59 89 88 82 65 66 62 81 81 75 76 76 70
94 94 89 100 99 93 84 84 80 99 98 91 97 96 89 100 99 94 88 89 85 98 97 91 100 100 94 110 109 103 94 94 89 83 83 78 77 77 74 100 99 92 69 70 67 82 82 77 93 92 85 93 93 86 81 81 74 71 71 67 62 63 60 82 82 78 82 82 77 94 93 87 91 90 84 72 73 69 87 87 81 83 82 76 78 78 73 82 82 76 74 74 70 87 86 80 103 102 95 70 71 68 75 76 72 67 68 65 94 94 90 112 111 104 83 84 80 87 86 81 100 100 94 66 67 64 83 83 80 82 82 78 91 91 87 83 84 80 93 93 88 103 103 97 96 96 92 112 112 106 113 112 106 115 114 108 83 84 80 91 90 85 90 90 85 104 104 98 94 93 88 82 82 77 88 88 84 78 79 75 89 89 85 94 94 88 107 106 100 76 77 73 91 90 84 75 75 71 86 85 80 77 78 74 88 88 81 58 59 55 66 66 62 58 59 56 68 69 65 75 75 70 88 88 83 73 74 70 88 88 83 95 94 88 100 99 93 91 90 84 96 95 89 54 55 52 78 78 72 89 89 83 95 94 88 72 73 69 96 95 89 98 97 92 110 110 103 97 97 91 76 77 73 101 100 94 92 92 86 85 85 81 99 98 92 90 90 84 99 99 93 103 103 97 90 90 85 77 78 75 88 89 85 97 97 92 123 122 115 95 96 92 77 78 75 84 84 80 77 78 75 110 109 102 87 87 81 104 103 97 93 93 87 83 83 78 99 99 93 97 97 91 84 85 81 75 75 72 93 93 87 95 95 88 77 77 73 84 85 80 73 74 70 66 67 64 65 65 62 76 76 71 88 87 80 73 73 68 58 59 56 61 62 58
94 94 88 92 92 87 93 93 86 81 82 78 103 102 96 97 97 91 73 74 70 93 93 88 89 89 84 97 96 91 81 81 78 86 86 81 97 96 90 78 78 74 88 88 82 77 76 71 62 63 60 72 73 69 87 86 80 88 87 81 96 95 89 76 76 73 69 70 67 92 91 86 72 72 68 88 87 80 98 97 90 56 57 54 54 55 52 65 66 61 71 72 69 93 93 87 87 87 81 101 100 93 87 87 82 104 103 97 86 86 82 83 84 79 77 77 73 102 102 95 68 68 65 106 105 99 90 90 85 83 84 80 78 79 75 89 89 85 117 116 110 81 82 79 122 121 115 106 106 99 80 81 78 91 91 86 100 100 95 101 100 94 97 97 91 94 94 88 82 82 77 71 72 68 89 90 85 89 89 85 102 101 95 101 101 95 79 80 77 97 97 92 77 77 73 79 80 75 76 77 73 95 95 88 77 77 73 84 84 79 71 71 66 68 69 65 74 74 70 93 92 86 88 88 83 107 106 99 71 72 69 73 74 70 66 67 63 67 68 65 66 67 64 84 84 77 75 74 69 83 83 76 71 72 67 87 87 82 88 88 82 97 97 92 107 106 100 97 96 91 103 102 96 97 96 91 86 87 83 94 94 88 99 98 91 82 82 77 104 104 97 79 80 76 102 102 96 112 111 105 84 85 82 113 113 107 96 96 92 101 102 97 91 92 88 93 93 89 81 81 77 98 98 93 92 91 86 77 77 73 77 77 73 90 90 84 105 105 99 93 93 88 76 77 73 105 104 98 94 94 88 74 75 72 87 86 81 80 80 76 82 82 77 84 84 78 90 90 84 87 86 81 65 66 63 75 75 71 94 94 88 91 90 85
107 106 99 81 81 77 103 102 96 78 79 75 70 71 68 100 100 94 108 107 100 81 82 79 86 86 81 77 77 74 101 100 94 92 92 87 65 66 62 102 101 94 78 78 74 73 73 68 91 90 84 76 76 72 95 95 89 82 82 77 86 86 80 74 74 70 63 64 61 94 94 88 92 91 85 55 56 53 80 80 74 84 83 78 58 59 56 80 80 75 98 97 91 88 88 83 82 83 78 85 85 81 113 112 105 90 90 86 87 88 83 81 81 77 83 83 78 71 71 68 70 71 67 73 74 71 106 105 98 73 74 70 85 85 81 86 87 83 100 100 95 83 84 80 113 112 106 88 88 85 101 101 95 113 113 106 81 82 79 80 81 77 94 94 88 85 85 81 66 67 64 102 101 95 92 92 87 95 94 89 95 94 88 107 106 100 77 77 74 101 100 95 64 65 61 66 67 64 83 82 76 63 63 60 74 74 70 56 56 53 96 95 88 81 80 75 84 84 80 84 84 79 81 81 76 82 82 77 70 71 67 97 96 89 91 90 84 83 83 76 76 77 72 64 65 62 77 77 72 87 86 79 66 67 63 79 79 76 81 81 78 82 83 80 108 107 101 98 98 92 99 99 93 90 90 86 74 75 72 96 95 89 104 103 97 99 98 91 88 88 84 80 81 76 110 109 102 89 90 86 101 101 95 90 91 87 92 93 89 87 88 84 109 109 103 89 89 84 86 87 83 80 80 75 90 89 83 90 90 84 81 81 77 83 83 78 97 96 90 99 98 92 80 81 77 78 79 75 87 87 83 99 99 93 82 82 77 87 86 80 82 82 77 74 74 69 77 76 71 78 79 74 66 66 62 91 90 83 81 80 75 63 64 60
105 104 97 84 85 81 111 111 104 115 114 107 105 105 98 104 103 98 99 99 94 103 103 97 106 106 99 70 71 67 87 87 82 66 67 64 76 77 72 89 88 82 81 81 76 75 75 70 70 70 67 91 90 84 94 93 88 103 102 96 80 81 76 97 96 89 95 94 88 73 74 70 82 82 76 75 75 70 73 74 69 89 88 82 83 83 77 75 75 69 87 87 82 95 94 89 85 86 82 91 91 86 86 87 83 82 82 77 80 81 77 66 67 64 101 100 93 96 95 90 95 95 89 86 86 81 67 68 64 90 89 84 93 93 87 94 94 90 105 105 99 106 106 101 76 77 74 116 115 108 106 106 100 78 79 76 91 90 85 93 92 87 71 72 68 79 80 76 98 97 91 90 90 84 91 91 87 110 109 102 115 114 107 112 111 104 85 85 80 108 107 100 104 103 97 78 78 74 80 81 76 71 71 67 61 61 58 99 98 91 88 87 81 67 68 65 82 82 78 93 93 87 76 76 71 82 82 78 97 96 89 93 92 86 75 75 70 64 65 62 69 69 64 69 70 66 64 65 61 101 101 94 69 70 66 83 83 78 83 83 78 79 80 76 107 106 99 92 92 86 101 101 94 75 76 72 66 67 64 88 88 83 66 67 64 78 79 74 80 81 78 108 108 102 94 94 89 98 98 94 92 92 88 81 82 79 79 80 77 102 101 95 76 77 74 114 113 106 91 91 86 93 93 88 66 67 64 99 99 94 87 88 83 103 103 97 83 84 80 96 95 90 83 84 80 98 97 91 78 78 74 74 75 71 84 84 78 89 89 83 73 74 70 67 67 63 66 67 63 87 86 80 73 73 68 96 95 88 97 96 90 69 70 66
108 107 100 96 96 90 102 101 95 86 86 82 81 82 79 85 86 83 120 119 112 97 97 91 93 93 88 77 78 75 101 100 95 77 77 73 91 90 84 72 73 70 91 90 83 99 98 91 89 88 83 101 100 93 80 80 75 100 99 92 83 83 79 76 76 72 75 76 71 93 92 86 63 64 61 67 67 62 88 87 80 85 84 78 85 84 78 91 91 85 95 94 87 84 84 78 83 83 79 74 75 72 77 78 75 74 75 71 75 75 71 71 72 68 72 73 70 87 87 82 94 94 87 93 93 87 67 68 65 99 99 92 115 114 108 114 113 107 103 102 96 99 99 95 88 89 85 107 107 100 109 108 102 90 91 87 83 84 80 85 86 82 70 71 68 96 95 89 86 87 83 101 100 94 104 104 97 109 109 102 80 80 76 110 109 103 80 81 78 77 78 75 89 89 84 89 89 83 69 70 66 89 89 83 87 87 81 87 86 80 69 69 65 96 95 89 96 95 89 92 92 86 107 106 100 78 79 74 79 79 75 65 65 61 96 95 88 82 82 76 69 69 65 96 95 89 65 65 61 69 70 66 76 76 72 90 89 83 93 93 88 86 85 80 90 90 84 93 92 87 81 81 77 92 91 85 73 74 71 98 97 91 86 86 80 93 93 88 73 73 70 97 97 92 86 87 83 92 92 88 114 114 108 94 94 89 103 103 97 94 94 90 83 84 80 84 84 79 81 81 78 81 81 77 74 74 71 97 97 91 76 77 73 108 107 100 110 110 103 104 103 96 99 99 94 104 103 96 97 96 90 74 74 70 87 87 82 91 90 84 65 65 62 81 82 77 70 71 66 62 63 60 85 85 79 66 67 63 73 74 70 71 71 68
111 110 103 104 104 98 78 79 76 106 105 100 95 96 91 76 77 74 108 108 102 83 83 79 99 98 92 79 80 76 99 98 91 86 86 81 95 95 89 74 74 70 88 88 83 89 89 84 63 64 60 72 73 69 92 92 87 86 86 82 95 95 89 97 96 90 100 99 92 58 59 55 64 64 60 98 97 90 64 65 61 73 73 68 77 78 74 74 75 71 68 68 64 77 77 74 86 86 81 77 78 74 88 88 83 63 64 61 76 76 71 98 97 90 68 69 65 74 75 71 69 70 67 85 85 80 68 69 65 84 84 80 73 74 71 93 94 89 88 88 84 94 94 90 92 93 88 105 104 98 81 81 77 99 98 92 81 81 76 99 99 94 94 94 88 103 102 96 98 98 93 93 94 89 99 100 95 113 113 106 81 81 78 108 107 101 110 109 102 77 78 74 85 85 79 92 92 85 61 62 58 73 74 69 80 80 76 98 97 91 81 81 76 92 91 86 90 90 85 102 101 94 90 89 84 93 93 87 95 94 88 77 77 73 74 74 69 77 77 71 85 84 78 64 65 62 78 78 73 59 60 57 79 80 76 91 91 85 83 83 78 110 109 103 91 91 87 93 93 87 93 92 86 93 93 88 95 95 89 73 73 69 82 83 79 87 87 82 100 100 94 100 100 94 110 109 102 97 97 92 119 118 111 116 115 108 107 106 100 85 85 81 68 69 66 86 87 83 74 75 71 95 95 90 86 87 83 100 100 94 108 107 100 96 96 92 109 108 102 112 111 104 86 86 82 99 98 92 67 68 64 73 74 69 94 93 87 92 92 85 62 63 60 83 83 77 81 81 76 92 91 85 77 78 74 76 76 72 92 92 87 62 63 60
102 101 95 97 97 93 116 115 108 117 116 110 110 109 102 108 107 100 101 101 96 102 101 95 95 95 90 90 90 86 92 92 86 79 79 75 68 69 65 86 86 81 82 82 77 101 100 94 80 81 77 96 95 89 75 76 73 80 81 77 71 71 68 68 69 66 92 92 86 90 89 82 91 90 84 74 74 68 76 76 71 90 89 82 96 95 88 95 94 88 94 93 87 101 100 93 76 77 74 76 77 72 87 87 81 93 92 86 69 70 66 80 80 74 96 95 88 95 94 87 72 72 68 73 74 71 74 74 71 82 82 78 103 103 97 91 92 87 89 90 86 107 106 100 73 74 71 111 110 104 74 75 72 102 101 94 91 91 87 69 70 67 83 84 80 96 96 91 88 88 84 99 98 92 118 117 110 106 106 101 77 78 74 98 98 93 99 99 93 79 79 76 95 95 89 75 75 71 79 79 74 94 94 88 82 83 79 94 94 87 96 95 89 107 106 100 87 87 81 91 91 86 90 89 83 75 75 70 79 79 74 90 89 82 74 74 70 85 84 77 84 83 77 88 87 81 68 68 65 67 68 64 83 83 77 90 90 84 107 106 99 86 86 81 81 81 77 88 88 83 83 83 79 82 83 78 77 77 74 93 93 87 76 77 73 92 91 86 94 94 89 104 104 98 83 83 79 92 92 87 110 109 103 92 92 88 101 100 94 98 98 92 89 89 84 85 85 80 86 86 82 77 77 73 109 108 101 84 85 82 105 105 100 96 96 92 101 101 96 97 97 92 89 89 84 95 94 89 85 85 80 82 82 78 101 100 94 91 90 84 65 66 62 76 76 72 83 83 78 79 79 75 68 68 65 78 79 75 71 71 68 84 84 78
79 80 77 89 89 84 101 101 96 101 100 94 111 111 105 95 95 90 103 103 98 104 103 98 85 85 81 94 93 88 67 68 65 82 82 78 62 63 60 97 96 91 77 78 75 83 83 79 102 101 94 81 82 78 70 71 68 93 92 87 77 78 75 94 93 87 63 64 60 62 63 59 67 67 63 70 70 66 72 72 67 64 65 62 79 80 75 74 75 70 89 89 84 84 83 78 82 81 76 74 75 72 67 68 65 102 102 95 70 70 66 84 83 78 86 86 81 84 84 78 106 105 98 96 95 89 89 89 84 96 96 90 90 90 85 115 114 107 95 95 89 106 105 98 73 74 71 79 80 77 98 97 91 96 96 90 88 88 83 99 99 94 76 77 74 101 101 95 98 98 93 94 94 89 94 94 90 90 91 87 100 100 95 106 105 98 84 84 80 102 101 95 84 84 80 106 105 98 91 91 86 77 78 73 77 78 75 90 91 86 79 80 76 70 71 68 75 75 71 94 93 87 93 93 87 78 78 73 63 63 59 73 73 68 53 53 50 64 65 62 94 93 87 79 79 73 82 82 76 91 91 85 60 61 58 91 90 85 75 75 71 87 87 82 95 94 87 93 92 86 79 79 75 75 75 70 99 98 92 97 97 91 105 105 98 72 73 69 91 91 87 106 105 100 80 81 78 110 109 103 102 102 97 76 77 74 84 85 81 103 103 97 91 91 85 80 80 75 80 81 78 96 95 90 98 98 93 81 82 79 112 111 104 98 98 93 112 111 106 80 81 78 100 100 94 114 113 106 77 77 73 87 86 80 98 97 90 64 65 61 95 95 89 95 94 88 67 68 64 80 81 76 87 87 82 99 99 92 71 72 68 99 99 92
81 82 79 106 105 99 110 110 103 99 99 94 100 100 95 88 89 85 112 111 105 109 108 102 95 95 90 95 95 88 103 103 97 102 101 95 77 77 74 103 102 96 86 86 81 82 83 79 76 76 73 93 93 88 107 107 100 94 93 88 79 80 76 83 83 78 91 90 84 59 60 57 82 82 76 64 65 61 84 84 79 84 84 78 64 65 62 100 99 92 87 87 81 96 95 88 93 92 86 79 79 75 95 94 88 64 65 61 69 69 64 75 75 70 82 82 77 72 73 68 83 83 79 89 89 84 82 83 79 82 83 78 75 76 73 100 99 94 84 84 80 109 109 102 84 84 80 100 99 94 90 90 85 100 100 94 91 91 86 103 102 97 86 86 82 107 107 101 102 102 96 106 106 100 84 85 82 100 100 94 90 90 85 86 86 83 105 105 99 105 104 98 73 74 71 83 83 78 76 76 72 81 81 77 86 86 82 108 107 101 106 105 99 76 76 73 93 93 88 86 86 80 96 95 88 96 96 89 74 74 69 56 57 54 61 62 58 72 73 68 100 100 93 88 87 81 97 96 90 85 84 79 74 75 70 77 77 72 73 74 70 68 68 64 96 95 88 75 75 70 84 83 77 100 99 93 73 73 68 85 84 79 71 72 69 84 85 81 96 95 89 112 112 105 107 107 101 113 112 105 89 89 84 79 80 77 88 89 84 105 105 98 98 97 90 89 89 85 99 99 93 99 99 94 94 94 90 107 107 101 82 83 80 110 109 103 100 100 95 102 101 95 78 79 76 80 81 77 107 106 100 84 84 80 94 93 87 75 76 73 83 83 79 75 76 73 89 90 86 78 78 74 81 81 78 82 82 78 99 99 92 83 83 78
101 101 95 98 98 93 85 85 81 106 106 99 102 102 96 84 84 81 102 102 95 94 93 88 84 85 81 102 101 95 109 108 101 85 85 81 85 85 81 82 83 79 100 100 95 95 95 90 92 92 88 106 105 100 92 93 88 101 100 94 72 73 70 92 92 86 96 95 89 68 69 65 85 85 79 91 91 85 89 88 81 91 90 84 92 91 84 92 92 85 79 80 76 82 82 78 93 92 86 69 70 66 96 95 88 72 72 68 90 89 82 76 76 70 83 83 77 81 81 75 88 88 82 76 76 73 109 108 101 94 94 88 88 88 83 84 84 80 86 86 81 88 88 82 77 78 74 93 93 88 90 90 84 104 103 96 79 79 75 103 103 97 90 91 86 91 91 87 121 120 113 96 96 91 106 105 99 87 88 84 89 90 85 107 106 99 87 86 81 90 90 85 104 103 97 92 92 86 71 72 69 83 84 81 97 97 91 110 110 104 115 114 107 98 98 93 88 88 84 81 81 76 73 74 71 85 85 79 92 92 85 88 87 80 92 92 85 98 97 90 72 73 69 81 81 77 65 66 63 69 70 67 103 102 95 88 88 82 82 82 77 93 92 85 92 91 84 97 96 89 76 77 72 95 94 87 79 79 74 80 80 76 62 63 60 101 101 95 93 93 87 70 71 68 83 84 80 85 85 81 106 105 98 85 85 81 73 73 70 72 73 70 87 87 82 101 101 95 102 101 94 94 95 90 80 80 77 87 88 85 113 112 105 115 115 109 88 89 86 112 111 104 80 81 78 92 91 86 111 110 103 106 105 98 70 71 68 107 106 99 83 83 78 113 112 106 96 96 90 110 110 104 90 91 86 78 79 75 100 99 92 96 95 88
85 86 82 91 92 88 99 99 93 98 98 93 83 84 80 99 99 94 92 92 87 91 91 86 107 106 99 87 87 82 90 90 86 110 110 103 103 102 97 93 93 87 118 117 111 98 99 94 101 101 96 90 91 87 85 86 82 101 100 93 74 74 71 94 93 88 92 91 85 77 77 72 71 71 67 96 95 88 77 78 74 81 82 77 82 82 78 84 84 78 64 65 61 95 94 88 80 80 75 75 75 69 88 87 80 68 68 65 67 68 63 72 72 68 77 77 72 91 90 84 90 89 83 82 82 78 67 68 65 88 88 82 82 82 77 97 97 90 69 70 66 82 82 77 98 98 91 71 72 67 79 80 75 88 88 83 95 94 88 102 102 96 102 102 97 104 104 98 109 108 101 89 89 85 90 91 87 98 97 92 103 103 98 102 101 94 67 68 65 78 78 74 98 97 92 85 85 80 89 90 86 95 96 91 82 83 80 109 108 101 105 104 99 83 84 80 95 94 88 78 78 75 70 70 66 79 79 74 70 71 67 100 99 92 84 84 79 95 94 87 82 82 77 87 87 81 105 104 97 82 82 77 92 92 86 85 84 79 90 89 84 77 77 73 71 71 67 93 92 85 92 91 84 78 77 72 65 66 63 86 86 80 83 83 79 77 77 73 94 94 88 80 80 75 85 85 81 83 84 79 71 72 68 85 85 79 74 74 70 101 100 94 100 99 93 79 80 76 88 88 84 103 102 96 96 96 92 104 104 98 102 101 96 110 109 103 108 108 101 107 106 100 90 90 85 99 98 92 98 97 92 91 90 84 99 98 92 108 107 100 105 104 97 89 90 86 91 91 86 101 101 95 86 86 82 90 89 84 99 99 93 71 72 68
104 103 96 113 112 105 92 93 89 99 99 93 99 98 92 95 95 91 88 88 83 81 81 76 98 97 90 99 98 92 90 90 85 88 88 84 105 104 98 102 102 97 105 104 98 111 110 104 83 84 81 108 107 100 93 93 88 102 101 94 82 82 78 72 73 70 72 73 69 77 77 74 89 89 83 89 88 82 99 98 91 66 67 64 72 73 70 74 75 71 94 94 87 72 72 68 92 91 84 61 62 58 83 82 75 57 58 55 81 81 76 75 75 71 82 82 76 95 94 87 95 94 88 79 79 75 67 67 64 85 85 79 67 68 64 73 73 69 75 75 70 78 78 73 84 84 78 89 88 81 85 84 79 74 75 72 75 75 71 96 95 90 105 104 98 116 115 108 90 90 85 103 103 97 113 113 106 80 80 77 97 96 90 92 92 87 101 101 95 76 77 74 101 101 94 104 103 97 113 112 105 109 108 101 83 84 81 112 112 105 79 80 76 87 87 83 107 106 100 98 97 91 71 71 67 70 70 66 88 87 81 65 66 63 95 95 90 100 99 93 77 78 74 87 88 83 94 93 87 80 80 75 105 104 97 64 65 61 68 69 65 67 67 63 66 67 63 86 86 79 62 63 60 91 90 83 90 89 82 74 74 70 77 77 72 73 74 70 100 99 93 63 64 61 88 88 82 70 70 66 74 74 70 57 58 55 72 72 68 66 67 64 99 99 93 88 88 82 101 100 94 102 101 96 97 97 92 103 103 97 114 113 106 78 79 75 82 82 79 91 91 85 70 71 67 85 86 82 79 80 76 104 103 97 80 81 77 96 96 92 112 111 104 102 103 98 109 108 101 78 79 76 95 95 90 91 91 86 87 87 83 81 81 76
84 84 81 101 101 94 84 84 80 97 97 91 95 95 89 104 103 97 76 76 72 100 100 94 88 89 84 69 70 66 114 113 106 88 88 84 102 102 97 100 101 96 112 112 105 80 81 78 95 95 90 105 105 100 95 95 89 105 104 98 81 81 76 69 70 67 93 93 87 67 68 65 71 72 68 105 105 98 84 85 81 114 113 106 104 103 97 85 85 80 89 88 82 100 99 92 79 79 74 84 83 77 88 87 81 61 62 58 60 61 57 66 66 62 81 81 75 75 75 70 71 72 69 106 105 98 96 96 89 75 76 71 90 90 84 69 70 66 69 69 65 98 97 90 86 86 80 78 78 73 85 85 79 73 73 69 85 85 80 100 100 94 102 102 96 95 94 88 79 80 76 96 96 91 79 80 76 82 83 78 90 90 84 110 109 102 76 77 73 82 83 79 102 101 95 83 84 81 104 103 97 98 98 93 92 92 88 95 95 90 113 112 106 101 101 96 83 84 80 91 91 86 94 94 89 85 84 79 76 76 72 102 101 95 76 77 74 83 83 78 88 88 84 89 90 85 69 70 66 110 109 103 102 101 94 90 89 83 68 68 64 88 88 82 59 60 56 77 77 72 64 65 62 72 73 69 69 70 66 86 86 81 68 69 66 81 81 76 73 73 69 101 101 94 81 80 75 91 91 85 92 91 85 72 72 67 56 57 54 86 86 81 103 102 96 82 82 77 80 80 76 100 100 94 88 89 85 103 102 97 85 85 80 82 83 79 102 101 95 100 99 94 81 81 78 69 70 67 70 70 67 98 98 92 105 104 98 105 104 99 91 91 88 101 101 96 84 85 81 103 103 97 86 87 83 77 78 75 96 95 89 66 67 64
100 99 92 89 89 84 87 87 81 84 84 79 71 72 69 95 95 89 80 80 75 104 103 97 78 78 74 99 98 91 76 77 74 113 113 106 96 96 91 81 82 79 93 93 88 87 88 85 102 102 97 87 88 84 77 78 75 76 77 74 84 85 81 89 89 84 71 72 68 84 84 79 107 106 99 90 90 85 83 84 79 94 94 89 91 91 86 87 88 83 85 85 80 61 62 59 96 95 89 78 78 73 89 88 83 61 62 59 62 63 59 60 61 58 91 91 85 97 97 91 76 77 72 79 79 74 84 83 77 70 70 66 100 99 92 65 66 61 72 73 68 67 67 63 88 88 82 91 90 84 94 93 86 83 83 79 94 93 88 80 80 76 83 83 79 75 76 72 102 101 94 69 70 66 71 71 68 76 76 72 86 86 82 103 102 96 102 101 95 82 82 78 98 98 93 100 100 95 95 95 91 88 89 85 95 96 91 112 111 105 108 107 101 83 84 81 107 106 99 100 99 92 67 68 65 85 85 82 112 111 104 75 76 72 99 98 92 76 77 74 102 101 95 79 80 77 101 100 93 95 94 88 87 87 82 75 75 72 75 75 71 63 64 60 94 94 87 78 78 72 81 81 76 97 97 91 88 87 81 96 96 90 88 88 82 68 69 66 62 63 60 82 82 76 92 92 86 96 95 88 74 74 70 62 62 59 92 91 85 89 89 82 94 93 86 90 90 84 102 101 95 86 86 81 90 90 86 94 94 89 109 108 102 99 99 92 109 108 101 95 94 88 73 73 69 75 76 72 90 90 84 84 85 81 88 88 85 119 118 112 104 104 99 116 115 108 81 82 79 114 113 107 88 88 84 89 89 84 106 105 98 101 101 95
89 89 84 89 88 83 87 88 83 94 93 86 98 97 90 72 73 68 93 93 87 93 93 87 69 70 67 79 79 75 101 100 94 105 105 99 93 93 89 105 104 98 105 104 99 105 105 99 96 96 90 103 103 98 110 109 103 96 96 89 89 89 84 75 76 73 75 76 73 84 85 81 102 102 96 109 109 103 119 118 111 95 95 90 107 106 100 94 94 89 83 83 79 81 81 76 78 78 74 70 71 68 91 91 85 92 91 84 76 77 73 70 71 67 78 78 73 98 98 91 107 106 99 72 73 69 70 70 66 74 75 71 85 84 78 65 66 62 69 70 66 86 85 80 77 76 70 86 86 80 72 72 68 90 89 83 83 83 78 84 84 79 99 98 92 77 77 74 76 76 72 77 78 73 76 76 71 71 72 68 88 88 83 85 85 80 82 82 77 106 105 99 79 80 77 96 96 91 105 105 99 89 90 86 84 84 80 117 116 109 93 93 89 107 106 100 99 99 93 94 94 88 107 106 99 109 108 101 105 104 97 76 76 73 99 99 93 111 111 105 95 95 90 107 106 100 108 107 100 98 98 92 73 73 69 80 80 76 67 68 65 81 81 77 95 95 88 61 62 59 92 91 85 83 83 79 76 77 72 90 89 84 76 76 72 79 79 74 90 89 83 81 81 76 76 76 70 83 83 77 88 88 82 58 59 56 75 75 71 79 79 73 91 91 84 86 87 82 71 72 69 71 71 68 107 106 99 72 73 69 103 102 96 89 89 84 81 82 77 81 81 76 97 96 90 79 80 76 106 105 99 105 104 99 86 86 82 96 96 92 100 100 95 101 101 96 103 103 97 103 103 97 102 101 95 83 83 79 84 84 79 84 84 79
95 94 87 101 101 94 92 92 85 75 75 71 83 83 77 66 67 63 72 72 69 69 69 65 93 93 87 68 69 66 104 103 96 92 92 88 94 94 89 85 86 82 95 95 90 101 101 95 87 88 84 92 92 87 91 92 87 91 90 84 78 78 74 86 87 83 106 106 100 108 107 101 85 86 82 94 94 89 93 93 88 84 84 80 114 113 106 104 104 98 68 69 66 90 90 85 84 84 78 93 92 86 69 69 65 78 78 74 73 74 70 73 74 71 89 89 83 91 91 86 84 84 80 68 69 65 102 101 94 79 79 73 68 69 65 75 75 71 70 70 65 79 78 72 70 70 65 85 85 79 73 73 68 99 98 92 75 76 73 76 77 74 76 77 74 83 83 79 67 68 65 83 83 78 70 71 67 83 83 78 104 103 96 94 94 88 82 82 79 94 94 89 80 80 76 104 104 98 94 94 90 83 84 80 102 101 95 91 91 86 107 107 100 95 94 88 92 92 87 80 80 77 84 85 80 83 84 81 101 101 96 97 97 91 93 93 88 101 101 96 97 97 93 99 99 93 79 79 75 68 69 66 94 94 88 95 95 89 80 80 76 72 72 68 69 69 66 76 76 71 91 91 85 94 94 89 98 97 92 78 79 75 78 78 74 100 99 92 70 70 65 80 80 75 71 71 67 81 80 74 60 61 57 93 92 85 70 70 66 81 80 75 92 91 84 64 65 62 93 93 87 73 74 70 94 94 88 75 76 72 77 78 73 96 95 88 88 87 81 78 78 74 86 86 81 79 79 75 88 88 84 76 76 73 84 85 82 101 101 96 105 105 100 96 96 90 115 114 108 94 94 90 101 100 94 92 91 86 78 79 75 78 78 74
94 94 88 59 60 57 93 93 86 71 71 66 74 74 70 91 90 84 91 90 85 73 74 69 92 92 87 80 81 77 96 95 89 83 84 80 103 102 97 89 89 84 109 109 103 86 86 81 93 93 89 84 84 79 83 83 78 102 101 95 114 113 106 79 79 76 97 97 92 99 99 95 101 101 95 83 84 81 103 103 97 82 83 79 85 85 80 104 103 97 70 71 68 79 79 76 92 91 86 71 72 68 83 83 78 81 81 77 103 102 95 68 69 66 99 99 92 104 103 97 101 101 95 75 76 71 61 62 59 98 97 90 83 83 78 82 82 76 60 61 58 78 78 74 84 84 79 62 63 59 75 76 72 66 67 63 90 90 85 65 66 62 87 87 82 77 77 72 75 75 70 63 64 61 95 94 87 83 82 76 70 71 68 81 81 77 101 100 94 103 102 95 85 85 80 108 108 102 100 100 94 100 100 94 105 105 99 86 87 82 89 89 83 108 107 101 86 86 82 87 87 82 74 75 72 73 73 70 96 96 90 93 93 89 95 96 92 86 86 83 102 101 95 82 82 79 86 87 83 103 103 97 81 81 78 77 78 73 90 90 84 84 83 78 96 96 90 82 82 78 69 70 67 100 99 93 76 76 73 101 100 95 95 94 88 76 77 73 89 89 83 75 75 71 84 84 78 86 85 79 82 82 77 87 86 81 90 89 83 84 84 79 91 90 84 84 84 78 66 67 64 79 80 76 79 79 75 87 86 80 70 70 66 79 79 73 90 90 84 89 88 83 70 71 67 91 91 86 68 69 66 114 113 106 88 88 84 110 110 103 86 87 83 106 105 100 100 100 94 89 89 84 112 112 105 93 93 88 105 104 98 94 94 88
80 80 75 60 61 57 69 70 65 91 91 85 67 68 64 68 68 65 74 74 69 75 75 70 86 86 81 68 69 66 100 99 94 73 74 70 70 71 68 106 105 98 82 83 80 87 87 83 102 101 95 81 81 76 86 86 80 77 78 74 101 100 94 104 104 98 90 91 86 91 92 87 98 98 92 108 107 100 84 84 80 118 117 110 109 108 102 89 89 83 97 97 92 104 103 97 94 93 88 99 99 93 91 91 86 83 83 79 86 86 81 102 102 96 74 74 71 73 73 70 112 111 104 88 88 81 86 85 79 61 62 59 75 75 71 95 94 88 66 66 61 83 82 76 85 85 79 77 78 74 92 92 85 95 94 88 94 93 87 84 84 79 92 92 86 67 67 64 82 82 77 98 97 90 64 65 61 80 80 75 71 71 67 84 84 78 73 74 70 95 95 89 101 101 96 82 82 77 69 70 67 85 85 82 87 87 83 73 73 69 83 83 78 94 94 89 102 101 94 68 69 65 79 80 76 101 101 95 122 122 115 90 91 86 79 80 77 95 94 89 106 106 99 105 105 99 85 85 80 97 97 91 95 95 90 81 82 78 76 77 73 103 103 96 80 81 77 78 79 74 80 81 77 108 108 101 86 87 83 86 87 82 104 103 96 72 72 68 62 63 60 62 62 58 78 78 73 82 82 77 69 69 65 85 85 79 76 77 73 97 96 91 106 105 98 75 76 73 87 87 81 87 87 82 82 81 76 92 91 85 57 58 55 91 90 84 73 73 69 65 65 62 72 73 70 68 69 66 80 81 78 109 108 102 91 90 85 104 104 97 102 102 96 101 101 95 85 86 82 100 100 94 91 91 85 94 94 89 74 74 70 102 101 94
70 70 66 66 67 63 88 87 80 52 53 50 58 59 55 73 73 67 59 59 56 80 80 75 78 79 75 84 84 80 102 102 96 80 80 76 100 99 94 92 92 86 93 93 88 71 71 68 92 92 87 65 65 62 73 73 69 78 78 74 93 92 87 91 91 86 97 97 91 106 106 100 100 100 96 94 94 89 85 86 81 91 91 86 77 78 74 96 95 89 94 94 88 100 100 94 93 93 88 76 76 72 94 94 89 88 88 83 85 86 82 91 91 86 109 108 102 104 103 97 99 98 92 73 74 70 78 79 74 63 64 61 93 92 86 67 68 64 72 73 70 80 81 76 75 76 72 85 85 80 65 66 63 88 87 81 69 70 66 84 84 78 88 88 82 65 65 61 80 79 74 93 93 86 82 82 76 82 81 76 98 98 91 90 90 84 106 105 98 102 102 96 82 83 79 86 86 83 73 74 71 71 72 68 85 86 81 96 96 89 82 83 79 91 91 85 73 73 70 90 90 86 89 89 85 105 105 98 110 109 102 92 92 88 107 107 101 119 118 111 104 103 97 91 91 85 94 94 88 100 100 93 77 78 74 106 105 98 69 70 66 78 79 75 105 104 98 91 91 87 108 107 101 96 96 91 75 75 72 95 95 90 87 87 82 66 67 64 84 84 79 94 94 88 85 85 79 89 88 83 96 95 88 73 73 69 66 67 63 101 100 94 88 87 82 71 72 68 90 90 84 72 72 67 64 65 61 75 75 70 67 68 64 70 70 65 91 90 84 85 85 79 61 62 59 98 97 90 101 100 94 101 101 95 85 85 80 109 108 102 92 92 87 81 81 77 70 71 67 88 88 82 99 99 93 74 75 70 83 83 78 95 95 90
95 94 87 86 85 79 63 64 60 54 55 52 93 92 86 80 79 73 79 79 73 82 82 77 81 82 77 93 93 88 97 97 91 99 98 91 92 92 87 73 74 71 91 91 85 82 82 77 87 87 82 88 88 82 68 68 65 92 91 86 99 98 92 102 102 96 95 96 92 96 97 92 82 83 79 105 105 98 84 85 81 103 103 97 87 87 83 97 97 91 83 83 79 84 84 80 112 111 105 83 84 81 85 86 83 85 86 83 104 104 97 104 104 98 110 109 102 87 87 82 92 92 86 78 79 75 69 70 65 68 69 65 79 80 75 73 74 70 81 80 75 93 93 86 84 84 78 101 100 94 82 82 77 89 89 83 71 71 67 71 72 68 90 90 83 72 72 67 60 61 57 87 87 81 80 79 74 69 69 65 77 77 72 71 72 69 72 73 70 74 75 71 102 101 95 86 86 81 72 73 70 74 74 71 78 79 75 100 100 94 73 73 69 108 107 100 67 68 64 91 91 86 91 90 85 98 98 93 111 111 105 107 106 100 89 90 86 112 111 104 94 94 90 115 114 107 76 77 73 78 78 75 109 108 101 97 97 91 100 100 95 75 76 72 115 114 107 116 115 109 98 97 91 104 103 98 112 111 104 71 72 68 67 68 64 76 76 71 96 95 89 81 81 76 67 68 64 67 68 64 101 100 94 75 75 70 87 87 82 91 91 85 100 100 94 77 77 72 75 75 71 77 77 73 71 72 67 51 52 49 70 71 66 73 73 69 97 96 90 90 89 83 82 82 77 95 94 88 82 82 77 87 87 83 78 79 74 101 100 94 82 83 79 106 105 98 69 70 66 81 82 78 84 85 81 83 83 78 100 99 93 79 79 76
90 89 84 64 64 60 80 80 74 77 77 72 82 82 77 92 91 86 63 64 61 78 78 74 85 85 79 88 88 82 70 70 67 95 94 87 92 91 85 83 83 79 93 93 86 90 89 84 79 79 75 81 81 76 81 81 76 101 100 93 108 107 100 84 85 81 87 88 84 91 91 86 102 101 96 99 99 94 113 112 106 87 88 84 92 92 87 101 100 94 107 106 100 70 71 67 82 82 78 109 108 102 88 88 85 80 81 78 100 100 94 96 96 91 86 87 82 95 95 89 81 81 77 87 87 81 95 94 87 85 85 80 65 65 62 87 87 81 84 84 78 81 81 77 80 80 75 86 87 82 102 101 94 104 103 96 84 84 78 64 64 61 52 53 50 83 83 77 61 62 58 82 81 76 59 60 57 85 85 80 103 103 96 67 68 65 86 86 82 83 83 78 97 97 91 102 101 94 85 86 81 73 73 69 86 86 81 81 81 77 92 92 86 95 95 89 76 77 73 92 92 87 117 116 109 86 87 84 82 83 80 113 112 105 98 98 92 96 96 90 85 86 82 86 87 82 86 86 81 74 75 71 77 78 75 102 101 96 100 100 95 95 95 90 98 98 92 113 112 106 105 104 98 102 102 97 90 90 86 88 88 83 105 105 98 101 100 94 76 76 71 76 77 73 80 80 75 89 89 84 82 83 78 80 80 75 88 88 83 73 74 71 68 69 65 96 95 88 88 87 81 65 65 62 87 86 80 75 74 69 93 92 86 62 63 59 75 75 70 99 98 92 61 62 59 85 85 80 94 94 88 106 105 99 75 76 73 83 84 79 87 86 80 94 93 86 104 104 97 79 80 75 75 76 73 104 103 96 112 111 104 110 109 103
83 83 78 58 59 56 68 69 65 86 85 79 84 84 78 91 90 83 80 80 75 94 94 88 83 83 79 97 96 90 83 83 78 64 65 62 104 103 96 96 96 89 71 71 67 79 79 75 74 75 70 93 93 86 96 96 90 86 86 80 93 93 88 101 101 95 87 87 82 114 113 107 94 94 89 104 104 98 90 90 85 80 80 77 87 87 82 112 111 104 106 105 99 84 85 81 114 113 106 113 113 106 83 84 81 90 90 87 106 105 99 85 86 82 80 81 76 94 94 88 90 90 84 102 102 95 60 60 57 73 74 69 93 93 87 82 81 76 88 88 82 71 71 67 105 105 98 79 79 74 72 73 70 83 82 77 69 69 65 66 67 64 53 54 50 63 63 59 83 83 77 65 65 62 79 79 74 76 76 72 85 84 79 102 101 94 93 93 88 77 78 74 98 97 91 89 88 82 92 91 85 100 100 93 76 76 72 85 85 81 88 88 82 88 88 83 76 77 73 78 79 75 95 95 90 102 102 97 101 101 95 99 99 94 93 93 87 83 83 80 77 78 74 70 71 68 74 75 72 83 83 78 88 88 83 96 96 91 107 106 99 103 102 97 95 96 92 99 99 94 79 79 76 89 89 84 101 100 94 89 89 84 96 96 89 93 92 87 75 75 70 99 98 91 100 99 92 67 68 64 77 78 75 71 72 69 82 82 76 73 74 70 95 95 89 83 82 77 80 80 76 85 85 78 86 85 80 64 65 61 67 67 63 96 95 88 78 78 74 85 85 80 81 82 78 93 92 86 101 100 93 82 82 78 74 75 71 72 73 70 100 100 93 70 71 68 72 73 69 78 78 74 66 67 64 82 82 78 82 83 79 86 86 82
78 78 73 73 74 69 78 78 72 71 71 66 75 75 70 89 89 84 105 104 97 72 73 69 90 89 83 89 89 83 64 65 62 91 91 85 66 67 62 80 80 75 73 73 68 89 89 83 80 80 75 99 98 91 99 99 92 84 84 80 105 104 98 108 107 100 77 78 75 102 102 96 80 80 76 95 95 90 106 105 99 97 97 92 78 79 74 110 109 102 91 91 87 87 87 82 89 90 86 101 102 97 77 77 74 87 87 83 107 106 99 105 104 99 95 95 90 81 81 76 79 80 75 83 83 79 98 97 91 98 97 91 96 95 88 104 103 97 102 102 96 105 104 98 110 109 102 85 85 79 68 68 65 87 87 82 68 69 66 90 89 83 72 72 67 87 87 81 72 72 67 80 80 74 84 83 77 76 76 71 97 97 90 73 74 70 78 78 74 77 77 74 63 64 60 64 64 61 99 98 92 74 75 71 69 69 66 95 95 89 75 75 71 77 78 74 102 102 96 89 89 84 88 89 85 88 89 85 97 97 92 93 93 88 91 91 85 76 77 73 75 76 72 113 112 105 112 111 105 99 98 91 77 77 74 87 87 84 107 106 100 105 105 100 88 88 84 112 111 105 91 91 87 111 110 103 80 80 75 75 76 72 83 83 79 86 86 80 61 62 59 89 89 83 84 84 79 88 88 82 102 101 95 99 98 93 67 68 65 79 79 75 96 95 89 62 63 60 58 59 56 62 62 58 85 85 80 88 87 81 68 68 64 70 71 67 72 72 69 69 70 67 74 75 71 65 66 62 96 95 89 66 67 64 63 64 61 73 73 69 82 82 76 59 60 57 90 90 85 80 81 77 105 104 97 106 105 99 100 100 94 100 100 94
77 77 73 82 82 76 79 79 75 66 67 64 71 71 66 64 65 61 99 98 91 77 77 72 81 81 77 70 71 68 77 78 74 64 65 62 91 91 84 92 91 84 60 61 58 83 83 78 85 85 79 69 70 67 96 95 89 90 90 85 87 87 83 77 78 75 80 81 77 90 90 86 86 87 83 83 83 79 77 77 73 76 77 73 99 98 92 100 100 95 84 85 81 102 101 96 80 81 77 97 97 92 90 90 86 118 117 110 90 90 86 77 77 73 100 100 93 74 75 71 97 96 90 81 82 78 89 89 84 89 89 83 74 75 71 92 91 85 101 101 95 86 86 82 86 86 81 88 88 82 94 94 88 93 93 86 74 74 70 87 86 80 64 65 61 85 85 79 80 80 75 95 94 88 93 92 85 76 76 72 80 81 76 79 80 76 84 84 79 89 89 83 87 87 81 77 77 73 73 74 69 74 74 69 73 73 68 91 91 86 80 80 75 86 86 81 85 86 81 76 76 73 112 111 105 95 95 90 78 79 75 106 106 99 92 92 88 70 71 68 109 108 102 94 94 88 98 98 93 100 100 94 98 98 92 87 87 83 111 110 104 89 90 87 94 94 90 87 87 83 112 111 104 76 77 73 91 91 85 74 74 70 89 88 83 78 78 73 74 74 70 74 74 70 86 86 82 104 103 97 63 64 61 99 98 91 69 69 66 71 72 69 78 78 74 79 79 74 77 77 72 61 61 57 76 76 71 87 87 81 74 74 70 83 82 77 72 72 68 74 74 71 91 90 84 92 92 85 86 86 80 93 93 87 102 101 94 82 81 76 94 93 87 90 90 83 88 88 82 92 91 85 96 95 89 112 111 105 94 95 90 85 85 81
61 61 58 71 71 67 59 60 56 65 66 63 80 80 75 71 72 68 80 80 75 75 76 72 83 83 78 100 100 94 91 90 83 67 68 64 90 89 84 84 84 78 72 72 68 82 82 78 89 89 83 89 89 83 103 102 96 105 104 98 90 90 86 87 88 83 110 109 102 110 109 102 105 105 99 92 92 88 87 87 82 94 93 88 100 100 94 107 107 100 73 74 71 75 76 73 98 99 94 99 99 94 93 93 88 104 103 98 103 102 95 90 90 85 93 93 88 75 76 73 83 83 79 84 85 80 74 75 71 84 84 79 81 82 78 88 88 82 107 106 100 92 92 87 79 80 76 79 79 75 87 86 80 77 77 72 82 81 75 54 55 51 59 59 55 86 85 79 90 89 83 88 87 81 93 93 86 100 99 92 96 95 88 93 93 87 95 94 88 97 96 89 72 73 70 89 88 83 76 77 73 102 101 94 61 62 59 72 72 69 86 86 80 87 87 84 90 90 86 77 78 75 96 96 92 113 113 107 96 96 90 109 108 102 98 97 92 112 111 104 103 102 96 101 100 94 86 86 82 95 95 90 86 86 82 91 91 87 110 109 103 108 107 100 92 93 88 77 78 74 74 74 70 66 67 64 80 80 77 86 86 82 78 78 73 72 72 68 80 81 77 76 76 72 75 76 72 98 97 90 103 102 95 93 92 87 88 88 83 84 84 79 67 68 64 98 98 91 84 84 79 77 77 73 78 77 71 83 83 78 93 92 86 76 76 71 101 100 93 92 92 86 79 79 74 90 90 85 95 95 88 95 95 88 99 98 92 87 87 81 101 100 93 106 105 98 76 77 73 110 109 102 90 90 85 82 83 80 106 105 99 99 99 93
53 54 50 75 74 69 77 77 73 75 75 71 96 95 88 75 76 72 100 99 92 96 96 90 95 95 89 97 97 91 81 81 75 83 83 78 90 90 84 68 69 66 88 88 82 83 83 79 105 104 97 77 78 74 78 79 76 101 101 95 97 97 91 102 102 96 102 101 95 93 93 87 93 93 87 73 74 70 72 72 69 74 74 71 97 97 93 100 100 94 99 98 93 94 94 88 81 81 78 109 108 101 81 82 79 83 84 80 80 81 78 101 100 94 69 70 67 69 70 66 85 85 80 70 70 67 103 102 95 104 103 97 72 73 69 108 108 101 86 86 80 94 93 87 94 93 88 94 93 86 83 83 78 64 65 61 75 75 70 69 70 66 69 69 65 63 64 60 89 88 82 61 61 58 88 88 84 78 78 73 94 94 89 83 84 80 83 83 78 89 89 83 82 82 76 90 90 84 100 99 92 73 74 70 90 89 83 82 82 78 92 92 88 86 86 82 100 99 93 102 102 97 105 104 98 100 99 94 101 100 95 104 103 98 92 92 88 102 101 95 108 108 101 113 112 105 97 97 92 100 100 95 97 97 92 112 111 105 89 89 85 84 85 81 109 108 102 77 78 75 83 83 80 99 99 93 79 79 75 88 88 82 92 92 86 86 85 79 95 95 88 97 96 89 84 84 80 77 78 74 76 77 73 93 92 87 95 95 89 76 76 70 57 57 54 80 80 76 63 64 60 66 66 63 73 73 69 73 73 69 70 71 68 101 100 94 71 72 69 66 67 63 101 100 94 92 92 86 91 91 85 85 85 80 93 93 86 80 80 74 94 93 87 71 72 69 77 78 74 103 102 95 92 92 86 113 112 106 98 98 92 117 116 109
73 73 69 91 91 85 101 100 93 69 70 66 87 87 81 75 76 72 98 98 92 91 91 86 101 100 93 71 72 69 66 67 62 56 57 54 78 78 74 98 97 90 79 79 74 91 91 85 110 109 103 74 74 71 118 117 110 116 115 109 82 82 78 81 81 77 95 95 89 97 96 90 78 79 75 100 100 94 91 91 87 88 89 85 109 108 101 86 86 83 102 102 96 115 114 107 105 105 100 95 96 92 88 88 85 85 86 82 84 84 80 67 67 64 74 75 71 71 72 69 92 91 84 80 80 75 78 78 73 87 87 82 91 91 85 95 95 89 93 93 88 80 81 76 72 72 67 72 72 68 90 89 83 61 62 59 71 70 65 66 66 63 76 76 70 82 81 76 72 72 67 98 98 92 89 89 84 77 77 72 94 94 88 72 72 68 75 76 72 80 80 75 75 75 70 63 64 60 80 80 75 97 96 90 102 101 95 86 86 82 115 114 108 77 78 74 116 116 109 75 76 73 109 109 103 98 98 92 111 110 103 77 78 75 86 86 81 80 81 76 75 76 73 97 97 92 97 96 90 100 101 96 106 106 99 110 110 104 95 95 91 100 100 94 105 104 98 81 82 77 99 98 91 86 86 80 80 80 76 101 100 93 87 87 82 88 88 83 92 92 86 96 96 90 77 78 74 98 97 91 98 97 91 65 65 62 76 76 72 88 87 80 70 70 66 61 62 58 58 59 56 66 67 63 75 75 70 84 83 78 95 94 88 64 65 62 81 81 78 99 98 91 67 68 65 74 75 72 100 99 93 87 87 82 105 104 97 100 99 93 91 91 85 104 103 96 101 101 94 84 84 80 104 103 97 106 105 99 86 86 82 98 98 93
88 88 82 92 91 86 92 91 84 92 91 86 68 69 66 83 83 78 65 66 62 88 88 83 87 87 81 90 90 84 63 64 61 65 65 62 75 76 72 83 83 78 90 90 86 103 102 96 88 88 84 74 75 72 101 101 95 104 104 99 109 108 102 86 86 81 75 76 73 83 84 80 86 86 82 81 81 77 90 90 86 105 104 98 97 97 92 89 89 85 98 98 93 80 81 77 86 86 82 91 91 86 96 96 91 91 91 87 94 93 87 97 96 89 88 87 81 88 88 83 87 87 82 76 77 73 94 93 88 78 78 75 84 84 80 94 93 88 97 96 89 71 72 67 76 77 72 57 58 54 73 73 69 68 69 65 94 94 87 87 87 80 61 61 58 74 74 69 107 106 99 83 83 78 65 66 62 73 74 70 87 87 83 64 65 62 74 74 70 88 88 81 75 76 72 63 64 61 66 67 63 91 91 86 108 107 100 112 111 104 83 83 79 115 115 108 92 93 89 110 109 102 84 85 82 83 84 79 95 95 89 108 108 101 85 85 80 78 79 75 84 84 80 88 89 85 106 106 99 85 86 81 107 107 100 103 103 97 79 80 77 109 108 102 102 102 96 78 79 75 62 63 60 90 90 85 93 92 86 66 67 64 90 89 83 97 96 90 81 81 77 82 83 79 95 95 88 75 76 71 84 84 80 67 68 65 87 87 80 76 76 72 81 81 76 73 73 68 60 61 57 66 67 62 98 97 91 95 94 87 83 83 79 91 91 86 74 75 72 98 98 92 77 78 73 70 71 68 102 101 94 95 94 88 79 79 73 80 80 75 103 103 96 89 89 84 90 90 85 102 102 96 120 119 113 108 107 101 103 103 97 102 101 95
91 90 83 101 100 94 74 74 69 97 96 90 93 92 86 76 77 73 87 87 82 72 72 68 78 79 75 89 88 82 74 75 70 105 104 97 89 89 85 83 83 78 85 85 81 111 110 103 82 83 79 91 91 87 87 88 84 90 91 87 81 82 79 86 87 84 99 98 92 106 105 99 109 108 101 78 78 74 71 72 69 77 78 74 116 115 108 99 99 95 81 82 79 100 100 95 106 105 99 85 85 81 80 80 76 79 80 76 78 79 75 84 84 78 72 72 68 91 90 84 98 97 90 83 83 78 83 84 80 73 74 70 91 91 86 82 82 78 86 86 81 81 81 76 68 68 64 64 65 60 68 68 63 55 56 52 93 92 85 84 84 79 80 80 75 76 77 72 73 73 70 85 85 79 87 87 82 91 90 85 76 77 73 75 76 72 75 76 71 92 91 85 92 91 86 80 80 76 76 77 73 112 111 104 99 99 93 91 91 87 110 109 102 97 96 91 101 101 96 103 103 97 82 82 78 100 99 94 95 95 91 102 101 96 99 98 93 100 99 93 96 95 89 87 88 84 86 87 83 96 96 90 87 87 83 74 75 72 82 83 80 86 86 81 89 89 84 85 85 81 62 63 59 96 95 89 80 81 76 80 80 75 85 85 79 65 66 63 87 87 83 69 70 66 102 101 95 69 70 66 77 78 74 65 66 61 70 70 66 79 79 74 84 83 77 55 55 52 74 74 69 87 86 80 90 89 84 103 102 95 77 77 73 102 102 96 80 80 77 71 71 68 73 74 70 76 76 72 72 73 70 91 91 84 77 77 73 81 82 78 103 102 96 91 91 86 90 90 85 94 94 89 98 98 94 92 92 87 114 113 106 117 116 109
94 93 87 91 91 84 96 96 89 79 80 76 96 95 88 88 88 83 73 74 71 92 91 85 87 87 82 64 65 62 98 98 92 92 92 85 95 94 88 78 78 74 105 105 98 109 108 101 96 96 92 85 85 81 87 87 83 90 90 85 113 112 106 98 97 92 84 85 80 86 86 81 98 97 92 107 106 99 95 95 90 80 81 77 101 101 96 79 80 77 95 96 91 105 104 98 88 88 83 105 104 98 85 85 79 88 88 82 95 94 88 63 63 60 83 83 77 81 81 76 83 83 77 102 101 95 91 90 85 98 97 90 79 79 75 85 85 80 71 72 68 88 87 81 77 77 72 73 74 69 70 71 66 89 89 83 74 74 69 73 73 69 82 81 76 78 79 75 95 95 90 84 84 80 104 103 97 102 101 94 103 102 95 92 92 85 88 87 81 87 87 82 102 101 95 98 98 91 85 85 81 90 90 85 95 95 91 110 110 103 119 118 111 90 90 85 89 90 86 113 113 106 102 101 95 81 82 79 92 92 86 94 94 89 98 97 91 89 89 84 88 88 84 90 90 85 104 103 97 82 82 78 106 105 99 81 81 78 78 79 75 95 94 88 79 79 74 88 88 83 82 82 76 88 87 82 65 65 62 89 88 82 75 76 72 80 80 77 96 96 90 94 93 86 76 76 72 76 76 72 68 69 64 89 89 82 79 79 73 82 81 74 67 68 63 69 69 65 82 82 76 82 82 77 99 98 91 91 91 86 74 75 71 104 103 96 79 79 75 96 95 89 74 75 71 76 76 72 67 68 64 87 87 82 98 97 90 77 78 75 88 88 82 83 84 79 118 117 111 98 98 92 96 96 92 106 105 100 107 107 101 79 80 77
92 91 85 84 84 78 88 88 84 98 98 92 86 86 80 96 95 89 98 98 91 70 71 67 100 99 93 93 93 86 68 68 65 78 78 74 101 100 94 89 90 86 94 94 90 90 90 86 105 105 100 109 109 103 107 107 101 109 108 101 101 101 95 89 89 84 91 91 86 95 95 89 86 86 82 94 93 88 98 97 92 111 110 103 88 88 83 102 102 96 103 102 96 90 90 85 75 75 71 67 67 64 79 80 75 92 92 86 76 76 71 74 75 70 99 98 92 70 71 68 89 89 82 98 98 91 96 95 89 68 69 65 95 95 89 82 82 77 80 80 74 57 58 55 87 86 80 82 82 77 88 88 82 71 71 68 83 83 78 84 84 78 93 92 86 66 67 63 90 91 86 78 79 75 69 69 66 78 79 75 100 99 93 80 81 77 73 74 71 80 80 75 73 73 70 83 83 78 86 87 83 106 105 99 101 101 96 107 107 101 94 94 90 106 105 100 92 92 87 86 86 82 101 101 95 80 80 76 79 80 75 88 88 83 75 76 73 87 87 83 102 102 96 111 110 104 107 107 101 97 97 91 90 90 85 79 80 75 98 98 92 68 69 65 71 71 67 87 86 80 101 100 93 59 60 57 76 76 71 66 66 63 77 78 73 100 100 93 98 97 91 97 96 90 77 77 72 90 89 83 92 91 85 91 90 84 66 66 62 87 86 80 85 84 79 101 101 94 74 75 71 100 100 93 68 69 66 99 99 94 107 106 100 85 85 80 75 75 72 91 91 85 98 97 92 81 82 78 71 72 68 77 78 74 94 94 88 103 103 97 85 85 81 100 99 94 112 112 106 84 85 81 91 92 88 112 112 106 104 104 98 78 79 76
74 75 71 69 69 66 91 91 86 95 95 90 103 102 95 87 87 82 68 69 66 76 76 71 102 101 95 103 102 96 90 89 84 94 94 89 102 101 95 84 85 81 95 96 91 115 115 109 83 84 80 115 115 108 91 91 86 108 107 101 89 89 84 84 85 80 94 93 88 92 91 86 88 88 82 96 96 90 113 112 106 100 100 94 93 94 89 114 113 106 107 106 100 79 80 77 64 65 62 65 66 62 87 86 80 73 73 69 84 83 77 97 96 90 86 85 80 94 94 87 67 67 64 92 91 86 72 73 69 75 76 72 88 88 82 81 81 76 80 80 74 60 61 58 63 64 60 64 64 60 71 72 68 86 86 80 86 86 80 93 93 87 76 77 73 85 85 80 107 106 100 68 69 66 93 92 87 98 98 91 94 93 87 76 77 74 79 80 76 81 81 77 99 98 93 96 96 90 103 103 97 84 85 82 100 100 95 105 105 100 99 98 93 90 91 86 80 81 78 98 98 92 72 73 70 65 66 63 86 86 82 95 95 88 83 83 79 103 102 96 101 101 95 88 88 83 71 72 69 91 91 86 91 91 86 80 80 75 104 103 96 96 95 89 95 94 87 92 92 85 57 58 55 85 85 79 70 70 65 76 76 71 86 86 81 82 81 76 70 71 67 85 84 78 97 96 90 63 64 61 81 80 74 78 77 71 91 90 84 61 62 59 81 82 77 85 85 79 87 87 81 80 80 76 91 91 87 103 102 97 80 81 77 89 89 84 83 83 79 80 81 76 92 92 87 77 78 74 77 77 73 75 76 73 89 89 84 95 95 90 109 109 102 96 96 92 88 89 86 112 111 106 83 83 79 107 107 101 74 75 72 94 94 88
82 82 78 88 89 85 90 90 85 95 95 90 85 85 80 88 88 82 98 98 92 95 95 89 90 91 86 68 69 66 75 76 73 95 95 91 120 119 112 100 100 95 92 92 88 113 113 107 113 112 105 97 97 92 99 99 95 89 89 84 71 72 69 98 98 92 90 90 84 75 76 73 92 92 87 99 98 93 85 85 80 101 100 94 99 99 93 91 91 86 81 81 78 89 88 83 103 103 96 80 80 74 65 66 62 71 72 68 65 66 63 80 80 74 95 94 87 72 72 68 91 90 85 75 75 71 65 65 62 71 71 67 81 81 77 69 69 65 79 78 73 71 72 68 74 74 69 72 72 67 94 93 86 104 103 96 72 73 70 82 82 78 99 99 93 89 89 84 89 89 85 100 100 94 89 90 86 94 93 87 78 79 76 106 105 99 102 102 95 91 91 86 106 105 98 95 94 89 114 113 107 106 106 100 103 103 98 113 112 105 76 77 74 101 100 94 83 84 79 106 106 99 82 82 78 83 83 79 96 96 90 87 87 83 90 90 85 107 106 100 113 112 105 113 112 105 82 82 77 74 75 72 83 83 79 83 83 77 76 76 71 83 83 77 73 72 67 67 67 62 93 92 85 77 77 73 64 65 62 103 102 96 84 84 79 62 63 60 62 63 60 68 68 64 83 84 79 72 72 68 71 72 68 72 72 67 79 79 75 83 83 78 64 65 62 64 65 61 102 102 96 82 83 78 108 107 100 81 81 77 79 79 75 108 107 101 101 101 94 82 82 77 89 89 85 85 85 81 79 79 75 87 88 84 97 97 92 81 81 78 118 117 110 94 94 90 108 108 103 82 83 80 81 82 78 83 83 79 107 106 100 95 95 90
92 92 87 87 87 83 115 114 107 79 80 77 87 88 83 88 88 83 84 84 79 94 94 88 89 89 85 78 78 75 111 110 104 104 104 97 82 82 79 96 97 93 105 105 100 88 89 84 116 115 108 97 97 92 93 93 89 92 92 86 62 63 60 89 89 83 102 101 94 88 88 82 89 89 85 69 70 66 87 87 83 101 100 93 94 93 88 67 68 65 77 78 73 75 75 70 68 68 64 85 85 79 61 62 58 58 59 56 82 82 77 94 93 86 76 76 72 99 98 91 75 75 70 97 96 91 64 65 61 84 84 79 97 97 90 72 72 68 69 69 65 89 88 82 90 89 83 88 87 82 73 73 69 100 100 94 104 103 96 108 107 101 87 87 82 101 101 95 88 88 83 111 110 103 83 83 79 96 96 90 101 100 94 97 96 90 89 89 84 106 105 99 92 93 89 75 76 73 105 105 99 87 88 85 105 104 99 97 97 92 93 93 88 78 78 74 75 76 72 68 68 65 85 85 81 69 70 67 100 99 93 78 79 75 85 86 82 83 83 79 100 100 94 101 101 95 79 79 75 93 92 86 68 69 66 78 77 72 79 79 75 79 79 73 62 63 59 79 79 74 95 94 87 72 73 69 87 87 82 81 81 77 86 86 82 85 85 79 92 91 84 70 71 67 74 74 70 78 78 73 70 70 66 79 80 75 79 79 73 74 75 71 82 82 77 73 74 70 75 75 72 84 84 81 84 84 81 108 107 101 97 96 91 96 96 91 81 81 77 84 84 81 76 77 74 80 80 76 81 81 77 81 82 78 90 90 86 117 116 110 105 105 99 107 107 100 104 104 99 99 99 93 85 86 82 101 100 93 110 109 102 91 91 86
88 88 84 85 86 82 100 99 93 94 94 90 87 87 82 105 104 97 86 86 82 81 81 77 100 100 95 77 78 75 77 78 75 115 115 108 109 108 103 104 104 99 93 93 90 117 116 110 90 90 85 101 100 94 79 80 76 89 89 84 82 83 78 93 92 87 66 67 64 95 94 89 92 92 87 70 71 67 74 75 72 83 84 80 82 82 77 76 77 73 86 86 81 64 64 61 82 81 76 73 74 69 53 54 51 98 97 90 76 76 72 90 90 83 90 89 84 73 74 70 72 72 68 98 97 91 92 91 85 74 74 69 88 87 81 66 67 63 70 70 67 93 93 87 78 78 74 102 101 95 89 89 85 81 81 78 111 110 103 99 99 94 112 111 104 105 105 99 101 100 94 79 80 77 107 107 101 96 96 90 85 85 80 67 68 64 80 81 78 74 75 72 98 98 93 110 110 103 109 109 103 109 108 102 95 95 90 85 85 81 92 93 88 96 96 91 100 100 93 80 80 76 81 82 77 71 71 68 79 80 76 88 88 83 76 77 73 71 72 69 101 101 94 84 84 79 71 72 69 87 87 81 57 57 54 60 61 58 62 63 59 70 71 67 69 69 64 87 87 80 66 67 63 86 85 80 75 75 70 89 89 84 104 103 97 80 80 77 81 82 78 89 89 83 95 94 87 85 85 79 67 67 64 77 77 73 89 89 83 77 77 73 95 95 89 84 84 80 86 86 82 92 93 89 73 74 71 92 93 88 93 92 87 98 98 91 90 90 86 84 84 80 102 101 95 75 76 72 107 106 99 102 101 95 114 113 106 88 89 85 104 104 99 104 103 97 115 114 107 81 81 78 75 76 72 86 86 80 97 96 90 69 69 65
