P3
128 128
255
89 21 6 89 21 6 89 21 6 89 21 6 89 21 6 89 21 6 89 21 6 89 21 6 89 21 6 89 21 6 89 21 6 89 21 6 89 21 6 89 21 6 89 21 6 89 21 6 89 21 6 89 21 6 89 21 6 89 21 6 89 21 6 89 21 6 89 21 6 89 21 6 89 21 6 89 21 6 89 21 6 89 21 6 89 21 6 89 21 6 89 21 6 89 21 6 89 21 6 89 21 6 89 21 6 89 21 6 89 21 6 89 21 6 89 21 6 89 21 6 89 21 6 89 21 6 89 21 6 89 21 6 89 21 6 89 21 6 89 21 6 89 21 6 89 21 6 89 21 6 89 21 6 89 21 6 89 21 6 89 21 6 89 21 6 89 21 6 89 21 6 89 21 6 89 21 6 89 21 6 89 21 6 89 21 6 89 21 6 89 21 6 89 21 6 89 21 6 89 21 6 89 21 6 89 21 6 89 21 6 89 21 6 89 21 6 89 21 6 89 21 6 89 21 6 89 21 6 89 21 6 89 21 6 89 21 6 89 21 6 89 21 6 89 21 6 89 21 6 89 21 6 89 21 6 89 21 6 89 21 6 89 21 6 89 21 6 89 21 6 89 21 6 89 21 6 89 21 6 89 21 6 89 21 6 89 21 6 89 21 6 89 21 6 89 21 6 89 21 6 89 21 6 89 21 6 89 21 6 89 21 6 89 21 6 89 21 6 89 21 6 89 21 6 89 21 6 89 21 6 89 21 6 89 21 6 89 21 6 89 21 6 89 21 6 89 21 6 89 21 6 89 21 6 89 21 6 89 21 6 89 21 6 89 21 6 89 21 6 89 21 6 89 21 6 89 21 6 89 21 6 89 21 6
89 21 6 89 21 6 89 21 6 89 21 6 89 21 6 89 21 6 89 21 6 89 21 6 89 21 6 89 21 6 89 21 6 89 21 6 89 21 6 89 21 6 89 21 6 89 21 6 89 21 6 89 21 6 89 21 6 89 21 6 89 21 6 89 21 6 89 21 6 89 21 6 89 21 6 89 21 6 89 21 6 89 21 6 89 21 6 89 21 6 89 21 6 89 21 6 89 21 6 89 21 6 89 21 6 89 21 6 89 21 6 89 21 6 89 21 6 89 21 6 89 21 6 89 21 6 89 21 6 89 21 6 89 21 6 89 21 6 89 21 6 89 21 6 89 21 6 89 21 6 89 21 6 89 21 6 89 21 6 89 21 6 89 21 6 89 21 6 89 21 6 89 21 6 89 21 6 89 21 6 89 21 6 89 21 6 89 21 6 89 21 6 89 21 6 89 21 6 89 21 6 89 21 6 89 21 6 89 21 6 89 21 6 89 21 6 89 21 6 89 21 6 89 21 6 89 21 6 89 21 6 89 21 6 89 21 6 89 21 6 89 21 6 89 21 6 89 21 6 89 21 6 89 21 6 89 21 6 89 21 6 89 21 6 89 21 6 89 21 6 89 21 6 89 21 6 89 21 6 89 21 6 89 21 6 89 21 6 89 21 6 89 21 6 89 21 6 89 21 6 89 21 6 89 21 6 89 21 6 89 21 6 89 21 6 89 21 6 89 21 6 89 21 6 89 21 6 89 21 6 89 21 6 89 21 6 89 21 6 89 21 6 89 21 6 89 21 6 89 21 6 89 21 6 89 21 6 89 21 6 89 21 6 89 21 6 89 21 6 89 21 6 89 21 6 89 21 6 89 21 6 89 21 6
89 21 6 89 21 6 127 59 44 123 55 40 124 56 41 114 46 31 125 57 42 116 48 33 112 44 29 126 58 43 114 46 31 114 46 31 127 59 44 123 55 40 114 46 31 119 51 36 118 50 35 120 52 37 118 50 35 115 47 32 123 55 40 121 53 38 113 45 30 123 55 40 121 53 38 115 47 32 122 54 39 115 47 32 113 45 30 122 54 39 89 21 6 89 21 6 89 21 6 89 21 6 123 55 40 124 56 41 120 52 37 124 56 41 116 48 33 120 52 37 115 47 32 121 53 38 114 46 31 121 53 38 113 45 30 119 51 36 114 46 31 119 51 36 128 60 45 124 56 41 127 59 44 114 46 31 124 56 41 120 52 37 125 57 42 128 60 45 117 49 34 124 56 41 120 52 37 112 44 29 117 49 34 123 55 40 89 21 6 89 21 6 89 21 6 89 21 6 119 51 36 122 54 39 118 50 35 122 54 39 126 58 43 127 59 44 117 49 34 120 52 37 126 58 43 127 59 44 112 44 29 122 54 39 116 48 33 115 47 32 124 56 41 127 59 44 112 44 29 128 60 45 116 48 33 118 50 35 114 46 31 127 59 44 123 55 40 125 57 42 126 58 43 121 53 38 126 58 43 112 44 29 89 21 6 89 21 6 89 21 6 89 21 6 116 48 33 114 46 31 120 52 37 119 51 36 127 59 44 123 55 40 124 56 41 121 53 38 121 53 38 114 46 31 113 45 30 115 47 32 113 45 30 124 56 41 127 59 44 118 50 35 125 57 42 122 54 39 112 44 29 127 59 44 124 56 41 119 51 36 120 52 37 115 47 32 117 49 34 120 52 37 124 56 41 115 47 32 89 21 6 89 21 6
89 21 6 89 21 6 114 46 31 113 45 30 113 45 30 121 53 38 128 60 45 125 57 42 128 60 45 119 51 36 116 48 33 121 53 38 114 46 31 120 52 37 116 48 33 120 52 37 115 47 32 124 56 41 114 46 31 121 53 38 122 54 39 126 58 43 128 60 45 113 45 30 119 51 36 126 58 43 120 52 37 117 49 34 115 47 32 120 52 37 89 21 6 89 21 6 89 21 6 89 21 6 115 47 32 121 53 38 112 44 29 121 53 38 115 47 32 127 59 44 119 51 36 118 50 35 125 57 42 127 59 44 114 46 31 124 56 41 125 57 42 119 51 36 122 54 39 114 46 31 120 52 37 128 60 45 127 59 44 116 48 33 122 54 39 119 51 36 121 53 38 125 57 42 122 54 39 115 47 32 127 59 44 127 59 44 89 21 6 89 21 6 89 21 6 89 21 6 124 56 41 115 47 32 117 49 34 117 49 34 116 48 33 126 58 43 125 57 42 126 58 43 114 46 31 114 46 31 126 58 43 127 59 44 116 48 33 123 55 40 113 45 30 122 54 39 113 45 30 113 45 30 120 52 37 128 60 45 123 55 40 120 52 37 117 49 34 127 59 44 125 57 42 120 52 37 121 53 38 119 51 36 89 21 6 89 21 6 89 21 6 89 21 6 116 48 33 124 56 41 122 54 39 128 60 45 122 54 39 114 46 31 128 60 45 123 55 40 125 57 42 117 49 34 114 46 31 125 57 42 115 47 32 125 57 42 113 45 30 121 53 38 122 54 39 125 57 42 114 46 31 114 46 31 117 49 34 127 59 44 117 49 34 122 54 39 120 52 37 116 48 33 120 52 37 121 53 38 89 21 6 89 21 6
89 21 6 89 21 6 114 46 31 115 47 32 120 52 37 125 57 42 113 45 30 119 51 36 114 46 31 127 59 44 113 45 30 115 47 32 122 54 39 118 50 35 119 51 36 128 60 45 115 47 32 117 49 34 117 49 34 123 55 40 125 57 42 113 45 30 123 55 40 123 55 40 124 56 41 128 60 45 127 59 44 126 58 43 127 59 44 117 49 34 89 21 6 89 21 6 89 21 6 89 21 6 119 51 36 112 44 29 126 58 43 118 50 35 121 53 38 116 48 33 116 48 33 127 59 44 115 47 32 120 52 37 121 53 38 127 59 44 118 50 35 118 50 35 122 54 39 122 54 39 113 45 30 118 50 35 117 49 34 115 47 32 127 59 44 121 53 38 114 46 31 118 50 35 119 51 36 122 54 39 118 50 35 125 57 42 89 21 6 89 21 6 89 21 6 89 21 6 120 52 37 127 59 44 118 50 35 116 48 33 122 54 39 125 57 42 122 54 39 127 59 44 113 45 30 121 53 38 122 54 39 114 46 31 127 59 44 120 52 37 119 51 36 127 59 44 116 48 33 114 46 31 127 59 44 115 47 32 120 52 37 122 54 39 114 46 31 127 59 44 121 53 38 126 58 43 115 47 32 114 46 31 89 21 6 89 21 6 89 21 6 89 21 6 122 54 39 121 53 38 115 47 32 113 45 30 124 56 41 113 45 30 121 53 38 115 47 32 120 52 37 113 45 30 113 45 30 115 47 32 125 57 42 121 53 38 113 45 30 116 48 33 128 60 45 120 52 37 120 52 37 127 59 44 127 59 44 123 55 40 112 44 29 116 48 33 117 49 34 125 57 42 124 56 41 128 60 45 89 21 6 89 21 6
89 21 6 89 21 6 110 42 27 107 39 24 106 38 23 120 52 37 117 49 34 111 43 28 107 39 24 114 46 31 113 45 30 104 36 21 107 39 24 105 37 22 107 39 24 109 41 26 117 49 34 113 45 30 115 47 32 119 51 36 114 46 31 106 38 23 117 49 34 111 43 28 116 48 33 108 40 25 111 43 28 116 48 33 118 50 35 118 50 35 89 21 6 89 21 6 89 21 6 89 21 6 114 46 31 104 36 21 113 45 30 116 48 33 112 44 29 117 49 34 106 38 23 109 41 26 111 43 28 106 38 23 119 51 36 109 41 26 112 44 29 111 43 28 107 39 24 119 51 36 106 38 23 119 51 36 108 40 25 111 43 28 113 45 30 110 42 27 114 46 31 113 45 30 120 52 37 109 41 26 112 44 29 110 42 27 89 21 6 89 21 6 89 21 6 89 21 6 117 49 34 115 47 32 112 44 29 114 46 31 104 36 21 108 40 25 106 38 23 104 36 21 117 49 34 108 40 25 119 51 36 108 40 25 117 49 34 118 50 35 116 48 33 113 45 30 111 43 28 114 46 31 108 40 25 104 36 21 120 52 37 118 50 35 106 38 23 109 41 26 104 36 21 119 51 36 119 51 36 120 52 37 89 21 6 89 21 6 89 21 6 89 21 6 112 44 29 117 49 34 109 41 26 111 43 28 106 38 23 114 46 31 116 48 33 115 47 32 109 41 26 107 39 24 109 41 26 116 48 33 104 36 21 112 44 29 106 38 23 106 38 23 108 40 25 117 49 34 105 37 22 117 49 34 120 52 37 115 47 32 114 46 31 106 38 23 113 45 30 112 44 29 111 43 28 114 46 31 89 21 6 89 21 6
89 21 6 89 21 6 104 36 21 110 42 27 112 44 29 116 48 33 115 47 32 104 36 21 107 39 24 104 36 21 109 41 26 113 45 30 113 45 30 118 50 35 105 37 22 105 37 22 105 37 22 105 37 22 108 40 25 108 40 25 120 52 37 116 48 33 116 48 33 118 50 35 119 51 36 114 46 31 113 45 30 104 36 21 106 38 23 108 40 25 89 21 6 89 21 6 89 21 6 89 21 6 112 44 29 117 49 34 116 48 33 105 37 22 114 46 31 110 42 27 115 47 32 116 48 33 110 42 27 114 46 31 120 52 37 118 50 35 112 44 29 105 37 22 105 37 22 110 42 27 106 38 23 115 47 32 111 43 28 106 38 23 112 44 29 107 39 24 109 41 26 106 38 23 118 50 35 111 43 28 116 48 33 118 50 35 89 21 6 89 21 6 89 21 6 89 21 6 111 43 28 115 47 32 116 48 33 104 36 21 109 41 26 115 47 32 118 50 35 116 48 33 110 42 27 116 48 33 115 47 32 118 50 35 110 42 27 112 44 29 104 36 21 105 37 22 116 48 33 113 45 30 119 51 36 106 38 23 107 39 24 111 43 28 109 41 26 111 43 28 107 39 24 113 45 30 116 48 33 109 41 26 89 21 6 89 21 6 89 21 6 89 21 6 109 41 26 113 45 30 118 50 35 109 41 26 113 45 30 108 40 25 118 50 35 113 45 30 109 41 26 114 46 31 113 45 30 114 46 31 110 42 27 118 50 35 113 45 30 109 41 26 111 43 28 120 52 37 114 46 31 113 45 30 115 47 32 120 52 37 113 45 30 115 47 32 116 48 33 107 39 24 118 50 35 109 41 26 89 21 6 89 21 6
89 21 6 89 21 6 106 38 23 110 42 27 109 41 26 106 38 23 112 44 29 109 41 26 108 40 25 119 51 36 106 38 23 115 47 32 108 40 25 117 49 34 110 42 27 119 51 36 113 45 30 118 50 35 114 46 31 112 44 29 111 43 28 105 37 22 115 47 32 112 44 29 104 36 21 116 48 33 111 43 28 105 37 22 105 37 22 120 52 37 89 21 6 89 21 6 89 21 6 89 21 6 117 49 34 115 47 32 119 51 36 117 49 34 119 51 36 118 50 35 105 37 22 109 41 26 105 37 22 113 45 30 104 36 21 116 48 33 107 39 24 104 36 21 118 50 35 108 40 25 106 38 23 120 52 37 114 46 31 115 47 32 109 41 26 117 49 34 118 50 35 115 47 32 112 44 29 105 37 22 111 43 28 112 44 29 89 21 6 89 21 6 89 21 6 89 21 6 109 41 26 114 46 31 117 49 34 112 44 29 112 44 29 114 46 31 105 37 22 113 45 30 110 42 27 116 48 33 104 36 21 112 44 29 104 36 21 110 42 27 116 48 33 109 41 26 119 51 36 111 43 28 119 51 36 109 41 26 119 51 36 113 45 30 112 44 29 115 47 32 110 42 27 104 36 21 107 39 24 109 41 26 89 21 6 89 21 6 89 21 6 89 21 6 116 48 33 114 46 31 107 39 24 105 37 22 107 39 24 116 48 33 107 39 24 107 39 24 114 46 31 108 40 25 118 50 35 114 46 31 106 38 23 116 48 33 111 43 28 105 37 22 106 38 23 117 49 34 109 41 26 105 37 22 110 42 27 114 46 31 107 39 24 112 44 29 104 36 21 116 48 33 106 38 23 106 38 23 89 21 6 89 21 6
89 21 6 89 21 6 110 42 27 111 43 28 113 45 30 116 48 33 116 48 33 105 37 22 117 49 34 109 41 26 113 45 30 106 38 23 108 40 25 112 44 29 108 40 25 119 51 36 108 40 25 116 48 33 111 43 28 112 44 29 118 50 35 116 48 33 106 38 23 114 46 31 104 36 21 120 52 37 112 44 29 115 47 32 115 47 32 110 42 27 89 21 6 89 21 6 89 21 6 89 21 6 106 38 23 107 39 24 106 38 23 108 40 25 113 45 30 108 40 25 119 51 36 107 39 24 116 48 33 112 44 29 110 42 27 116 48 33 111 43 28 104 36 21 119 51 36 111 43 28 109 41 26 107 39 24 116 48 33 110 42 27 119 51 36 104 36 21 109 41 26 109 41 26 105 37 22 118 50 35 115 47 32 119 51 36 89 21 6 89 21 6 89 21 6 89 21 6 106 38 23 117 49 34 108 40 25 119 51 36 110 42 27 106 38 23 108 40 25 111 43 28 113 45 30 119 51 36 109 41 26 119 51 36 109 41 26 107 39 24 112 44 29 107 39 24 106 38 23 112 44 29 120 52 37 116 48 33 106 38 23 116 48 33 117 49 34 113 45 30 106 38 23 113 45 30 110 42 27 106 38 23 89 21 6 89 21 6 89 21 6 89 21 6 117 49 34 114 46 31 105 37 22 120 52 37 117 49 34 112 44 29 108 40 25 106 38 23 117 49 34 117 49 34 107 39 24 118 50 35 117 49 34 117 49 34 118 50 35 119 51 36 107 39 24 104 36 21 113 45 30 114 46 31 120 52 37 107 39 24 118 50 35 109 41 26 108 40 25 112 44 29 111 43 28 114 46 31 89 21 6 89 21 6
89 21 6 89 21 6 118 50 35 111 43 28 106 38 23 107 39 24 116 48 33 105 37 22 114 46 31 113 45 30 117 49 34 116 48 33 113 45 30 105 37 22 117 49 34 109 41 26 105 37 22 106 38 23 104 36 21 104 36 21 119 51 36 110 42 27 115 47 32 115 47 32 111 43 28 113 45 30 105 37 22 116 48 33 111 43 28 113 45 30 89 21 6 89 21 6 89 21 6 89 21 6 109 41 26 111 43 28 114 46 31 105 37 22 107 39 24 107 39 24 105 37 22 114 46 31 115 47 32 107 39 24 112 44 29 108 40 25 119 51 36 111 43 28 116 48 33 108 40 25 109 41 26 112 44 29 109 41 26 115 47 32 112 44 29 113 45 30 113 45 30 111 43 28 118 50 35 108 40 25 110 42 27 109 41 26 89 21 6 89 21 6 89 21 6 89 21 6 118 50 35 114 46 31 105 37 22 115 47 32 110 42 27 114 46 31 108 40 25 107 39 24 107 39 24 104 36 21 104 36 21 116 48 33 117 49 34 107 39 24 105 37 22 115 47 32 113 45 30 114 46 31 106 38 23 105 37 22 106 38 23 119 51 36 117 49 34 114 46 31 108 40 25 106 38 23 106 38 23 106 38 23 89 21 6 89 21 6 89 21 6 89 21 6 108 40 25 118 50 35 114 46 31 104 36 21 109 41 26 106 38 23 118 50 35 117 49 34 106 38 23 105 37 22 113 45 30 111 43 28 116 48 33 116 48 33 112 44 29 109 41 26 105 37 22 107 39 24 118 50 35 120 52 37 114 46 31 117 49 34 106 38 23 114 46 31 120 52 37 108 40 25 105 37 22 113 45 30 89 21 6 89 21 6
89 21 6 89 21 6 116 48 33 119 51 36 111 43 28 119 51 36 117 49 34 117 49 34 108 40 25 119 51 36 119 51 36 116 48 33 105 37 22 108 40 25 113 45 30 107 39 24 120 52 37 112 44 29 105 37 22 113 45 30 109 41 26 114 46 31 108 40 25 110 42 27 114 46 31 109 41 26 119 51 36 117 49 34 108 40 25 117 49 34 89 21 6 89 21 6 89 21 6 89 21 6 111 43 28 105 37 22 115 47 32 116 48 33 110 42 27 106 38 23 116 48 33 118 50 35 107 39 24 109 41 26 105 37 22 118 50 35 107 39 24 118 50 35 112 44 29 112 44 29 105 37 22 118 50 35 106 38 23 111 43 28 120 52 37 119 51 36 120 52 37 106 38 23 117 49 34 106 38 23 119 51 36 118 50 35 89 21 6 89 21 6 89 21 6 89 21 6 106 38 23 105 37 22 115 47 32 108 40 25 117 49 34 112 44 29 116 48 33 107 39 24 115 47 32 107 39 24 110 42 27 116 48 33 105 37 22 114 46 31 117 49 34 107 39 24 107 39 24 119 51 36 108 40 25 106 38 23 108 40 25 116 48 33 105 37 22 112 44 29 116 48 33 112 44 29 107 39 24 120 52 37 89 21 6 89 21 6 89 21 6 89 21 6 115 47 32 119 51 36 117 49 34 117 49 34 104 36 21 106 38 23 113 45 30 106 38 23 114 46 31 110 42 27 111 43 28 107 39 24 112 44 29 115 47 32 106 38 23 108 40 25 112 44 29 117 49 34 107 39 24 113 45 30 107 39 24 114 46 31 119 51 36 111 43 28 111 43 28 108 40 25 120 52 37 107 39 24 89 21 6 89 21 6
89 21 6 89 21 6 108 40 25 109 41 26 106 38 23 116 48 33 114 46 31 105 37 22 116 48 33 106 38 23 119 51 36 107 39 24 105 37 22 115 47 32 111 43 28 109 41 26 106 38 23 119 51 36 117 49 34 106 38 23 119 51 36 116 48 33 106 38 23 104 36 21 109 41 26 114 46 31 107 39 24 120 52 37 112 44 29 109 41 26 89 21 6 89 21 6 89 21 6 89 21 6 117 49 34 115 47 32 115 47 32 109 41 26 113 45 30 116 48 33 112 44 29 114 46 31 110 42 27 112 44 29 117 49 34 110 42 27 119 51 36 113 45 30 108 40 25 104 36 21 118 50 35 110 42 27 106 38 23 105 37 22 118 50 35 107 39 24 113 45 30 106 38 23 118 50 35 105 37 22 109 41 26 111 43 28 89 21 6 89 21 6 89 21 6 89 21 6 117 49 34 106 38 23 107 39 24 108 40 25 105 37 22 107 39 24 117 49 34 112 44 29 105 37 22 110 42 27 118 50 35 119 51 36 105 37 22 110 42 27 113 45 30 109 41 26 119 51 36 118 50 35 104 36 21 119 51 36 113 45 30 105 37 22 105 37 22 117 49 34 110 42 27 110 42 27 113 45 30 106 38 23 89 21 6 89 21 6 89 21 6 89 21 6 105 37 22 110 42 27 111 43 28 104 36 21 109 41 26 105 37 22 108 40 25 120 52 37 117 49 34 110 42 27 108 40 25 113 45 30 117 49 34 106 38 23 111 43 28 117 49 34 107 39 24 120 52 37 118 50 35 109 41 26 114 46 31 106 38 23 118 50 35 118 50 35 108 40 25 107 39 24 105 37 22 116 48 33 89 21 6 89 21 6
89 21 6 89 21 6 113 45 30 115 47 32 116 48 33 115 47 32 115 47 32 106 38 23 106 38 23 107 39 24 113 45 30 110 42 27 114 46 31 113 45 30 119 51 36 114 46 31 117 49 34 119 51 36 113 45 30 106 38 23 105 37 22 107 39 24 109 41 26 108 40 25 111 43 28 119 51 36 119 51 36 113 45 30 108 40 25 104 36 21 89 21 6 89 21 6 89 21 6 89 21 6 120 52 37 108 40 25 106 38 23 115 47 32 113 45 30 114 46 31 106 38 23 114 46 31 116 48 33 112 44 29 107 39 24 116 48 33 113 45 30 117 49 34 114 46 31 114 46 31 116 48 33 112 44 29 115 47 32 108 40 25 116 48 33 105 37 22 112 44 29 107 39 24 113 45 30 106 38 23 109 41 26 107 39 24 89 21 6 89 21 6 89 21 6 89 21 6 120 52 37 117 49 34 108 40 25 112 44 29 107 39 24 116 48 33 113 45 30 109 41 26 112 44 29 116 48 33 109 41 26 111 43 28 117 49 34 117 49 34 117 49 34 117 49 34 107 39 24 114 46 31 114 46 31 113 45 30 104 36 21 113 45 30 106 38 23 110 42 27 112 44 29 114 46 31 119 51 36 119 51 36 89 21 6 89 21 6 89 21 6 89 21 6 111 43 28 111 43 28 117 49 34 120 52 37 113 45 30 114 46 31 119 51 36 104 36 21 118 50 35 113 45 30 114 46 31 116 48 33 109 41 26 109 41 26 108 40 25 111 43 28 109 41 26 120 52 37 113 45 30 117 49 34 104 36 21 112 44 29 118 50 35 119 51 36 115 47 32 112 44 29 110 42 27 112 44 29 89 21 6 89 21 6
89 21 6 89 21 6 115 47 32 113 45 30 108 40 25 110 42 27 115 47 32 120 52 37 111 43 28 104 36 21 112 44 29 108 40 25 108 40 25 114 46 31 115 47 32 106 38 23 112 44 29 114 46 31 114 46 31 110 42 27 109 41 26 119 51 36 111 43 28 110 42 27 119 51 36 106 38 23 116 48 33 113 45 30 108 40 25 108 40 25 89 21 6 89 21 6 89 21 6 89 21 6 106 38 23 108 40 25 108 40 25 118 50 35 114 46 31 114 46 31 117 49 34 108 40 25 110 42 27 118 50 35 112 44 29 115 47 32 119 51 36 106 38 23 118 50 35 115 47 32 105 37 22 117 49 34 106 38 23 110 42 27 109 41 26 108 40 25 115 47 32 106 38 23 118 50 35 105 37 22 117 49 34 113 45 30 89 21 6 89 21 6 89 21 6 89 21 6 107 39 24 112 44 29 114 46 31 109 41 26 107 39 24 116 48 33 108 40 25 116 48 33 118 50 35 119 51 36 111 43 28 110 42 27 111 43 28 109 41 26 119 51 36 116 48 33 111 43 28 114 46 31 120 52 37 113 45 30 111 43 28 116 48 33 107 39 24 116 48 33 113 45 30 116 48 33 105 37 22 112 44 29 89 21 6 89 21 6 89 21 6 89 21 6 116 48 33 116 48 33 116 48 33 109 41 26 119 51 36 110 42 27 119 51 36 105 37 22 115 47 32 118 50 35 119 51 36 115 47 32 110 42 27 117 49 34 106 38 23 107 39 24 107 39 24 105 37 22 112 44 29 116 48 33 116 48 33 114 46 31 113 45 30 107 39 24 108 40 25 113 45 30 117 49 34 114 46 31 89 21 6 89 21 6
89 21 6 89 21 6 106 38 23 107 39 24 108 40 25 119 51 36 119 51 36 115 47 32 116 48 33 113 45 30 107 39 24 115 47 32 105 37 22 118 50 35 108 40 25 118 50 35 107 39 24 114 46 31 117 49 34 109 41 26 110 42 27 112 44 29 120 52 37 113 45 30 110 42 27 113 45 30 110 42 27 115 47 32 107 39 24 111 43 28 89 21 6 89 21 6 89 21 6 89 21 6 108 40 25 105 37 22 109 41 26 105 37 22 118 50 35 117 49 34 104 36 21 110 42 27 110 42 27 108 40 25 118 50 35 115 47 32 108 40 25 110 42 27 117 49 34 110 42 27 105 37 22 112 44 29 113 45 30 105 37 22 109 41 26 119 51 36 111 43 28 118 50 35 116 48 33 117 49 34 111 43 28 117 49 34 89 21 6 89 21 6 89 21 6 89 21 6 108 40 25 112 44 29 105 37 22 109 41 26 114 46 31 107 39 24 113 45 30 114 46 31 109 41 26 105 37 22 110 42 27 105 37 22 116 48 33 120 52 37 114 46 31 118 50 35 111 43 28 118 50 35 107 39 24 108 40 25 117 49 34 106 38 23 117 49 34 105 37 22 115 47 32 117 49 34 110 42 27 110 42 27 89 21 6 89 21 6 89 21 6 89 21 6 105 37 22 110 42 27 119 51 36 110 42 27 114 46 31 105 37 22 107 39 24 116 48 33 108 40 25 105 37 22 114 46 31 110 42 27 110 42 27 108 40 25 116 48 33 107 39 24 104 36 21 115 47 32 111 43 28 111 43 28 108 40 25 112 44 29 119 51 36 104 36 21 110 42 27 114 46 31 113 45 30 118 50 35 89 21 6 89 21 6
89 21 6 89 21 6 111 43 28 116 48 33 110 42 27 115 47 32 109 41 26 107 39 24 105 37 22 113 45 30 115 47 32 113 45 30 106 38 23 106 38 23 119 51 36 120 52 37 118 50 35 113 45 30 111 43 28 111 43 28 115 47 32 118 50 35 115 47 32 113 45 30 120 52 37 118 50 35 117 49 34 117 49 34 109 41 26 106 38 23 89 21 6 89 21 6 89 21 6 89 21 6 109 41 26 117 49 34 113 45 30 115 47 32 107 39 24 109 41 26 119 51 36 109 41 26 111 43 28 105 37 22 105 37 22 107 39 24 112 44 29 112 44 29 106 38 23 107 39 24 118 50 35 115 47 32 116 48 33 112 44 29 118 50 35 115 47 32 106 38 23 118 50 35 114 46 31 116 48 33 110 42 27 117 49 34 89 21 6 89 21 6 89 21 6 89 21 6 120 52 37 112 44 29 113 45 30 109 41 26 106 38 23 113 45 30 111 43 28 106 38 23 110 42 27 114 46 31 106 38 23 119 51 36 120 52 37 107 39 24 114 46 31 108 40 25 108 40 25 116 48 33 108 40 25 108 40 25 116 48 33 114 46 31 108 40 25 105 37 22 105 37 22 111 43 28 110 42 27 119 51 36 89 21 6 89 21 6 89 21 6 89 21 6 116 48 33 113 45 30 105 37 22 107 39 24 112 44 29 111 43 28 107 39 24 110 42 27 117 49 34 113 45 30 110 42 27 109 41 26 116 48 33 107 39 24 105 37 22 117 49 34 108 40 25 115 47 32 111 43 28 110 42 27 120 52 37 109 41 26 116 48 33 119 51 36 119 51 36 112 44 29 118 50 35 109 41 26 89 21 6 89 21 6
89 21 6 89 21 6 112 44 29 117 49 34 115 47 32 117 49 34 113 45 30 116 48 33 105 37 22 104 36 21 109 41 26 113 45 30 110 42 27 108 40 25 113 45 30 113 45 30 115 47 32 106 38 23 108 40 25 118 50 35 111 43 28 116 48 33 116 48 33 105 37 22 111 43 28 118 50 35 105 37 22 110 42 27 112 44 29 118 50 35 89 21 6 89 21 6 89 21 6 89 21 6 108 40 25 106 38 23 106 38 23 113 45 30 109 41 26 109 41 26 110 42 27 104 36 21 111 43 28 116 48 33 113 45 30 119 51 36 106 38 23 114 46 31 120 52 37 114 46 31 107 39 24 117 49 34 112 44 29 111 43 28 105 37 22 119 51 36 108 40 25 118 50 35 107 39 24 115 47 32 112 44 29 118 50 35 89 21 6 89 21 6 89 21 6 89 21 6 114 46 31 114 46 31 111 43 28 115 47 32 111 43 28 110 42 27 105 37 22 116 48 33 117 49 34 115 47 32 112 44 29 107 39 24 105 37 22 107 39 24 105 37 22 120 52 37 104 36 21 112 44 29 118 50 35 114 46 31 104 36 21 107 39 24 118 50 35 112 44 29 120 52 37 104 36 21 111 43 28 108 40 25 89 21 6 89 21 6 89 21 6 89 21 6 110 42 27 107 39 24 109 41 26 116 48 33 107 39 24 110 42 27 114 46 31 114 46 31 115 47 32 117 49 34 104 36 21 115 47 32 110 42 27 118 50 35 110 42 27 108 40 25 116 48 33 105 37 22 105 37 22 116 48 33 116 48 33 106 38 23 113 45 30 109 41 26 105 37 22 110 42 27 112 44 29 107 39 24 89 21 6 89 21 6
89 21 6 89 21 6 120 52 37 108 40 25 110 42 27 110 42 27 111 43 28 117 49 34 104 36 21 107 39 24 111 43 28 118 50 35 106 38 23 109 41 26 110 42 27 114 46 31 111 43 28 119 51 36 107 39 24 104 36 21 120 52 37 105 37 22 104 36 21 106 38 23 109 41 26 115 47 32 108 40 25 113 45 30 115 47 32 109 41 26 89 21 6 89 21 6 89 21 6 89 21 6 108 40 25 115 47 32 106 38 23 111 43 28 119 51 36 117 49 34 107 39 24 109 41 26 109 41 26 107 39 24 110 42 27 113 45 30 116 48 33 111 43 28 107 39 24 105 37 22 108 40 25 115 47 32 115 47 32 111 43 28 112 44 29 111 43 28 112 44 29 107 39 24 120 52 37 109 41 26 111 43 28 119 51 36 89 21 6 89 21 6 89 21 6 89 21 6 108 40 25 113 45 30 111 43 28 118 50 35 108 40 25 110 42 27 116 48 33 109 41 26 109 41 26 118 50 35 113 45 30 115 47 32 109 41 26 117 49 34 111 43 28 107 39 24 110 42 27 117 49 34 118 50 35 113 45 30 112 44 29 118 50 35 115 47 32 106 38 23 105 37 22 114 46 31 105 37 22 105 37 22 89 21 6 89 21 6 89 21 6 89 21 6 108 40 25 120 52 37 114 46 31 115 47 32 110 42 27 118 50 35 105 37 22 105 37 22 112 44 29 105 37 22 106 38 23 114 46 31 109 41 26 110 42 27 117 49 34 107 39 24 105 37 22 117 49 34 114 46 31 109 41 26 120 52 37 106 38 23 104 36 21 118 50 35 109 41 26 110 42 27 109 41 26 111 43 28 89 21 6 89 21 6
89 21 6 89 21 6 89 21 6 89 21 6 89 21 6 89 21 6 89 21 6 89 21 6 89 21 6 89 21 6 89 21 6 89 21 6 89 21 6 89 21 6 89 21 6 89 21 6 89 21 6 89 21 6 89 21 6 89 21 6 89 21 6 89 21 6 89 21 6 89 21 6 89 21 6 89 21 6 89 21 6 89 21 6 89 21 6 89 21 6 89 21 6 89 21 6 89 21 6 89 21 6 89 21 6 89 21 6 89 21 6 89 21 6 89 21 6 89 21 6 89 21 6 89 21 6 89 21 6 89 21 6 89 21 6 89 21 6 89 21 6 89 21 6 89 21 6 89 21 6 89 21 6 89 21 6 89 21 6 89 21 6 89 21 6 89 21 6 89 21 6 89 21 6 89 21 6 89 21 6 89 21 6 89 21 6 89 21 6 89 21 6 89 21 6 89 21 6 89 21 6 89 21 6 89 21 6 89 21 6 89 21 6 89 21 6 89 21 6 89 21 6 89 21 6 89 21 6 89 21 6 89 21 6 89 21 6 89 21 6 89 21 6 89 21 6 89 21 6 89 21 6 89 21 6 89 21 6 89 21 6 89 21 6 89 21 6 89 21 6 89 21 6 89 21 6 89 21 6 89 21 6 89 21 6 89 21 6 89 21 6 89 21 6 89 21 6 89 21 6 89 21 6 89 21 6 89 21 6 89 21 6 89 21 6 89 21 6 89 21 6 89 21 6 89 21 6 89 21 6 89 21 6 89 21 6 89 21 6 89 21 6 89 21 6 89 21 6 89 21 6 89 21 6 89 21 6 89 21 6 89 21 6 89 21 6 89 21 6 89 21 6 89 21 6 89 21 6 89 21 6 89 21 6
89 21 6 89 21 6 89 21 6 89 21 6 89 21 6 89 21 6 89 21 6 89 21 6 89 21 6 89 21 6 89 21 6 89 21 6 89 21 6 89 21 6 89 21 6 89 21 6 89 21 6 89 21 6 89 21 6 89 21 6 89 21 6 89 21 6 89 21 6 89 21 6 89 21 6 89 21 6 89 21 6 89 21 6 89 21 6 89 21 6 89 21 6 89 21 6 89 21 6 89 21 6 89 21 6 89 21 6 89 21 6 89 21 6 89 21 6 89 21 6 89 21 6 89 21 6 89 21 6 89 21 6 89 21 6 89 21 6 89 21 6 89 21 6 89 21 6 89 21 6 89 21 6 89 21 6 89 21 6 89 21 6 89 21 6 89 21 6 89 21 6 89 21 6 89 21 6 89 21 6 89 21 6 89 21 6 89 21 6 89 21 6 89 21 6 89 21 6 89 21 6 89 21 6 89 21 6 89 21 6 89 21 6 89 21 6 89 21 6 89 21 6 89 21 6 89 21 6 89 21 6 89 21 6 89 21 6 89 21 6 89 21 6 89 21 6 89 21 6 89 21 6 89 21 6 89 21 6 89 21 6 89 21 6 89 21 6 89 21 6 89 21 6 89 21 6 89 21 6 89 21 6 89 21 6 89 21 6 89 21 6 89 21 6 89 21 6 89 21 6 89 21 6 89 21 6 89 21 6 89 21 6 89 21 6 89 21 6 89 21 6 89 21 6 89 21 6 89 21 6 89 21 6 89 21 6 89 21 6 89 21 6 89 21 6 89 21 6 89 21 6 89 21 6 89 21 6 89 21 6 89 21 6 89 21 6 89 21 6 89 21 6 89 21 6 89 21 6 89 21 6 89 21 6
89 21 6 89 21 6 89 21 6 89 21 6 89 21 6 89 21 6 89 21 6 89 21 6 89 21 6 89 21 6 89 21 6 89 21 6 89 21 6 89 21 6 89 21 6 89 21 6 89 21 6 89 21 6 89 21 6 89 21 6 89 21 6 89 21 6 89 21 6 89 21 6 89 21 6 89 21 6 89 21 6 89 21 6 89 21 6 89 21 6 89 21 6 89 21 6 89 21 6 89 21 6 89 21 6 89 21 6 89 21 6 89 21 6 89 21 6 89 21 6 89 21 6 89 21 6 89 21 6 89 21 6 89 21 6 89 21 6 89 21 6 89 21 6 89 21 6 89 21 6 89 21 6 89 21 6 89 21 6 89 21 6 89 21 6 89 21 6 89 21 6 89 21 6 89 21 6 89 21 6 89 21 6 89 21 6 89 21 6 89 21 6 89 21 6 89 21 6 89 21 6 89 21 6 89 21 6 89 21 6 89 21 6 89 21 6 89 21 6 89 21 6 89 21 6 89 21 6 89 21 6 89 21 6 89 21 6 89 21 6 89 21 6 89 21 6 89 21 6 89 21 6 89 21 6 89 21 6 89 21 6 89 21 6 89 21 6 89 21 6 89 21 6 89 21 6 89 21 6 89 21 6 89 21 6 89 21 6 89 21 6 89 21 6 89 21 6 89 21 6 89 21 6 89 21 6 89 21 6 89 21 6 89 21 6 89 21 6 89 21 6 89 21 6 89 21 6 89 21 6 89 21 6 89 21 6 89 21 6 89 21 6 89 21 6 89 21 6 89 21 6 89 21 6 89 21 6 89 21 6 89 21 6 89 21 6 89 21 6 89 21 6 89 21 6 89 21 6 89 21 6 89 21 6
89 21 6 89 21 6 89 21 6 89 21 6 89 21 6 89 21 6 89 21 6 89 21 6 89 21 6 89 21 6 89 21 6 89 21 6 89 21 6 89 21 6 89 21 6 89 21 6 89 21 6 89 21 6 89 21 6 89 21 6 89 21 6 89 21 6 89 21 6 89 21 6 89 21 6 89 21 6 89 21 6 89 21 6 89 21 6 89 21 6 89 21 6 89 21 6 89 21 6 89 21 6 89 21 6 89 21 6 89 21 6 89 21 6 89 21 6 89 21 6 89 21 6 89 21 6 89 21 6 89 21 6 89 21 6 89 21 6 89 21 6 89 21 6 89 21 6 89 21 6 89 21 6 89 21 6 89 21 6 89 21 6 89 21 6 89 21 6 89 21 6 89 21 6 89 21 6 89 21 6 89 21 6 89 21 6 89 21 6 89 21 6 89 21 6 89 21 6 89 21 6 89 21 6 89 21 6 89 21 6 89 21 6 89 21 6 89 21 6 89 21 6 89 21 6 89 21 6 89 21 6 89 21 6 89 21 6 89 21 6 89 21 6 89 21 6 89 21 6 89 21 6 89 21 6 89 21 6 89 21 6 89 21 6 89 21 6 89 21 6 89 21 6 89 21 6 89 21 6 89 21 6 89 21 6 89 21 6 89 21 6 89 21 6 89 21 6 89 21 6 89 21 6 89 21 6 89 21 6 89 21 6 89 21 6 89 21 6 89 21 6 89 21 6 89 21 6 89 21 6 89 21 6 89 21 6 89 21 6 89 21 6 89 21 6 89 21 6 89 21 6 89 21 6 89 21 6 89 21 6 89 21 6 89 21 6 89 21 6 89 21 6 89 21 6 89 21 6 89 21 6 89 21 6
126 58 43 118 50 35 116 48 33 127 59 44 124 56 41 117 49 34 125 57 42 122 54 39 119 51 36 124 56 41 125 57 42 113 45 30 124 56 41 118 50 35 89 21 6 89 21 6 89 21 6 89 21 6 128 60 45 114 46 31 125 57 42 119 51 36 127 59 44 120 52 37 128 60 45 120 52 37 125 57 42 121 53 38 127 59 44 122 54 39 113 45 30 114 46 31 119 51 36 114 46 31 124 56 41 112 44 29 118 50 35 113 45 30 117 49 34 126 58 43 123 55 40 118 50 35 114 46 31 124 56 41 127 59 44 116 48 33 89 21 6 89 21 6 89 21 6 89 21 6 115 47 32 128 60 45 120 52 37 124 56 41 123 55 40 127 59 44 121 53 38 123 55 40 128 60 45 115 47 32 119 51 36 123 55 40 118 50 35 126 58 43 114 46 31 117 49 34 127 59 44 128 60 45 122 54 39 122 54 39 112 44 29 123 55 40 122 54 39 118 50 35 118 50 35 116 48 33 114 46 31 117 49 34 89 21 6 89 21 6 89 21 6 89 21 6 117 49 34 127 59 44 115 47 32 118 50 35 113 45 30 120 52 37 115 47 32 120 52 37 117 49 34 112 44 29 125 57 42 128 60 45 113 45 30 126 58 43 127 59 44 117 49 34 124 56 41 114 46 31 124 56 41 125 57 42 116 48 33 119 51 36 117 49 34 113 45 30 122 54 39 123 55 40 113 45 30 125 57 42 89 21 6 89 21 6 89 21 6 89 21 6 118 50 35 123 55 40 113 45 30 112 44 29 123 55 40 120 52 37 113 45 30 128 60 45 117 49 34 122 54 39 122 54 39 118 50 35 124 56 41 117 49 34
119 51 36 117 49 34 117 49 34 120 52 37 122 54 39 127 59 44 125 57 42 125 57 42 113 45 30 128 60 45 117 49 34 117 49 34 124 56 41 124 56 41 89 21 6 89 21 6 89 21 6 89 21 6 120 52 37 114 46 31 112 44 29 113 45 30 120 52 37 117 49 34 126 58 43 126 58 43 117 49 34 115 47 32 126 58 43 119 51 36 123 55 40 118 50 35 122 54 39 113 45 30 127 59 44 115 47 32 114 46 31 122 54 39 126 58 43 126 58 43 116 48 33 113 45 30 124 56 41 122 54 39 121 53 38 117 49 34 89 21 6 89 21 6 89 21 6 89 21 6 120 52 37 119 51 36 112 44 29 121 53 38 123 55 40 123 55 40 115 47 32 128 60 45 121 53 38 114 46 31 118 50 35 124 56 41 124 56 41 118 50 35 127 59 44 114 46 31 123 55 40 115 47 32 116 48 33 114 46 31 117 49 34 122 54 39 125 57 42 127 59 44 119 51 36 116 48 33 125 57 42 120 52 37 89 21 6 89 21 6 89 21 6 89 21 6 120 52 37 125 57 42 123 55 40 127 59 44 126 58 43 114 46 31 120 52 37 113 45 30 123 55 40 115 47 32 124 56 41 119 51 36 115 47 32 116 48 33 120 52 37 115 47 32 126 58 43 113 45 30 113 45 30 123 55 40 125 57 42 125 57 42 127 59 44 117 49 34 124 56 41 123 55 40 117 49 34 118 50 35 89 21 6 89 21 6 89 21 6 89 21 6 120 52 37 126 58 43 118 50 35 123 55 40 126 58 43 113 45 30 126 58 43 118 50 35 114 46 31 127 59 44 118 50 35 127 59 44 119 51 36 116 48 33
124 56 41 117 49 34 121 53 38 124 56 41 112 44 29 124 56 41 114 46 31 114 46 31 115 47 32 113 45 30 125 57 42 117 49 34 113 45 30 116 48 33 89 21 6 89 21 6 89 21 6 89 21 6 124 56 41 113 45 30 119 51 36 114 46 31 113 45 30 127 59 44 122 54 39 121 53 38 114 46 31 120 52 37 115 47 32 117 49 34 118 50 35 122 54 39 127 59 44 114 46 31 123 55 40 125 57 42 124 56 41 121 53 38 120 52 37 117 49 34 122 54 39 115 47 32 114 46 31 121 53 38 126 58 43 124 56 41 89 21 6 89 21 6 89 21 6 89 21 6 115 47 32 126 58 43 120 52 37 124 56 41 123 55 40 122 54 39 127 59 44 123 55 40 120 52 37 126 58 43 119 51 36 116 48 33 120 52 37 118 50 35 127 59 44 112 44 29 114 46 31 115 47 32 124 56 41 115 47 32 118 50 35 113 45 30 118 50 35 115 47 32 124 56 41 119 51 36 124 56 41 113 45 30 89 21 6 89 21 6 89 21 6 89 21 6 121 53 38 125 57 42 120 52 37 122 54 39 119 51 36 113 45 30 123 55 40 116 48 33 119 51 36 112 44 29 120 52 37 113 45 30 112 44 29 115 47 32 121 53 38 122 54 39 116 48 33 115 47 32 118 50 35 121 53 38 120 52 37 115 47 32 125 57 42 125 57 42 126 58 43 121 53 38 126 58 43 128 60 45 89 21 6 89 21 6 89 21 6 89 21 6 113 45 30 124 56 41 114 46 31 128 60 45 115 47 32 114 46 31 125 57 42 116 48 33 126 58 43 116 48 33 112 44 29 115 47 32 112 44 29 122 54 39
111 43 28 119 51 36 110 42 27 116 48 33 113 45 30 110 42 27 120 52 37 115 47 32 116 48 33 107 39 24 119 51 36 120 52 37 104 36 21 114 46 31 89 21 6 89 21 6 89 21 6 89 21 6 108 40 25 112 44 29 119 51 36 108 40 25 107 39 24 112 44 29 117 49 34 113 45 30 115 47 32 116 48 33 111 43 28 114 46 31 114 46 31 113 45 30 112 44 29 118 50 35 118 50 35 116 48 33 104 36 21 112 44 29 115 47 32 113 45 30 110 42 27 110 42 27 109 41 26 109 41 26 117 49 34 114 46 31 89 21 6 89 21 6 89 21 6 89 21 6 112 44 29 113 45 30 106 38 23 111 43 28 105 37 22 112 44 29 118 50 35 113 45 30 109 41 26 106 38 23 111 43 28 118 50 35 109 41 26 107 39 24 115 47 32 105 37 22 106 38 23 116 48 33 108 40 25 114 46 31 120 52 37 106 38 23 119 51 36 115 47 32 111 43 28 119 51 36 117 49 34 108 40 25 89 21 6 89 21 6 89 21 6 89 21 6 113 45 30 111 43 28 111 43 28 118 50 35 113 45 30 113 45 30 104 36 21 109 41 26 110 42 27 109 41 26 112 44 29 116 48 33 114 46 31 107 39 24 114 46 31 118 50 35 104 36 21 115 47 32 106 38 23 117 49 34 105 37 22 104 36 21 106 38 23 113 45 30 111 43 28 113 45 30 113 45 30 120 52 37 89 21 6 89 21 6 89 21 6 89 21 6 111 43 28 114 46 31 104 36 21 111 43 28 113 45 30 107 39 24 114 46 31 112 44 29 119 51 36 107 39 24 117 49 34 113 45 30 113 45 30 104 36 21
117 49 34 110 42 27 108 40 25 104 36 21 114 46 31 108 40 25 105 37 22 109 41 26 113 45 30 111 43 28 115 47 32 110 42 27 119 51 36 107 39 24 89 21 6 89 21 6 89 21 6 89 21 6 119 51 36 120 52 37 116 48 33 112 44 29 109 41 26 114 46 31 114 46 31 106 38 23 117 49 34 106 38 23 110 42 27 117 49 34 108 40 25 109 41 26 107 39 24 108 40 25 113 45 30 110 42 27 111 43 28 109 41 26 116 48 33 115 47 32 119 51 36 105 37 22 110 42 27 113 45 30 112 44 29 104 36 21 89 21 6 89 21 6 89 21 6 89 21 6 116 48 33 107 39 24 106 38 23 106 38 23 114 46 31 107 39 24 108 40 25 110 42 27 116 48 33 107 39 24 106 38 23 115 47 32 116 48 33 111 43 28 116 48 33 119 51 36 111 43 28 115 47 32 109 41 26 114 46 31 104 36 21 116 48 33 119 51 36 114 46 31 107 39 24 106 38 23 117 49 34 110 42 27 89 21 6 89 21 6 89 21 6 89 21 6 118 50 35 113 45 30 106 38 23 113 45 30 119 51 36 119 51 36 105 37 22 116 48 33 116 48 33 104 36 21 111 43 28 113 45 30 115 47 32 108 40 25 116 48 33 112 44 29 116 48 33 119 51 36 107 39 24 109 41 26 116 48 33 115 47 32 118 50 35 106 38 23 114 46 31 110 42 27 119 51 36 118 50 35 89 21 6 89 21 6 89 21 6 89 21 6 119 51 36 106 38 23 108 40 25 117 49 34 116 48 33 116 48 33 116 48 33 115 47 32 110 42 27 119 51 36 114 46 31 117 49 34 117 49 34 107 39 24
109 41 26 117 49 34 108 40 25 108 40 25 109 41 26 111 43 28 118 50 35 115 47 32 118 50 35 106 38 23 117 49 34 106 38 23 115 47 32 104 36 21 89 21 6 89 21 6 89 21 6 89 21 6 116 48 33 110 42 27 114 46 31 114 46 31 119 51 36 111 43 28 114 46 31 119 51 36 111 43 28 112 44 29 106 38 23 113 45 30 107 39 24 108 40 25 112 44 29 117 49 34 120 52 37 114 46 31 107 39 24 111 43 28 108 40 25 119 51 36 115 47 32 108 40 25 111 43 28 112 44 29 112 44 29 108 40 25 89 21 6 89 21 6 89 21 6 89 21 6 115 47 32 119 51 36 108 40 25 112 44 29 114 46 31 108 40 25 108 40 25 118 50 35 119 51 36 108 40 25 117 49 34 109 41 26 108 40 25 106 38 23 106 38 23 109 41 26 113 45 30 107 39 24 110 42 27 117 49 34 115 47 32 115 47 32 120 52 37 105 37 22 106 38 23 115 47 32 114 46 31 112 44 29 89 21 6 89 21 6 89 21 6 89 21 6 114 46 31 106 38 23 106 38 23 118 50 35 106 38 23 105 37 22 105 37 22 117 49 34 117 49 34 106 38 23 116 48 33 106 38 23 116 48 33 106 38 23 117 49 34 120 52 37 109 41 26 114 46 31 112 44 29 116 48 33 107 39 24 119 51 36 111 43 28 104 36 21 120 52 37 111 43 28 106 38 23 120 52 37 89 21 6 89 21 6 89 21 6 89 21 6 105 37 22 105 37 22 118 50 35 109 41 26 108 40 25 110 42 27 106 38 23 104 36 21 107 39 24 110 42 27 118 50 35 114 46 31 119 51 36 118 50 35
115 47 32 109 41 26 119 51 36 111 43 28 107 39 24 109 41 26 118 50 35 115 47 32 119 51 36 107 39 24 108 40 25 119 51 36 109 41 26 109 41 26 89 21 6 89 21 6 89 21 6 89 21 6 114 46 31 116 48 33 112 44 29 110 42 27 104 36 21 114 46 31 115 47 32 113 45 30 119 51 36 105 37 22 104 36 21 110 42 27 105 37 22 106 38 23 119 51 36 117 49 34 119 51 36 119 51 36 115 47 32 111 43 28 111 43 28 113 45 30 119 51 36 117 49 34 115 47 32 105 37 22 114 46 31 113 45 30 89 21 6 89 21 6 89 21 6 89 21 6 106 38 23 120 52 37 116 48 33 114 46 31 113 45 30 119 51 36 120 52 37 119 51 36 112 44 29 116 48 33 120 52 37 116 48 33 107 39 24 114 46 31 110 42 27 114 46 31 110 42 27 109 41 26 120 52 37 107 39 24 115 47 32 119 51 36 119 51 36 111 43 28 120 52 37 109 41 26 110 42 27 115 47 32 89 21 6 89 21 6 89 21 6 89 21 6 120 52 37 108 40 25 116 48 33 112 44 29 111 43 28 113 45 30 107 39 24 119 51 36 109 41 26 107 39 24 111 43 28 105 37 22 117 49 34 110 42 27 115 47 32 106 38 23 110 42 27 107 39 24 107 39 24 109 41 26 118 50 35 108 40 25 112 44 29 111 43 28 111 43 28 105 37 22 118 50 35 112 44 29 89 21 6 89 21 6 89 21 6 89 21 6 106 38 23 117 49 34 112 44 29 105 37 22 106 38 23 107 39 24 119 51 36 116 48 33 116 48 33 111 43 28 110 42 27 116 48 33 111 43 28 107 39 24
116 48 33 117 49 34 106 38 23 106 38 23 112 44 29 109 41 26 109 41 26 113 45 30 104 36 21 118 50 35 106 38 23 107 39 24 115 47 32 116 48 33 89 21 6 89 21 6 89 21 6 89 21 6 106 38 23 117 49 34 110 42 27 120 52 37 116 48 33 119 51 36 117 49 34 108 40 25 119 51 36 114 46 31 115 47 32 119 51 36 112 44 29 112 44 29 108 40 25 119 51 36 118 50 35 105 37 22 118 50 35 105 37 22 105 37 22 113 45 30 114 46 31 106 38 23 113 45 30 106 38 23 110 42 27 105 37 22 89 21 6 89 21 6 89 21 6 89 21 6 106 38 23 117 49 34 115 47 32 112 44 29 111 43 28 119 51 36 107 39 24 113 45 30 117 49 34 109 41 26 118 50 35 113 45 30 110 42 27 113 45 30 119 51 36 108 40 25 115 47 32 110 42 27 106 38 23 113 45 30 105 37 22 107 39 24 112 44 29 111 43 28 119 51 36 115 47 32 116 48 33 111 43 28 89 21 6 89 21 6 89 21 6 89 21 6 119 51 36 109 41 26 104 36 21 110 42 27 116 48 33 107 39 24 113 45 30 111 43 28 104 36 21 112 44 29 114 46 31 106 38 23 105 37 22 119 51 36 108 40 25 112 44 29 105 37 22 119 51 36 112 44 29 111 43 28 110 42 27 116 48 33 117 49 34 116 48 33 115 47 32 105 37 22 111 43 28 104 36 21 89 21 6 89 21 6 89 21 6 89 21 6 112 44 29 114 46 31 111 43 28 114 46 31 113 45 30 115 47 32 109 41 26 107 39 24 117 49 34 115 47 32 116 48 33 106 38 23 113 45 30 107 39 24
117 49 34 110 42 27 104 36 21 113 45 30 115 47 32 118 50 35 114 46 31 113 45 30 110 42 27 117 49 34 104 36 21 119 51 36 116 48 33 117 49 34 89 21 6 89 21 6 89 21 6 89 21 6 111 43 28 119 51 36 107 39 24 116 48 33 115 47 32 110 42 27 108 40 25 106 38 23 118 50 35 114 46 31 116 48 33 105 37 22 110 42 27 116 48 33 108 40 25 112 44 29 108 40 25 105 37 22 111 43 28 117 49 34 118 50 35 119 51 36 120 52 37 107 39 24 117 49 34 109 41 26 111 43 28 112 44 29 89 21 6 89 21 6 89 21 6 89 21 6 104 36 21 115 47 32 117 49 34 116 48 33 109 41 26 111 43 28 115 47 32 115 47 32 105 37 22 116 48 33 118 50 35 107 39 24 111 43 28 108 40 25 105 37 22 109 41 26 111 43 28 109 41 26 114 46 31 109 41 26 111 43 28 117 49 34 105 37 22 111 43 28 118 50 35 117 49 34 120 52 37 118 50 35 89 21 6 89 21 6 89 21 6 89 21 6 118 50 35 118 50 35 108 40 25 115 47 32 113 45 30 120 52 37 106 38 23 113 45 30 117 49 34 114 46 31 104 36 21 109 41 26 113 45 30 107 39 24 111 43 28 118 50 35 110 42 27 112 44 29 104 36 21 110 42 27 114 46 31 117 49 34 114 46 31 115 47 32 110 42 27 105 37 22 110 42 27 120 52 37 89 21 6 89 21 6 89 21 6 89 21 6 118 50 35 117 49 34 106 38 23 110 42 27 109 41 26 105 37 22 112 44 29 109 41 26 105 37 22 104 36 21 114 46 31 111 43 28 110 42 27 105 37 22
115 47 32 114 46 31 104 36 21 117 49 34 117 49 34 118 50 35 117 49 34 105 37 22 106 38 23 117 49 34 104 36 21 109 41 26 109 41 26 107 39 24 89 21 6 89 21 6 89 21 6 89 21 6 105 37 22 120 52 37 120 52 37 107 39 24 114 46 31 120 52 37 115 47 32 120 52 37 116 48 33 119 51 36 105 37 22 117 49 34 119 51 36 116 48 33 119 51 36 118 50 35 110 42 27 113 45 30 108 40 25 112 44 29 117 49 34 111 43 28 105 37 22 116 48 33 112 44 29 118 50 35 114 46 31 116 48 33 89 21 6 89 21 6 89 21 6 89 21 6 110 42 27 109 41 26 107 39 24 108 40 25 119 51 36 107 39 24 111 43 28 119 51 36 111 43 28 118 50 35 104 36 21 105 37 22 119 51 36 110 42 27 108 40 25 112 44 29 113 45 30 106 38 23 107 39 24 110 42 27 118 50 35 105 37 22 113 45 30 109 41 26 111 43 28 113 45 30 109 41 26 109 41 26 89 21 6 89 21 6 89 21 6 89 21 6 119 51 36 114 46 31 112 44 29 113 45 30 106 38 23 110 42 27 118 50 35 111 43 28 106 38 23 115 47 32 115 47 32 108 40 25 117 49 34 113 45 30 105 37 22 107 39 24 116 48 33 112 44 29 109 41 26 108 40 25 118 50 35 108 40 25 115 47 32 111 43 28 112 44 29 111 43 28 112 44 29 119 51 36 89 21 6 89 21 6 89 21 6 89 21 6 119 51 36 111 43 28 112 44 29 108 40 25 115 47 32 106 38 23 119 51 36 117 49 34 119 51 36 107 39 24 109 41 26 106 38 23 116 48 33 118 50 35
106 38 23 111 43 28 119 51 36 119 51 36 119 51 36 117 49 34 109 41 26 110 42 27 108 40 25 109 41 26 105 37 22 111 43 28 108 40 25 107 39 24 89 21 6 89 21 6 89 21 6 89 21 6 114 46 31 104 36 21 117 49 34 120 52 37 105 37 22 119 51 36 110 42 27 116 48 33 111 43 28 116 48 33 114 46 31 104 36 21 110 42 27 119 51 36 117 49 34 111 43 28 119 51 36 118 50 35 107 39 24 106 38 23 107 39 24 106 38 23 109 41 26 118 50 35 109 41 26 111 43 28 107 39 24 113 45 30 89 21 6 89 21 6 89 21 6 89 21 6 105 37 22 111 43 28 116 48 33 104 36 21 107 39 24 117 49 34 111 43 28 113 45 30 120 52 37 118 50 35 107 39 24 108 40 25 108 40 25 119 51 36 116 48 33 118 50 35 115 47 32 109 41 26 113 45 30 108 40 25 120 52 37 117 49 34 117 49 34 117 49 34 105 37 22 113 45 30 106 38 23 112 44 29 89 21 6 89 21 6 89 21 6 89 21 6 119 51 36 120 52 37 113 45 30 104 36 21 117 49 34 108 40 25 104 36 21 119 51 36 106 38 23 117 49 34 112 44 29 112 44 29 114 46 31 115 47 32 113 45 30 118 50 35 106 38 23 109 41 26 112 44 29 111 43 28 113 45 30 118 50 35 117 49 34 109 41 26 107 39 24 120 52 37 118 50 35 108 40 25 89 21 6 89 21 6 89 21 6 89 21 6 108 40 25 111 43 28 112 44 29 106 38 23 104 36 21 119 51 36 115 47 32 110 42 27 120 52 37 118 50 35 114 46 31 107 39 24 110 42 27 115 47 32
116 48 33 107 39 24 114 46 31 108 40 25 105 37 22 115 47 32 105 37 22 120 52 37 117 49 34 116 48 33 111 43 28 118 50 35 111 43 28 107 39 24 89 21 6 89 21 6 89 21 6 89 21 6 107 39 24 105 37 22 114 46 31 111 43 28 112 44 29 105 37 22 106 38 23 108 40 25 116 48 33 113 45 30 112 44 29 105 37 22 112 44 29 118 50 35 115 47 32 111 43 28 112 44 29 111 43 28 113 45 30 111 43 28 111 43 28 111 43 28 109 41 26 110 42 27 118 50 35 115 47 32 105 37 22 108 40 25 89 21 6 89 21 6 89 21 6 89 21 6 105 37 22 114 46 31 107 39 24 119 51 36 118 50 35 114 46 31 116 48 33 113 45 30 112 44 29 112 44 29 116 48 33 111 43 28 117 49 34 115 47 32 109 41 26 107 39 24 110 42 27 109 41 26 117 49 34 118 50 35 108 40 25 111 43 28 116 48 33 105 37 22 119 51 36 111 43 28 117 49 34 116 48 33 89 21 6 89 21 6 89 21 6 89 21 6 114 46 31 107 39 24 116 48 33 114 46 31 111 43 28 112 44 29 104 36 21 113 45 30 114 46 31 107 39 24 111 43 28 108 40 25 111 43 28 105 37 22 119 51 36 104 36 21 109 41 26 105 37 22 111 43 28 114 46 31 120 52 37 108 40 25 108 40 25 116 48 33 116 48 33 110 42 27 107 39 24 109 41 26 89 21 6 89 21 6 89 21 6 89 21 6 111 43 28 119 51 36 112 44 29 112 44 29 109 41 26 116 48 33 119 51 36 113 45 30 116 48 33 120 52 37 107 39 24 115 47 32 108 40 25 113 45 30
107 39 24 117 49 34 110 42 27 108 40 25 111 43 28 111 43 28 110 42 27 107 39 24 108 40 25 117 49 34 116 48 33 111 43 28 106 38 23 109 41 26 89 21 6 89 21 6 89 21 6 89 21 6 104 36 21 105 37 22 114 46 31 117 49 34 115 47 32 119 51 36 118 50 35 115 47 32 108 40 25 110 42 27 106 38 23 119 51 36 120 52 37 106 38 23 107 39 24 108 40 25 117 49 34 117 49 34 116 48 33 117 49 34 110 42 27 107 39 24 119 51 36 105 37 22 115 47 32 109 41 26 111 43 28 120 52 37 89 21 6 89 21 6 89 21 6 89 21 6 112 44 29 113 45 30 110 42 27 113 45 30 108 40 25 119 51 36 109 41 26 117 49 34 119 51 36 105 37 22 109 41 26 117 49 34 115 47 32 106 38 23 107 39 24 118 50 35 116 48 33 112 44 29 108 40 25 112 44 29 116 48 33 120 52 37 119 51 36 117 49 34 119 51 36 109 41 26 118 50 35 106 38 23 89 21 6 89 21 6 89 21 6 89 21 6 105 37 22 107 39 24 110 42 27 114 46 31 117 49 34 110 42 27 114 46 31 115 47 32 112 44 29 110 42 27 113 45 30 111 43 28 117 49 34 112 44 29 105 37 22 114 46 31 117 49 34 109 41 26 110 42 27 105 37 22 117 49 34 120 52 37 111 43 28 111 43 28 112 44 29 111 43 28 111 43 28 113 45 30 89 21 6 89 21 6 89 21 6 89 21 6 113 45 30 117 49 34 112 44 29 104 36 21 107 39 24 115 47 32 107 39 24 109 41 26 104 36 21 117 49 34 105 37 22 113 45 30 119 51 36 114 46 31
117 49 34 116 48 33 113 45 30 119 51 36 115 47 32 113 45 30 115 47 32 107 39 24 112 44 29 106 38 23 105 37 22 111 43 28 120 52 37 113 45 30 89 21 6 89 21 6 89 21 6 89 21 6 120 52 37 104 36 21 119 51 36 105 37 22 113 45 30 117 49 34 104 36 21 115 47 32 108 40 25 109 41 26 106 38 23 113 45 30 118 50 35 112 44 29 114 46 31 114 46 31 114 46 31 109 41 26 116 48 33 114 46 31 111 43 28 115 47 32 104 36 21 116 48 33 108 40 25 113 45 30 107 39 24 118 50 35 89 21 6 89 21 6 89 21 6 89 21 6 115 47 32 112 44 29 115 47 32 115 47 32 114 46 31 119 51 36 105 37 22 106 38 23 114 46 31 118 50 35 110 42 27 118 50 35 119 51 36 107 39 24 109 41 26 112 44 29 107 39 24 113 45 30 108 40 25 115 47 32 109 41 26 114 46 31 120 52 37 115 47 32 118 50 35 106 38 23 112 44 29 108 40 25 89 21 6 89 21 6 89 21 6 89 21 6 117 49 34 106 38 23 112 44 29 107 39 24 117 49 34 105 37 22 105 37 22 119 51 36 108 40 25 106 38 23 117 49 34 110 42 27 111 43 28 118 50 35 119 51 36 114 46 31 111 43 28 105 37 22 112 44 29 110 42 27 109 41 26 117 49 34 118 50 35 118 50 35 110 42 27 105 37 22 110 42 27 113 45 30 89 21 6 89 21 6 89 21 6 89 21 6 108 40 25 111 43 28 109 41 26 105 37 22 105 37 22 118 50 35 112 44 29 120 52 37 113 45 30 106 38 23 111 43 28 114 46 31 109 41 26 112 44 29
115 47 32 118 50 35 115 47 32 118 50 35 119 51 36 110 42 27 112 44 29 119 51 36 106 38 23 114 46 31 109 41 26 107 39 24 109 41 26 115 47 32 89 21 6 89 21 6 89 21 6 89 21 6 115 47 32 110 42 27 119 51 36 117 49 34 120 52 37 113 45 30 115 47 32 105 37 22 112 44 29 109 41 26 120 52 37 106 38 23 116 48 33 106 38 23 106 38 23 120 52 37 108 40 25 107 39 24 110 42 27 106 38 23 117 49 34 107 39 24 105 37 22 120 52 37 106 38 23 105 37 22 115 47 32 110 42 27 89 21 6 89 21 6 89 21 6 89 21 6 117 49 34 112 44 29 112 44 29 110 42 27 119 51 36 107 39 24 109 41 26 120 52 37 110 42 27 104 36 21 107 39 24 107 39 24 118 50 35 110 42 27 112 44 29 118 50 35 106 38 23 107 39 24 117 49 34 112 44 29 110 42 27 107 39 24 120 52 37 105 37 22 118 50 35 110 42 27 106 38 23 110 42 27 89 21 6 89 21 6 89 21 6 89 21 6 110 42 27 113 45 30 108 40 25 111 43 28 108 40 25 119 51 36 111 43 28 107 39 24 115 47 32 110 42 27 109 41 26 118 50 35 115 47 32 111 43 28 107 39 24 113 45 30 109 41 26 110 42 27 120 52 37 104 36 21 110 42 27 111 43 28 117 49 34 116 48 33 117 49 34 112 44 29 119 51 36 108 40 25 89 21 6 89 21 6 89 21 6 89 21 6 116 48 33 116 48 33 119 51 36 112 44 29 108 40 25 113 45 30 114 46 31 114 46 31 113 45 30 106 38 23 109 41 26 111 43 28 110 42 27 113 45 30
115 47 32 120 52 37 104 36 21 117 49 34 117 49 34 119 51 36 117 49 34 108 40 25 107 39 24 112 44 29 117 49 34 104 36 21 117 49 34 113 45 30 89 21 6 89 21 6 89 21 6 89 21 6 107 39 24 117 49 34 111 43 28 106 38 23 105 37 22 106 38 23 108 40 25 106 38 23 106 38 23 105 37 22 119 51 36 109 41 26 106 38 23 115 47 32 108 40 25 119 51 36 106 38 23 108 40 25 105 37 22 114 46 31 115 47 32 112 44 29 109 41 26 110 42 27 115 47 32 114 46 31 116 48 33 112 44 29 89 21 6 89 21 6 89 21 6 89 21 6 104 36 21 104 36 21 105 37 22 116 48 33 106 38 23 106 38 23 107 39 24 108 40 25 105 37 22 106 38 23 112 44 29 113 45 30 104 36 21 112 44 29 115 47 32 109 41 26 119 51 36 104 36 21 118 50 35 112 44 29 115 47 32 108 40 25 113 45 30 117 49 34 114 46 31 107 39 24 115 47 32 111 43 28 89 21 6 89 21 6 89 21 6 89 21 6 106 38 23 113 45 30 112 44 29 109 41 26 105 37 22 110 42 27 119 51 36 108 40 25 116 48 33 112 44 29 117 49 34 107 39 24 114 46 31 116 48 33 111 43 28 108 40 25 120 52 37 109 41 26 109 41 26 109 41 26 115 47 32 116 48 33 113 45 30 110 42 27 108 40 25 114 46 31 113 45 30 106 38 23 89 21 6 89 21 6 89 21 6 89 21 6 110 42 27 108 40 25 115 47 32 114 46 31 104 36 21 119 51 36 112 44 29 119 51 36 105 37 22 110 42 27 118 50 35 114 46 31 116 48 33 107 39 24
89 21 6 89 21 6 89 21 6 89 21 6 89 21 6 89 21 6 89 21 6 89 21 6 89 21 6 89 21 6 89 21 6 89 21 6 89 21 6 89 21 6 89 21 6 89 21 6 89 21 6 89 21 6 89 21 6 89 21 6 89 21 6 89 21 6 89 21 6 89 21 6 89 21 6 89 21 6 89 21 6 89 21 6 89 21 6 89 21 6 89 21 6 89 21 6 89 21 6 89 21 6 89 21 6 89 21 6 89 21 6 89 21 6 89 21 6 89 21 6 89 21 6 89 21 6 89 21 6 89 21 6 89 21 6 89 21 6 89 21 6 89 21 6 89 21 6 89 21 6 89 21 6 89 21 6 89 21 6 89 21 6 89 21 6 89 21 6 89 21 6 89 21 6 89 21 6 89 21 6 89 21 6 89 21 6 89 21 6 89 21 6 89 21 6 89 21 6 89 21 6 89 21 6 89 21 6 89 21 6 89 21 6 89 21 6 89 21 6 89 21 6 89 21 6 89 21 6 89 21 6 89 21 6 89 21 6 89 21 6 89 21 6 89 21 6 89 21 6 89 21 6 89 21 6 89 21 6 89 21 6 89 21 6 89 21 6 89 21 6 89 21 6 89 21 6 89 21 6 89 21 6 89 21 6 89 21 6 89 21 6 89 21 6 89 21 6 89 21 6 89 21 6 89 21 6 89 21 6 89 21 6 89 21 6 89 21 6 89 21 6 89 21 6 89 21 6 89 21 6 89 21 6 89 21 6 89 21 6 89 21 6 89 21 6 89 21 6 89 21 6 89 21 6 89 21 6 89 21 6 89 21 6 89 21 6 89 21 6 89 21 6 89 21 6 89 21 6 89 21 6 89 21 6
89 21 6 89 21 6 89 21 6 89 21 6 89 21 6 89 21 6 89 21 6 89 21 6 89 21 6 89 21 6 89 21 6 89 21 6 89 21 6 89 21 6 89 21 6 89 21 6 89 21 6 89 21 6 89 21 6 89 21 6 89 21 6 89 21 6 89 21 6 89 21 6 89 21 6 89 21 6 89 21 6 89 21 6 89 21 6 89 21 6 89 21 6 89 21 6 89 21 6 89 21 6 89 21 6 89 21 6 89 21 6 89 21 6 89 21 6 89 21 6 89 21 6 89 21 6 89 21 6 89 21 6 89 21 6 89 21 6 89 21 6 89 21 6 89 21 6 89 21 6 89 21 6 89 21 6 89 21 6 89 21 6 89 21 6 89 21 6 89 21 6 89 21 6 89 21 6 89 21 6 89 21 6 89 21 6 89 21 6 89 21 6 89 21 6 89 21 6 89 21 6 89 21 6 89 21 6 89 21 6 89 21 6 89 21 6 89 21 6 89 21 6 89 21 6 89 21 6 89 21 6 89 21 6 89 21 6 89 21 6 89 21 6 89 21 6 89 21 6 89 21 6 89 21 6 89 21 6 89 21 6 89 21 6 89 21 6 89 21 6 89 21 6 89 21 6 89 21 6 89 21 6 89 21 6 89 21 6 89 21 6 89 21 6 89 21 6 89 21 6 89 21 6 89 21 6 89 21 6 89 21 6 89 21 6 89 21 6 89 21 6 89 21 6 89 21 6 89 21 6 89 21 6 89 21 6 89 21 6 89 21 6 89 21 6 89 21 6 89 21 6 89 21 6 89 21 6 89 21 6 89 21 6 89 21 6 89 21 6 89 21 6 89 21 6 89 21 6 89 21 6 89 21 6
89 21 6 89 21 6 89 21 6 89 21 6 89 21 6 89 21 6 89 21 6 89 21 6 89 21 6 89 21 6 89 21 6 89 21 6 89 21 6 89 21 6 89 21 6 89 21 6 89 21 6 89 21 6 89 21 6 89 21 6 89 21 6 89 21 6 89 21 6 89 21 6 89 21 6 89 21 6 89 21 6 89 21 6 89 21 6 89 21 6 89 21 6 89 21 6 89 21 6 89 21 6 89 21 6 89 21 6 89 21 6 89 21 6 89 21 6 89 21 6 89 21 6 89 21 6 89 21 6 89 21 6 89 21 6 89 21 6 89 21 6 89 21 6 89 21 6 89 21 6 89 21 6 89 21 6 89 21 6 89 21 6 89 21 6 89 21 6 89 21 6 89 21 6 89 21 6 89 21 6 89 21 6 89 21 6 89 21 6 89 21 6 89 21 6 89 21 6 89 21 6 89 21 6 89 21 6 89 21 6 89 21 6 89 21 6 89 21 6 89 21 6 89 21 6 89 21 6 89 21 6 89 21 6 89 21 6 89 21 6 89 21 6 89 21 6 89 21 6 89 21 6 89 21 6 89 21 6 89 21 6 89 21 6 89 21 6 89 21 6 89 21 6 89 21 6 89 21 6 89 21 6 89 21 6 89 21 6 89 21 6 89 21 6 89 21 6 89 21 6 89 21 6 89 21 6 89 21 6 89 21 6 89 21 6 89 21 6 89 21 6 89 21 6 89 21 6 89 21 6 89 21 6 89 21 6 89 21 6 89 21 6 89 21 6 89 21 6 89 21 6 89 21 6 89 21 6 89 21 6 89 21 6 89 21 6 89 21 6 89 21 6 89 21 6 89 21 6 89 21 6 89 21 6
89 21 6 89 21 6 89 21 6 89 21 6 89 21 6 89 21 6 89 21 6 89 21 6 89 21 6 89 21 6 89 21 6 89 21 6 89 21 6 89 21 6 89 21 6 89 21 6 89 21 6 89 21 6 89 21 6 89 21 6 89 21 6 89 21 6 89 21 6 89 21 6 89 21 6 89 21 6 89 21 6 89 21 6 89 21 6 89 21 6 89 21 6 89 21 6 89 21 6 89 21 6 89 21 6 89 21 6 89 21 6 89 21 6 89 21 6 89 21 6 89 21 6 89 21 6 89 21 6 89 21 6 89 21 6 89 21 6 89 21 6 89 21 6 89 21 6 89 21 6 89 21 6 89 21 6 89 21 6 89 21 6 89 21 6 89 21 6 89 21 6 89 21 6 89 21 6 89 21 6 89 21 6 89 21 6 89 21 6 89 21 6 89 21 6 89 21 6 89 21 6 89 21 6 89 21 6 89 21 6 89 21 6 89 21 6 89 21 6 89 21 6 89 21 6 89 21 6 89 21 6 89 21 6 89 21 6 89 21 6 89 21 6 89 21 6 89 21 6 89 21 6 89 21 6 89 21 6 89 21 6 89 21 6 89 21 6 89 21 6 89 21 6 89 21 6 89 21 6 89 21 6 89 21 6 89 21 6 89 21 6 89 21 6 89 21 6 89 21 6 89 21 6 89 21 6 89 21 6 89 21 6 89 21 6 89 21 6 89 21 6 89 21 6 89 21 6 89 21 6 89 21 6 89 21 6 89 21 6 89 21 6 89 21 6 89 21 6 89 21 6 89 21 6 89 21 6 89 21 6 89 21 6 89 21 6 89 21 6 89 21 6 89 21 6 89 21 6 89 21 6 89 21 6
89 21 6 89 21 6 113 45 30 128 60 45 114 46 31 124 56 41 120 52 37 126 58 43 127 59 44 117 49 34 120 52 37 113 45 30 115 47 32 118 50 35 112 44 29 126 58 43 121 53 38 121 53 38 118 50 35 123 55 40 121 53 38 120 52 37 119 51 36 114 46 31 114 46 31 114 46 31 126 58 43 118 50 35 118 50 35 118 50 35 89 21 6 89 21 6 89 21 6 89 21 6 116 48 33 114 46 31 115 47 32 123 55 40 121 53 38 128 60 45 127 59 44 121 53 38 127 59 44 127 59 44 124 56 41 116 48 33 118 50 35 119 51 36 113 45 30 126 58 43 113 45 30 119 51 36 116 48 33 112 44 29 116 48 33 115 47 32 118 50 35 118 50 35 117 49 34 115 47 32 118 50 35 123 55 40 89 21 6 89 21 6 89 21 6 89 21 6 118 50 35 127 59 44 119 51 36 121 53 38 122 54 39 120 52 37 124 56 41 122 54 39 122 54 39 120 52 37 124 56 41 122 54 39 124 56 41 116 48 33 117 49 34 117 49 34 119 51 36 124 56 41 125 57 42 122 54 39 112 44 29 116 48 33 122 54 39 124 56 41 113 45 30 122 54 39 115 47 32 121 53 38 89 21 6 89 21 6 89 21 6 89 21 6 113 45 30 113 45 30 116 48 33 128 60 45 122 54 39 123 55 40 118 50 35 124 56 41 118 50 35 114 46 31 124 56 41 121 53 38 115 47 32 115 47 32 120 52 37 121 53 38 126 58 43 113 45 30 122 54 39 113 45 30 114 46 31 114 46 31 128 60 45 122 54 39 126 58 43 115 47 32 113 45 30 113 45 30 89 21 6 89 21 6
89 21 6 89 21 6 118 50 35 119 51 36 119 51 36 121 53 38 119 51 36 119 51 36 126 58 43 125 57 42 117 49 34 125 57 42 128 60 45 123 55 40 113 45 30 124 56 41 115 47 32 122 54 39 126 58 43 115 47 32 119 51 36 126 58 43 114 46 31 119 51 36 118 50 35 124 56 41 120 52 37 115 47 32 119 51 36 122 54 39 89 21 6 89 21 6 89 21 6 89 21 6 119 51 36 121 53 38 119 51 36 119 51 36 122 54 39 128 60 45 121 53 38 118 50 35 113 45 30 121 53 38 119 51 36 118 50 35 120 52 37 125 57 42 123 55 40 123 55 40 114 46 31 120 52 37 125 57 42 118 50 35 119 51 36 124 56 41 127 59 44 120 52 37 126 58 43 127 59 44 122 54 39 118 50 35 89 21 6 89 21 6 89 21 6 89 21 6 126 58 43 120 52 37 121 53 38 118 50 35 112 44 29 114 46 31 118 50 35 124 56 41 127 59 44 121 53 38 112 44 29 117 49 34 122 54 39 125 57 42 120 52 37 113 45 30 123 55 40 113 45 30 117 49 34 121 53 38 114 46 31 121 53 38 116 48 33 119 51 36 124 56 41 116 48 33 128 60 45 113 45 30 89 21 6 89 21 6 89 21 6 89 21 6 121 53 38 124 56 41 117 49 34 120 52 37 124 56 41 124 56 41 122 54 39 128 60 45 126 58 43 120 52 37 123 55 40 113 45 30 117 49 34 126 58 43 118 50 35 125 57 42 126 58 43 124 56 41 126 58 43 119 51 36 115 47 32 127 59 44 127 59 44 126 58 43 128 60 45 120 52 37 114 46 31 115 47 32 89 21 6 89 21 6
89 21 6 89 21 6 112 44 29 125 57 42 120 52 37 122 54 39 124 56 41 124 56 41 121 53 38 112 44 29 114 46 31 115 47 32 122 54 39 116 48 33 125 57 42 119 51 36 113 45 30 118 50 35 127 59 44 118 50 35 127 59 44 126 58 43 121 53 38 120 52 37 114 46 31 120 52 37 124 56 41 118 50 35 124 56 41 123 55 40 89 21 6 89 21 6 89 21 6 89 21 6 127 59 44 126 58 43 114 46 31 126 58 43 115 47 32 120 52 37 126 58 43 114 46 31 118 50 35 124 56 41 120 52 37 126 58 43 119 51 36 120 52 37 122 54 39 127 59 44 113 45 30 112 44 29 117 49 34 124 56 41 123 55 40 126 58 43 117 49 34 117 49 34 120 52 37 115 47 32 126 58 43 114 46 31 89 21 6 89 21 6 89 21 6 89 21 6 122 54 39 114 46 31 120 52 37 114 46 31 119 51 36 120 52 37 127 59 44 116 48 33 114 46 31 115 47 32 115 47 32 115 47 32 119 51 36 127 59 44 126 58 43 124 56 41 121 53 38 125 57 42 120 52 37 119 51 36 118 50 35 120 52 37 119 51 36 116 48 33 114 46 31 122 54 39 115 47 32 113 45 30 89 21 6 89 21 6 89 21 6 89 21 6 114 46 31 116 48 33 115 47 32 114 46 31 117 49 34 124 56 41 113 45 30 112 44 29 118 50 35 127 59 44 115 47 32 117 49 34 118 50 35 121 53 38 120 52 37 127 59 44 115 47 32 113 45 30 119 51 36 118 50 35 116 48 33 125 57 42 126 58 43 117 49 34 125 57 42 124 56 41 127 59 44 127 59 44 89 21 6 89 21 6
89 21 6 89 21 6 120 52 37 109 41 26 105 37 22 120 52 37 119 51 36 105 37 22 119 51 36 109 41 26 105 37 22 106 38 23 108 40 25 106 38 23 108 40 25 108 40 25 113 45 30 115 47 32 117 49 34 105 37 22 111 43 28 120 52 37 107 39 24 119 51 36 112 44 29 109 41 26 114 46 31 108 40 25 108 40 25 115 47 32 89 21 6 89 21 6 89 21 6 89 21 6 107 39 24 104 36 21 118 50 35 111 43 28 112 44 29 120 52 37 120 52 37 116 48 33 106 38 23 117 49 34 106 38 23 120 52 37 112 44 29 120 52 37 118 50 35 114 46 31 107 39 24 117 49 34 117 49 34 105 37 22 105 37 22 109 41 26 108 40 25 118 50 35 111 43 28 108 40 25 107 39 24 116 48 33 89 21 6 89 21 6 89 21 6 89 21 6 117 49 34 118 50 35 116 48 33 106 38 23 110 42 27 114 46 31 108 40 25 117 49 34 110 42 27 116 48 33 112 44 29 104 36 21 116 48 33 118 50 35 116 48 33 105 37 22 113 45 30 109 41 26 108 40 25 107 39 24 110 42 27 112 44 29 118 50 35 114 46 31 113 45 30 118 50 35 106 38 23 104 36 21 89 21 6 89 21 6 89 21 6 89 21 6 112 44 29 114 46 31 117 49 34 111 43 28 107 39 24 111 43 28 115 47 32 105 37 22 108 40 25 118 50 35 104 36 21 117 49 34 118 50 35 114 46 31 104 36 21 114 46 31 110 42 27 120 52 37 115 47 32 108 40 25 111 43 28 120 52 37 116 48 33 119 51 36 116 48 33 117 49 34 114 46 31 118 50 35 89 21 6 89 21 6
89 21 6 89 21 6 119 51 36 107 39 24 112 44 29 116 48 33 110 42 27 115 47 32 113 45 30 116 48 33 105 37 22 105 37 22 119 51 36 107 39 24 113 45 30 109 41 26 107 39 24 112 44 29 113 45 30 119 51 36 105 37 22 113 45 30 114 46 31 116 48 33 119 51 36 118 50 35 119 51 36 109 41 26 116 48 33 113 45 30 89 21 6 89 21 6 89 21 6 89 21 6 112 44 29 115 47 32 107 39 24 111 43 28 114 46 31 112 44 29 116 48 33 116 48 33 104 36 21 107 39 24 118 50 35 105 37 22 105 37 22 116 48 33 109 41 26 110 42 27 114 46 31 109 41 26 120 52 37 111 43 28 117 49 34 117 49 34 117 49 34 119 51 36 109 41 26 112 44 29 105 37 22 118 50 35 89 21 6 89 21 6 89 21 6 89 21 6 108 40 25 104 36 21 118 50 35 113 45 30 107 39 24 109 41 26 107 39 24 117 49 34 115 47 32 118 50 35 115 47 32 117 49 34 106 38 23 117 49 34 113 45 30 116 48 33 106 38 23 106 38 23 110 42 27 105 37 22 116 48 33 108 40 25 115 47 32 112 44 29 105 37 22 115 47 32 112 44 29 104 36 21 89 21 6 89 21 6 89 21 6 89 21 6 116 48 33 110 42 27 115 47 32 114 46 31 117 49 34 116 48 33 105 37 22 113 45 30 116 48 33 106 38 23 104 36 21 107 39 24 116 48 33 109 41 26 114 46 31 117 49 34 112 44 29 110 42 27 113 45 30 104 36 21 112 44 29 116 48 33 119 51 36 115 47 32 117 49 34 108 40 25 118 50 35 115 47 32 89 21 6 89 21 6
89 21 6 89 21 6 114 46 31 118 50 35 113 45 30 113 45 30 109 41 26 116 48 33 110 42 27 105 37 22 105 37 22 110 42 27 108 40 25 114 46 31 108 40 25 110 42 27 112 44 29 110 42 27 108 40 25 115 47 32 118 50 35 114 46 31 117 49 34 118 50 35 117 49 34 107 39 24 119 51 36 114 46 31 117 49 34 116 48 33 89 21 6 89 21 6 89 21 6 89 21 6 111 43 28 115 47 32 106 38 23 119 51 36 119 51 36 108 40 25 105 37 22 115 47 32 110 42 27 104 36 21 108 40 25 110 42 27 116 48 33 110 42 27 120 52 37 118 50 35 112 44 29 116 48 33 112 44 29 117 49 34 105 37 22 114 46 31 107 39 24 116 48 33 113 45 30 113 45 30 119 51 36 106 38 23 89 21 6 89 21 6 89 21 6 89 21 6 119 51 36 118 50 35 106 38 23 112 44 29 117 49 34 119 51 36 105 37 22 113 45 30 116 48 33 116 48 33 115 47 32 119 51 36 115 47 32 119 51 36 111 43 28 114 46 31 106 38 23 116 48 33 111 43 28 106 38 23 109 41 26 109 41 26 114 46 31 109 41 26 111 43 28 107 39 24 114 46 31 115 47 32 89 21 6 89 21 6 89 21 6 89 21 6 118 50 35 111 43 28 108 40 25 115 47 32 112 44 29 106 38 23 117 49 34 115 47 32 113 45 30 107 39 24 109 41 26 110 42 27 105 37 22 117 49 34 119 51 36 104 36 21 114 46 31 114 46 31 110 42 27 109 41 26 118 50 35 105 37 22 115 47 32 112 44 29 111 43 28 115 47 32 113 45 30 106 38 23 89 21 6 89 21 6
89 21 6 89 21 6 109 41 26 118 50 35 108 40 25 113 45 30 105 37 22 108 40 25 113 45 30 106 38 23 107 39 24 114 46 31 115 47 32 107 39 24 107 39 24 104 36 21 115 47 32 116 48 33 105 37 22 111 43 28 105 37 22 118 50 35 118 50 35 105 37 22 110 42 27 107 39 24 105 37 22 117 49 34 112 44 29 107 39 24 89 21 6 89 21 6 89 21 6 89 21 6 108 40 25 107 39 24 118 50 35 112 44 29 117 49 34 108 40 25 112 44 29 108 40 25 115 47 32 113 45 30 116 48 33 116 48 33 108 40 25 105 37 22 112 44 29 110 42 27 113 45 30 106 38 23 105 37 22 113 45 30 106 38 23 111 43 28 117 49 34 106 38 23 112 44 29 110 42 27 116 48 33 104 36 21 89 21 6 89 21 6 89 21 6 89 21 6 109 41 26 105 37 22 107 39 24 117 49 34 114 46 31 110 42 27 105 37 22 114 46 31 119 51 36 115 47 32 107 39 24 117 49 34 114 46 31 109 41 26 119 51 36 118 50 35 108 40 25 115 47 32 117 49 34 105 37 22 116 48 33 111 43 28 111 43 28 117 49 34 104 36 21 110 42 27 109 41 26 115 47 32 89 21 6 89 21 6 89 21 6 89 21 6 118 50 35 110 42 27 104 36 21 117 49 34 109 41 26 114 46 31 117 49 34 116 48 33 112 44 29 109 41 26 110 42 27 105 37 22 106 38 23 112 44 29 120 52 37 111 43 28 119 51 36 117 49 34 113 45 30 117 49 34 107 39 24 110 42 27 105 37 22 115 47 32 109 41 26 111 43 28 104 36 21 109 41 26 89 21 6 89 21 6
89 21 6 89 21 6 115 47 32 105 37 22 118 50 35 110 42 27 112 44 29 108 40 25 110 42 27 119 51 36 111 43 28 112 44 29 113 45 30 110 42 27 110 42 27 105 37 22 109 41 26 115 47 32 117 49 34 117 49 34 117 49 34 112 44 29 111 43 28 112 44 29 119 51 36 105 37 22 118 50 35 116 48 33 107 39 24 117 49 34 89 21 6 89 21 6 89 21 6 89 21 6 113 45 30 113 45 30 119 51 36 109 41 26 118 50 35 106 38 23 113 45 30 115 47 32 107 39 24 106 38 23 104 36 21 104 36 21 115 47 32 107 39 24 108 40 25 109 41 26 111 43 28 113 45 30 113 45 30 117 49 34 112 44 29 108 40 25 118 50 35 117 49 34 118 50 35 108 40 25 114 46 31 105 37 22 89 21 6 89 21 6 89 21 6 89 21 6 109 41 26 109 41 26 109 41 26 108 40 25 104 36 21 117 49 34 112 44 29 108 40 25 114 46 31 111 43 28 119 51 36 116 48 33 117 49 34 112 44 29 106 38 23 108 40 25 120 52 37 119 51 36 113 45 30 104 36 21 104 36 21 104 36 21 116 48 33 119 51 36 105 37 22 107 39 24 119 51 36 115 47 32 89 21 6 89 21 6 89 21 6 89 21 6 107 39 24 118 50 35 105 37 22 112 44 29 105 37 22 120 52 37 115 47 32 107 39 24 116 48 33 116 48 33 116 48 33 114 46 31 107 39 24 118 50 35 116 48 33 108 40 25 116 48 33 112 44 29 110 42 27 109 41 26 109 41 26 106 38 23 106 38 23 112 44 29 109 41 26 106 38 23 108 40 25 118 50 35 89 21 6 89 21 6
89 21 6 89 21 6 118 50 35 105 37 22 109 41 26 108 40 25 105 37 22 107 39 24 113 45 30 115 47 32 108 40 25 118 50 35 110 42 27 119 51 36 117 49 34 117 49 34 109 41 26 109 41 26 114 46 31 110 42 27 105 37 22 113 45 30 106 38 23 108 40 25 116 48 33 106 38 23 110 42 27 109 41 26 114 46 31 114 46 31 89 21 6 89 21 6 89 21 6 89 21 6 106 38 23 108 40 25 110 42 27 109 41 26 112 44 29 111 43 28 115 47 32 110 42 27 105 37 22 110 42 27 116 48 33 106 38 23 111 43 28 111 43 28 118 50 35 106 38 23 106 38 23 112 44 29 112 44 29 116 48 33 120 52 37 114 46 31 116 48 33 112 44 29 116 48 33 118 50 35 106 38 23 113 45 30 89 21 6 89 21 6 89 21 6 89 21 6 118 50 35 108 40 25 119 51 36 120 52 37 114 46 31 118 50 35 115 47 32 109 41 26 115 47 32 113 45 30 119 51 36 107 39 24 114 46 31 110 42 27 106 38 23 109 41 26 117 49 34 114 46 31 106 38 23 106 38 23 112 44 29 117 49 34 115 47 32 105 37 22 110 42 27 111 43 28 117 49 34 115 47 32 89 21 6 89 21 6 89 21 6 89 21 6 118 50 35 109 41 26 110 42 27 119 51 36 110 42 27 111 43 28 120 52 37 118 50 35 114 46 31 113 45 30 116 48 33 110 42 27 107 39 24 115 47 32 119 51 36 108 40 25 109 41 26 106 38 23 114 46 31 118 50 35 109 41 26 113 45 30 119 51 36 119 51 36 117 49 34 116 48 33 108 40 25 112 44 29 89 21 6 89 21 6
89 21 6 89 21 6 111 43 28 106 38 23 117 49 34 110 42 27 105 37 22 113 45 30 114 46 31 115 47 32 112 44 29 116 48 33 116 48 33 110 42 27 114 46 31 113 45 30 118 50 35 108 40 25 116 48 33 107 39 24 114 46 31 116 48 33 106 38 23 115 47 32 115 47 32 112 44 29 110 42 27 105 37 22 117 49 34 107 39 24 89 21 6 89 21 6 89 21 6 89 21 6 109 41 26 113 45 30 109 41 26 117 49 34 108 40 25 119 51 36 106 38 23 119 51 36 118 50 35 111 43 28 120 52 37 116 48 33 113 45 30 114 46 31 117 49 34 118 50 35 114 46 31 105 37 22 120 52 37 107 39 24 106 38 23 113 45 30 117 49 34 108 40 25 117 49 34 105 37 22 107 39 24 111 43 28 89 21 6 89 21 6 89 21 6 89 21 6 108 40 25 107 39 24 113 45 30 109 41 26 105 37 22 117 49 34 116 48 33 108 40 25 112 44 29 108 40 25 111 43 28 112 44 29 106 38 23 106 38 23 112 44 29 108 40 25 104 36 21 114 46 31 106 38 23 115 47 32 104 36 21 115 47 32 120 52 37 109 41 26 113 45 30 114 46 31 120 52 37 116 48 33 89 21 6 89 21 6 89 21 6 89 21 6 106 38 23 116 48 33 114 46 31 117 49 34 105 37 22 107 39 24 112 44 29 113 45 30 112 44 29 105 37 22 109 41 26 112 44 29 110 42 27 114 46 31 119 51 36 117 49 34 105 37 22 119 51 36 104 36 21 113 45 30 118 50 35 119 51 36 112 44 29 110 42 27 115 47 32 119 51 36 117 49 34 112 44 29 89 21 6 89 21 6
89 21 6 89 21 6 118 50 35 109 41 26 116 48 33 113 45 30 119 51 36 119 51 36 111 43 28 115 47 32 116 48 33 107 39 24 107 39 24 111 43 28 105 37 22 105 37 22 116 48 33 106 38 23 110 42 27 113 45 30 106 38 23 109 41 26 116 48 33 116 48 33 119 51 36 115 47 32 109 41 26 120 52 37 120 52 37 114 46 31 89 21 6 89 21 6 89 21 6 89 21 6 109 41 26 110 42 27 111 43 28 104 36 21 108 40 25 110 42 27 105 37 22 110 42 27 117 49 34 110 42 27 114 46 31 117 49 34 112 44 29 108 40 25 115 47 32 108 40 25 112 44 29 109 41 26 105 37 22 105 37 22 111 43 28 108 40 25 107 39 24 116 48 33 114 46 31 119 51 36 105 37 22 115 47 32 89 21 6 89 21 6 89 21 6 89 21 6 115 47 32 106 38 23 109 41 26 109 41 26 117 49 34 115 47 32 112 44 29 117 49 34 117 49 34 114 46 31 111 43 28 108 40 25 106 38 23 118 50 35 115 47 32 107 39 24 111 43 28 119 51 36 119 51 36 117 49 34 116 48 33 108 40 25 113 45 30 111 43 28 118 50 35 116 48 33 108 40 25 114 46 31 89 21 6 89 21 6 89 21 6 89 21 6 119 51 36 117 49 34 113 45 30 107 39 24 118 50 35 113 45 30 105 37 22 109 41 26 117 49 34 113 45 30 117 49 34 115 47 32 119 51 36 104 36 21 112 44 29 119 51 36 105 37 22 115 47 32 113 45 30 113 45 30 115 47 32 105 37 22 111 43 28 107 39 24 108 40 25 117 49 34 116 48 33 116 48 33 89 21 6 89 21 6
89 21 6 89 21 6 105 37 22 120 52 37 116 48 33 116 48 33 109 41 26 108 40 25 117 49 34 105 37 22 106 38 23 107 39 24 117 49 34 120 52 37 119 51 36 107 39 24 114 46 31 115 47 32 117 49 34 111 43 28 104 36 21 107 39 24 119 51 36 119 51 36 108 40 25 106 38 23 120 52 37 110 42 27 117 49 34 116 48 33 89 21 6 89 21 6 89 21 6 89 21 6 105 37 22 118 50 35 111 43 28 106 38 23 113 45 30 110 42 27 104 36 21 106 38 23 108 40 25 113 45 30 108 40 25 107 39 24 109 41 26 116 48 33 115 47 32 109 41 26 118 50 35 107 39 24 111 43 28 117 49 34 113 45 30 106 38 23 115 47 32 113 45 30 117 49 34 113 45 30 106 38 23 114 46 31 89 21 6 89 21 6 89 21 6 89 21 6 118 50 35 115 47 32 117 49 34 109 41 26 107 39 24 110 42 27 113 45 30 113 45 30 118 50 35 113 45 30 115 47 32 117 49 34 107 39 24 116 48 33 108 40 25 110 42 27 116 48 33 114 46 31 105 37 22 105 37 22 115 47 32 113 45 30 111 43 28 118 50 35 118 50 35 115 47 32 112 44 29 107 39 24 89 21 6 89 21 6 89 21 6 89 21 6 113 45 30 112 44 29 111 43 28 119 51 36 106 38 23 113 45 30 110 42 27 112 44 29 115 47 32 119 51 36 106 38 23 118 50 35 114 46 31 116 48 33 118 50 35 117 49 34 115 47 32 106 38 23 108 40 25 119 51 36 116 48 33 118 50 35 113 45 30 114 46 31 118 50 35 107 39 24 116 48 33 105 37 22 89 21 6 89 21 6
89 21 6 89 21 6 108 40 25 117 49 34 106 38 23 112 44 29 108 40 25 109 41 26 114 46 31 111 43 28 118 50 35 114 46 31 106 38 23 108 40 25 116 48 33 113 45 30 115 47 32 115 47 32 105 37 22 119 51 36 119 51 36 118 50 35 107 39 24 104 36 21 113 45 30 108 40 25 114 46 31 106 38 23 115 47 32 113 45 30 89 21 6 89 21 6 89 21 6 89 21 6 112 44 29 105 37 22 117 49 34 104 36 21 106 38 23 119 51 36 111 43 28 115 47 32 106 38 23 110 42 27 110 42 27 119 51 36 106 38 23 114 46 31 106 38 23 114 46 31 119 51 36 106 38 23 117 49 34 115 47 32 106 38 23 113 45 30 113 45 30 113 45 30 106 38 23 117 49 34 107 39 24 111 43 28 89 21 6 89 21 6 89 21 6 89 21 6 119 51 36 109 41 26 111 43 28 114 46 31 116 48 33 113 45 30 104 36 21 112 44 29 119 51 36 109 41 26 111 43 28 107 39 24 106 38 23 116 48 33 112 44 29 119 51 36 116 48 33 119 51 36 117 49 34 118 50 35 115 47 32 110 42 27 115 47 32 105 37 22 119 51 36 106 38 23 106 38 23 111 43 28 89 21 6 89 21 6 89 21 6 89 21 6 116 48 33 107 39 24 112 44 29 108 40 25 111 43 28 116 48 33 104 36 21 118 50 35 112 44 29 110 42 27 112 44 29 111 43 28 119 51 36 111 43 28 120 52 37 110 42 27 119 51 36 105 37 22 119 51 36 107 39 24 108 40 25 118 50 35 106 38 23 115 47 32 112 44 29 115 47 32 118 50 35 113 45 30 89 21 6 89 21 6
89 21 6 89 21 6 118 50 35 113 45 30 109 41 26 107 39 24 107 39 24 110 42 27 113 45 30 110 42 27 113 45 30 105 37 22 119 51 36 108 40 25 108 40 25 113 45 30 110 42 27 104 36 21 114 46 31 108 40 25 117 49 34 115 47 32 119 51 36 106 38 23 112 44 29 108 40 25 111 43 28 109 41 26 119 51 36 113 45 30 89 21 6 89 21 6 89 21 6 89 21 6 113 45 30 116 48 33 109 41 26 110 42 27 111 43 28 109 41 26 107 39 24 118 50 35 118 50 35 113 45 30 108 40 25 115 47 32 119 51 36 109 41 26 110 42 27 116 48 33 117 49 34 118 50 35 104 36 21 110 42 27 111 43 28 107 39 24 117 49 34 118 50 35 110 42 27 118 50 35 111 43 28 118 50 35 89 21 6 89 21 6 89 21 6 89 21 6 107 39 24 119 51 36 118 50 35 113 45 30 107 39 24 116 48 33 106 38 23 112 44 29 111 43 28 106 38 23 115 47 32 113 45 30 113 45 30 112 44 29 115 47 32 105 37 22 116 48 33 110 42 27 114 46 31 105 37 22 114 46 31 120 52 37 120 52 37 106 38 23 112 44 29 109 41 26 114 46 31 118 50 35 89 21 6 89 21 6 89 21 6 89 21 6 110 42 27 110 42 27 119 51 36 113 45 30 111 43 28 104 36 21 117 49 34 119 51 36 111 43 28 116 48 33 120 52 37 112 44 29 117 49 34 120 52 37 119 51 36 110 42 27 115 47 32 119 51 36 106 38 23 106 38 23 117 49 34 112 44 29 117 49 34 114 46 31 111 43 28 113 45 30 111 43 28 108 40 25 89 21 6 89 21 6
89 21 6 89 21 6 118 50 35 105 37 22 119 51 36 113 45 30 118 50 35 112 44 29 107 39 24 105 37 22 106 38 23 120 52 37 109 41 26 117 49 34 120 52 37 111 43 28 110 42 27 115 47 32 108 40 25 116 48 33 114 46 31 112 44 29 111 43 28 117 49 34 106 38 23 106 38 23 104 36 21 105 37 22 116 48 33 107 39 24 89 21 6 89 21 6 89 21 6 89 21 6 117 49 34 114 46 31 113 45 30 114 46 31 115 47 32 117 49 34 117 49 34 106 38 23 108 40 25 117 49 34 105 37 22 120 52 37 105 37 22 110 42 27 113 45 30 105 37 22 117 49 34 116 48 33 109 41 26 120 52 37 114 46 31 105 37 22 104 36 21 117 49 34 113 45 30 112 44 29 105 37 22 107 39 24 89 21 6 89 21 6 89 21 6 89 21 6 111 43 28 118 50 35 115 47 32 116 48 33 116 48 33 110 42 27 110 42 27 118 50 35 110 42 27 115 47 32 117 49 34 114 46 31 107 39 24 118 50 35 109 41 26 116 48 33 104 36 21 107 39 24 110 42 27 115 47 32 116 48 33 107 39 24 104 36 21 112 44 29 118 50 35 118 50 35 110 42 27 119 51 36 89 21 6 89 21 6 89 21 6 89 21 6 114 46 31 112 44 29 114 46 31 114 46 31 108 40 25 111 43 28 113 45 30 106 38 23 115 47 32 106 38 23 105 37 22 109 41 26 105 37 22 105 37 22 108 40 25 117 49 34 120 52 37 110 42 27 106 38 23 119 51 36 119 51 36 105 37 22 107 39 24 113 45 30 114 46 31 115 47 32 112 44 29 115 47 32 89 21 6 89 21 6
89 21 6 89 21 6 106 38 23 112 44 29 109 41 26 119 51 36 119 51 36 111 43 28 115 47 32 114 46 31 109 41 26 120 52 37 106 38 23 113 45 30 108 40 25 108 40 25 110 42 27 116 48 33 119 51 36 106 38 23 113 45 30 106 38 23 118 50 35 115 47 32 106 38 23 117 49 34 113 45 30 105 37 22 116 48 33 117 49 34 89 21 6 89 21 6 89 21 6 89 21 6 111 43 28 116 48 33 120 52 37 118 50 35 118 50 35 106 38 23 105 37 22 112 44 29 120 52 37 118 50 35 114 46 31 116 48 33 112 44 29 119 51 36 107 39 24 107 39 24 120 52 37 107 39 24 106 38 23 113 45 30 109 41 26 107 39 24 107 39 24 113 45 30 116 48 33 112 44 29 114 46 31 111 43 28 89 21 6 89 21 6 89 21 6 89 21 6 118 50 35 112 44 29 120 52 37 115 47 32 112 44 29 107 39 24 115 47 32 114 46 31 120 52 37 111 43 28 114 46 31 105 37 22 118 50 35 117 49 34 112 44 29 113 45 30 118 50 35 118 50 35 116 48 33 109 41 26 105 37 22 109 41 26 108 40 25 112 44 29 117 49 34 105 37 22 111 43 28 117 49 34 89 21 6 89 21 6 89 21 6 89 21 6 115 47 32 107 39 24 106 38 23 110 42 27 115 47 32 117 49 34 108 40 25 108 40 25 108 40 25 116 48 33 105 37 22 111 43 28 119 51 36 107 39 24 108 40 25 108 40 25 119 51 36 112 44 29 117 49 34 107 39 24 118 50 35 110 42 27 119 51 36 110 42 27 105 37 22 111 43 28 116 48 33 116 48 33 89 21 6 89 21 6
89 21 6 89 21 6 89 21 6 89 21 6 89 21 6 89 21 6 89 21 6 89 21 6 89 21 6 89 21 6 89 21 6 89 21 6 89 21 6 89 21 6 89 21 6 89 21 6 89 21 6 89 21 6 89 21 6 89 21 6 89 21 6 89 21 6 89 21 6 89 21 6 89 21 6 89 21 6 89 21 6 89 21 6 89 21 6 89 21 6 89 21 6 89 21 6 89 21 6 89 21 6 89 21 6 89 21 6 89 21 6 89 21 6 89 21 6 89 21 6 89 21 6 89 21 6 89 21 6 89 21 6 89 21 6 89 21 6 89 21 6 89 21 6 89 21 6 89 21 6 89 21 6 89 21 6 89 21 6 89 21 6 89 21 6 89 21 6 89 21 6 89 21 6 89 21 6 89 21 6 89 21 6 89 21 6 89 21 6 89 21 6 89 21 6 89 21 6 89 21 6 89 21 6 89 21 6 89 21 6 89 21 6 89 21 6 89 21 6 89 21 6 89 21 6 89 21 6 89 21 6 89 21 6 89 21 6 89 21 6 89 21 6 89 21 6 89 21 6 89 21 6 89 21 6 89 21 6 89 21 6 89 21 6 89 21 6 89 21 6 89 21 6 89 21 6 89 21 6 89 21 6 89 21 6 89 21 6 89 21 6 89 21 6 89 21 6 89 21 6 89 21 6 89 21 6 89 21 6 89 21 6 89 21 6 89 21 6 89 21 6 89 21 6 89 21 6 89 21 6 89 21 6 89 21 6 89 21 6 89 21 6 89 21 6 89 21 6 89 21 6 89 21 6 89 21 6 89 21 6 89 21 6 89 21 6 89 21 6 89 21 6 89 21 6 89 21 6 89 21 6 89 21 6
89 21 6 89 21 6 89 21 6 89 21 6 89 21 6 89 21 6 89 21 6 89 21 6 89 21 6 89 21 6 89 21 6 89 21 6 89 21 6 89 21 6 89 21 6 89 21 6 89 21 6 89 21 6 89 21 6 89 21 6 89 21 6 89 21 6 89 21 6 89 21 6 89 21 6 89 21 6 89 21 6 89 21 6 89 21 6 89 21 6 89 21 6 89 21 6 89 21 6 89 21 6 89 21 6 89 21 6 89 21 6 89 21 6 89 21 6 89 21 6 89 21 6 89 21 6 89 21 6 89 21 6 89 21 6 89 21 6 89 21 6 89 21 6 89 21 6 89 21 6 89 21 6 89 21 6 89 21 6 89 21 6 89 21 6 89 21 6 89 21 6 89 21 6 89 21 6 89 21 6 89 21 6 89 21 6 89 21 6 89 21 6 89 21 6 89 21 6 89 21 6 89 21 6 89 21 6 89 21 6 89 21 6 89 21 6 89 21 6 89 21 6 89 21 6 89 21 6 89 21 6 89 21 6 89 21 6 89 21 6 89 21 6 89 21 6 89 21 6 89 21 6 89 21 6 89 21 6 89 21 6 89 21 6 89 21 6 89 21 6 89 21 6 89 21 6 89 21 6 89 21 6 89 21 6 89 21 6 89 21 6 89 21 6 89 21 6 89 21 6 89 21 6 89 21 6 89 21 6 89 21 6 89 21 6 89 21 6 89 21 6 89 21 6 89 21 6 89 21 6 89 21 6 89 21 6 89 21 6 89 21 6 89 21 6 89 21 6 89 21 6 89 21 6 89 21 6 89 21 6 89 21 6 89 21 6 89 21 6 89 21 6 89 21 6 89 21 6 89 21 6 89 21 6
89 21 6 89 21 6 89 21 6 89 21 6 89 21 6 89 21 6 89 21 6 89 21 6 89 21 6 89 21 6 89 21 6 89 21 6 89 21 6 89 21 6 89 21 6 89 21 6 89 21 6 89 21 6 89 21 6 89 21 6 89 21 6 89 21 6 89 21 6 89 21 6 89 21 6 89 21 6 89 21 6 89 21 6 89 21 6 89 21 6 89 21 6 89 21 6 89 21 6 89 21 6 89 21 6 89 21 6 89 21 6 89 21 6 89 21 6 89 21 6 89 21 6 89 21 6 89 21 6 89 21 6 89 21 6 89 21 6 89 21 6 89 21 6 89 21 6 89 21 6 89 21 6 89 21 6 89 21 6 89 21 6 89 21 6 89 21 6 89 21 6 89 21 6 89 21 6 89 21 6 89 21 6 89 21 6 89 21 6 89 21 6 89 21 6 89 21 6 89 21 6 89 21 6 89 21 6 89 21 6 89 21 6 89 21 6 89 21 6 89 21 6 89 21 6 89 21 6 89 21 6 89 21 6 89 21 6 89 21 6 89 21 6 89 21 6 89 21 6 89 21 6 89 21 6 89 21 6 89 21 6 89 21 6 89 21 6 89 21 6 89 21 6 89 21 6 89 21 6 89 21 6 89 21 6 89 21 6 89 21 6 89 21 6 89 21 6 89 21 6 89 21 6 89 21 6 89 21 6 89 21 6 89 21 6 89 21 6 89 21 6 89 21 6 89 21 6 89 21 6 89 21 6 89 21 6 89 21 6 89 21 6 89 21 6 89 21 6 89 21 6 89 21 6 89 21 6 89 21 6 89 21 6 89 21 6 89 21 6 89 21 6 89 21 6 89 21 6 89 21 6 89 21 6
89 21 6 89 21 6 89 21 6 89 21 6 89 21 6 89 21 6 89 21 6 89 21 6 89 21 6 89 21 6 89 21 6 89 21 6 89 21 6 89 21 6 89 21 6 89 21 6 89 21 6 89 21 6 89 21 6 89 21 6 89 21 6 89 21 6 89 21 6 89 21 6 89 21 6 89 21 6 89 21 6 89 21 6 89 21 6 89 21 6 89 21 6 89 21 6 89 21 6 89 21 6 89 21 6 89 21 6 89 21 6 89 21 6 89 21 6 89 21 6 89 21 6 89 21 6 89 21 6 89 21 6 89 21 6 89 21 6 89 21 6 89 21 6 89 21 6 89 21 6 89 21 6 89 21 6 89 21 6 89 21 6 89 21 6 89 21 6 89 21 6 89 21 6 89 21 6 89 21 6 89 21 6 89 21 6 89 21 6 89 21 6 89 21 6 89 21 6 89 21 6 89 21 6 89 21 6 89 21 6 89 21 6 89 21 6 89 21 6 89 21 6 89 21 6 89 21 6 89 21 6 89 21 6 89 21 6 89 21 6 89 21 6 89 21 6 89 21 6 89 21 6 89 21 6 89 21 6 89 21 6 89 21 6 89 21 6 89 21 6 89 21 6 89 21 6 89 21 6 89 21 6 89 21 6 89 21 6 89 21 6 89 21 6 89 21 6 89 21 6 89 21 6 89 21 6 89 21 6 89 21 6 89 21 6 89 21 6 89 21 6 89 21 6 89 21 6 89 21 6 89 21 6 89 21 6 89 21 6 89 21 6 89 21 6 89 21 6 89 21 6 89 21 6 89 21 6 89 21 6 89 21 6 89 21 6 89 21 6 89 21 6 89 21 6 89 21 6 89 21 6 89 21 6
120 52 37 126 58 43 118 50 35 123 55 40 123 55 40 115 47 32 114 46 31 127 59 44 113 45 30 114 46 31 117 49 34 127 59 44 124 56 41 117 49 34 89 21 6 89 21 6 89 21 6 89 21 6 113 45 30 122 54 39 124 56 41 122 54 39 126 58 43 122 54 39 127 59 44 114 46 31 126 58 43 120 52 37 113 45 30 120 52 37 125 57 42 117 49 34 118 50 35 126 58 43 120 52 37 119 51 36 127 59 44 115 47 32 121 53 38 119 51 36 117 49 34 113 45 30 116 48 33 116 48 33 118 50 35 116 48 33 89 21 6 89 21 6 89 21 6 89 21 6 122 54 39 117 49 34 121 53 38 124 56 41 118 50 35 114 46 31 120 52 37 115 47 32 124 56 41 120 52 37 120 52 37 121 53 38 125 57 42 113 45 30 119 51 36 116 48 33 112 44 29 122 54 39 113 45 30 125 57 42 120 52 37 117 49 34 115 47 32 114 46 31 122 54 39 117 49 34 117 49 34 126 58 43 89 21 6 89 21 6 89 21 6 89 21 6 117 49 34 122 54 39 115 47 32 113 45 30 123 55 40 120 52 37 124 56 41 122 54 39 116 48 33 127 59 44 122 54 39 116 48 33 114 46 31 112 44 29 122 54 39 116 48 33 121 53 38 117 49 34 115 47 32 115 47 32 125 57 42 123 55 40 114 46 31 127 59 44 112 44 29 127 59 44 124 56 41 124 56 41 89 21 6 89 21 6 89 21 6 89 21 6 119 51 36 116 48 33 116 48 33 122 54 39 128 60 45 126 58 43 123 55 40 124 56 41 112 44 29 118 50 35 113 45 30 122 54 39 127 59 44 122 54 39
120 52 37 116 48 33 121 53 38 126 58 43 128 60 45 115 47 32 121 53 38 123 55 40 117 49 34 118 50 35 117 49 34 115 47 32 117 49 34 116 48 33 89 21 6 89 21 6 89 21 6 89 21 6 118 50 35 118 50 35 125 57 42 127 59 44 127 59 44 117 49 34 124 56 41 118 50 35 118 50 35 115 47 32 120 52 37 121 53 38 114 46 31 114 46 31 122 54 39 113 45 30 114 46 31 118 50 35 112 44 29 121 53 38 121 53 38 119 51 36 127 59 44 115 47 32 122 54 39 116 48 33 126 58 43 118 50 35 89 21 6 89 21 6 89 21 6 89 21 6 118 50 35 118 50 35 126 58 43 115 47 32 113 45 30 119 51 36 126 58 43 120 52 37 118 50 35 126 58 43 117 49 34 120 52 37 116 48 33 112 44 29 119 51 36 112 44 29 115 47 32 127 59 44 113 45 30 115 47 32 126 58 43 128 60 45 118 50 35 115 47 32 122 54 39 118 50 35 126 58 43 117 49 34 89 21 6 89 21 6 89 21 6 89 21 6 125 57 42 128 60 45 114 46 31 125 57 42 115 47 32 124 56 41 120 52 37 117 49 34 116 48 33 125 57 42 125 57 42 121 53 38 126 58 43 126 58 43 121 53 38 120 52 37 125 57 42 114 46 31 117 49 34 117 49 34 125 57 42 121 53 38 119 51 36 120 52 37 117 49 34 113 45 30 123 55 40 124 56 41 89 21 6 89 21 6 89 21 6 89 21 6 128 60 45 126 58 43 118 50 35 118 50 35 126 58 43 119 51 36 127 59 44 119 51 36 126 58 43 127 59 44 114 46 31 121 53 38 120 52 37 122 54 39
116 48 33 118 50 35 116 48 33 116 48 33 120 52 37 114 46 31 120 52 37 122 54 39 126 58 43 120 52 37 122 54 39 118 50 35 124 56 41 124 56 41 89 21 6 89 21 6 89 21 6 89 21 6 117 49 34 120 52 37 125 57 42 124 56 41 120 52 37 114 46 31 121 53 38 117 49 34 113 45 30 122 54 39 120 52 37 118 50 35 117 49 34 120 52 37 119 51 36 114 46 31 127 59 44 124 56 41 122 54 39 114 46 31 116 48 33 124 56 41 119 51 36 113 45 30 114 46 31 114 46 31 120 52 37 118 50 35 89 21 6 89 21 6 89 21 6 89 21 6 125 57 42 128 60 45 125 57 42 120 52 37 120 52 37 128 60 45 128 60 45 120 52 37 115 47 32 114 46 31 114 46 31 117 49 34 117 49 34 127 59 44 123 55 40 128 60 45 113 45 30 114 46 31 115 47 32 116 48 33 127 59 44 127 59 44 128 60 45 118 50 35 128 60 45 113 45 30 116 48 33 125 57 42 89 21 6 89 21 6 89 21 6 89 21 6 126 58 43 124 56 41 121 53 38 123 55 40 121 53 38 123 55 40 124 56 41 117 49 34 116 48 33 121 53 38 120 52 37 122 54 39 128 60 45 120 52 37 116 48 33 112 44 29 121 53 38 114 46 31 125 57 42 112 44 29 122 54 39 124 56 41 113 45 30 127 59 44 116 48 33 126 58 43 124 56 41 114 46 31 89 21 6 89 21 6 89 21 6 89 21 6 122 54 39 116 48 33 115 47 32 113 45 30 116 48 33 127 59 44 114 46 31 114 46 31 115 47 32 125 57 42 123 55 40 117 49 34 119 51 36 120 52 37
105 37 22 113 45 30 118 50 35 104 36 21 107 39 24 118 50 35 115 47 32 107 39 24 109 41 26 118 50 35 109 41 26 110 42 27 113 45 30 106 38 23 89 21 6 89 21 6 89 21 6 89 21 6 107 39 24 105 37 22 116 48 33 112 44 29 119 51 36 105 37 22 107 39 24 106 38 23 104 36 21 116 48 33 109 41 26 115 47 32 107 39 24 111 43 28 111 43 28 105 37 22 109 41 26 112 44 29 110 42 27 111 43 28 113 45 30 118 50 35 105 37 22 117 49 34 110 42 27 111 43 28 109 41 26 108 40 25 89 21 6 89 21 6 89 21 6 89 21 6 117 49 34 109 41 26 117 49 34 118 50 35 110 42 27 110 42 27 108 40 25 116 48 33 108 40 25 105 37 22 105 37 22 117 49 34 119 51 36 117 49 34 119 51 36 108 40 25 117 49 34 112 44 29 115 47 32 119 51 36 105 37 22 112 44 29 112 44 29 115 47 32 113 45 30 119 51 36 107 39 24 105 37 22 89 21 6 89 21 6 89 21 6 89 21 6 114 46 31 113 45 30 116 48 33 106 38 23 111 43 28 114 46 31 115 47 32 105 37 22 109 41 26 109 41 26 118 50 35 106 38 23 118 50 35 114 46 31 111 43 28 118 50 35 104 36 21 104 36 21 113 45 30 113 45 30 112 44 29 104 36 21 111 43 28 118 50 35 112 44 29 117 49 34 117 49 34 119 51 36 89 21 6 89 21 6 89 21 6 89 21 6 117 49 34 119 51 36 106 38 23 115 47 32 108 40 25 117 49 34 113 45 30 105 37 22 112 44 29 118 50 35 112 44 29 117 49 34 116 48 33 117 49 34
105 37 22 117 49 34 105 37 22 112 44 29 119 51 36 108 40 25 112 44 29 116 48 33 109 41 26 107 39 24 105 37 22 109 41 26 117 49 34 119 51 36 89 21 6 89 21 6 89 21 6 89 21 6 106 38 23 120 52 37 110 42 27 109 41 26 119 51 36 119 51 36 112 44 29 115 47 32 106 38 23 110 42 27 113 45 30 109 41 26 111 43 28 107 39 24 111 43 28 110 42 27 109 41 26 106 38 23 104 36 21 115 47 32 118 50 35 108 40 25 118 50 35 116 48 33 119 51 36 112 44 29 107 39 24 111 43 28 89 21 6 89 21 6 89 21 6 89 21 6 117 49 34 109 41 26 113 45 30 109 41 26 106 38 23 114 46 31 112 44 29 116 48 33 119 51 36 114 46 31 118 50 35 116 48 33 105 37 22 113 45 30 112 44 29 108 40 25 119 51 36 117 49 34 115 47 32 119 51 36 106 38 23 117 49 34 111 43 28 112 44 29 115 47 32 119 51 36 111 43 28 119 51 36 89 21 6 89 21 6 89 21 6 89 21 6 112 44 29 118 50 35 114 46 31 112 44 29 106 38 23 106 38 23 115 47 32 117 49 34 105 37 22 119 51 36 117 49 34 112 44 29 115 47 32 119 51 36 117 49 34 109 41 26 119 51 36 107 39 24 119 51 36 108 40 25 107 39 24 118 50 35 112 44 29 113 45 30 118 50 35 118 50 35 118 50 35 112 44 29 89 21 6 89 21 6 89 21 6 89 21 6 116 48 33 116 48 33 120 52 37 115 47 32 108 40 25 113 45 30 105 37 22 117 49 34 111 43 28 109 41 26 115 47 32 106 38 23 114 46 31 113 45 30
110 42 27 109 41 26 115 47 32 120 52 37 111 43 28 107 39 24 110 42 27 113 45 30 111 43 28 116 48 33 109 41 26 120 52 37 110 42 27 114 46 31 89 21 6 89 21 6 89 21 6 89 21 6 109 41 26 111 43 28 104 36 21 119 51 36 119 51 36 106 38 23 119 51 36 107 39 24 114 46 31 107 39 24 119 51 36 118 50 35 114 46 31 113 45 30 116 48 33 115 47 32 116 48 33 107 39 24 108 40 25 104 36 21 109 41 26 105 37 22 115 47 32 112 44 29 116 48 33 109 41 26 104 36 21 109 41 26 89 21 6 89 21 6 89 21 6 89 21 6 109 41 26 106 38 23 118 50 35 116 48 33 108 40 25 116 48 33 106 38 23 109 41 26 111 43 28 112 44 29 119 51 36 108 40 25 109 41 26 115 47 32 111 43 28 111 43 28 105 37 22 115 47 32 117 49 34 106 38 23 119 51 36 105 37 22 119 51 36 116 48 33 105 37 22 106 38 23 104 36 21 120 52 37 89 21 6 89 21 6 89 21 6 89 21 6 112 44 29 105 37 22 119 51 36 119 51 36 116 48 33 111 43 28 105 37 22 111 43 28 107 39 24 117 49 34 106 38 23 110 42 27 114 46 31 116 48 33 114 46 31 113 45 30 114 46 31 119 51 36 108 40 25 113 45 30 111 43 28 116 48 33 112 44 29 104 36 21 111 43 28 114 46 31 109 41 26 111 43 28 89 21 6 89 21 6 89 21 6 89 21 6 105 37 22 109 41 26 117 49 34 109 41 26 114 46 31 107 39 24 108 40 25 118 50 35 110 42 27 105 37 22 106 38 23 112 44 29 118 50 35 120 52 37
110 42 27 118 50 35 119 51 36 110 42 27 112 44 29 107 39 24 114 46 31 111 43 28 107 39 24 119 51 36 113 45 30 119 51 36 107 39 24 118 50 35 89 21 6 89 21 6 89 21 6 89 21 6 115 47 32 106 38 23 115 47 32 119 51 36 108 40 25 116 48 33 110 42 27 117 49 34 113 45 30 110 42 27 117 49 34 112 44 29 120 52 37 116 48 33 110 42 27 118 50 35 112 44 29 113 45 30 113 45 30 109 41 26 109 41 26 113 45 30 116 48 33 119 51 36 118 50 35 117 49 34 117 49 34 113 45 30 89 21 6 89 21 6 89 21 6 89 21 6 110 42 27 106 38 23 113 45 30 117 49 34 120 52 37 108 40 25 113 45 30 110 42 27 110 42 27 114 46 31 109 41 26 109 41 26 113 45 30 112 44 29 113 45 30 112 44 29 117 49 34 107 39 24 105 37 22 115 47 32 110 42 27 108 40 25 118 50 35 119 51 36 114 46 31 111 43 28 105 37 22 114 46 31 89 21 6 89 21 6 89 21 6 89 21 6 114 46 31 117 49 34 106 38 23 111 43 28 117 49 34 109 41 26 112 44 29 109 41 26 120 52 37 105 37 22 109 41 26 118 50 35 106 38 23 105 37 22 112 44 29 113 45 30 112 44 29 109 41 26 120 52 37 105 37 22 116 48 33 106 38 23 114 46 31 105 37 22 119 51 36 108 40 25 112 44 29 116 48 33 89 21 6 89 21 6 89 21 6 89 21 6 115 47 32 113 45 30 119 51 36 110 42 27 110 42 27 107 39 24 119 51 36 118 50 35 111 43 28 107 39 24 118 50 35 113 45 30 104 36 21 108 40 25
116 48 33 111 43 28 117 49 34 116 48 33 108 40 25 113 45 30 113 45 30 114 46 31 109 41 26 112 44 29 118 50 35 114 46 31 110 42 27 107 39 24 89 21 6 89 21 6 89 21 6 89 21 6 114 46 31 113 45 30 109 41 26 118 50 35 110 42 27 116 48 33 111 43 28 117 49 34 106 38 23 118 50 35 115 47 32 110 42 27 120 52 37 108 40 25 114 46 31 113 45 30 107 39 24 116 48 33 112 44 29 105 37 22 116 48 33 115 47 32 118 50 35 107 39 24 104 36 21 108 40 25 120 52 37 108 40 25 89 21 6 89 21 6 89 21 6 89 21 6 115 47 32 110 42 27 120 52 37 117 49 34 112 44 29 112 44 29 111 43 28 116 48 33 113 45 30 118 50 35 107 39 24 112 44 29 108 40 25 111 43 28 116 48 33 113 45 30 113 45 30 118 50 35 110 42 27 107 39 24 112 44 29 104 36 21 118 50 35 111 43 28 116 48 33 114 46 31 109 41 26 114 46 31 89 21 6 89 21 6 89 21 6 89 21 6 104 36 21 116 48 33 112 44 29 110 42 27 105 37 22 109 41 26 108 40 25 118 50 35 118 50 35 110 42 27 113 45 30 109 41 26 104 36 21 113 45 30 109 41 26 105 37 22 119 51 36 110 42 27 106 38 23 115 47 32 116 48 33 112 44 29 107 39 24 111 43 28 109 41 26 112 44 29 115 47 32 108 40 25 89 21 6 89 21 6 89 21 6 89 21 6 106 38 23 115 47 32 114 46 31 119 51 36 110 42 27 107 39 24 119 51 36 115 47 32 108 40 25 106 38 23 108 40 25 112 44 29 120 52 37 118 50 35
112 44 29 112 44 29 108 40 25 108 40 25 105 37 22 118 50 35 114 46 31 106 38 23 111 43 28 108 40 25 115 47 32 111 43 28 105 37 22 119 51 36 89 21 6 89 21 6 89 21 6 89 21 6 119 51 36 120 52 37 116 48 33 119 51 36 106 38 23 118 50 35 117 49 34 113 45 30 115 47 32 106 38 23 105 37 22 114 46 31 117 49 34 108 40 25 115 47 32 107 39 24 119 51 36 115 47 32 115 47 32 115 47 32 120 52 37 117 49 34 113 45 30 110 42 27 119 51 36 112 44 29 105 37 22 113 45 30 89 21 6 89 21 6 89 21 6 89 21 6 119 51 36 119 51 36 110 42 27 111 43 28 106 38 23 106 38 23 108 40 25 114 46 31 115 47 32 108 40 25 106 38 23 114 46 31 115 47 32 115 47 32 116 48 33 113 45 30 113 45 30 109 41 26 109 41 26 112 44 29 110 42 27 109 41 26 112 44 29 108 40 25 119 51 36 116 48 33 105 37 22 114 46 31 89 21 6 89 21 6 89 21 6 89 21 6 113 45 30 107 39 24 118 50 35 105 37 22 120 52 37 118 50 35 114 46 31 107 39 24 106 38 23 112 44 29 106 38 23 119 51 36 116 48 33 104 36 21 110 42 27 118 50 35 105 37 22 107 39 24 113 45 30 104 36 21 107 39 24 111 43 28 106 38 23 111 43 28 107 39 24 117 49 34 111 43 28 112 44 29 89 21 6 89 21 6 89 21 6 89 21 6 106 38 23 118 50 35 109 41 26 105 37 22 112 44 29 109 41 26 109 41 26 109 41 26 114 46 31 119 51 36 108 40 25 114 46 31 114 46 31 115 47 32
119 51 36 106 38 23 106 38 23 106 38 23 110 42 27 108 40 25 114 46 31 105 37 22 109 41 26 105 37 22 104 36 21 112 44 29 107 39 24 109 41 26 89 21 6 89 21 6 89 21 6 89 21 6 108 40 25 111 43 28 116 48 33 111 43 28 114 46 31 112 44 29 105 37 22 119 51 36 119 51 36 118 50 35 110 42 27 104 36 21 105 37 22 108 40 25 118 50 35 113 45 30 105 37 22 106 38 23 105 37 22 116 48 33 118 50 35 107 39 24 117 49 34 113 45 30 106 38 23 116 48 33 114 46 31 120 52 37 89 21 6 89 21 6 89 21 6 89 21 6 104 36 21 117 49 34 117 49 34 115 47 32 104 36 21 116 48 33 110 42 27 111 43 28 116 48 33 119 51 36 109 41 26 119 51 36 111 43 28 115 47 32 115 47 32 110 42 27 120 52 37 110 42 27 109 41 26 115 47 32 117 49 34 119 51 36 118 50 35 116 48 33 119 51 36 112 44 29 117 49 34 118 50 35 89 21 6 89 21 6 89 21 6 89 21 6 120 52 37 114 46 31 105 37 22 108 40 25 106 38 23 108 40 25 117 49 34 115 47 32 119 51 36 112 44 29 119 51 36 109 41 26 114 46 31 116 48 33 105 37 22 111 43 28 117 49 34 114 46 31 108 40 25 111 43 28 108 40 25 107 39 24 107 39 24 115 47 32 112 44 29 111 43 28 120 52 37 110 42 27 89 21 6 89 21 6 89 21 6 89 21 6 117 49 34 109 41 26 117 49 34 109 41 26 118 50 35 108 40 25 113 45 30 118 50 35 110 42 27 116 48 33 109 41 26 119 51 36 117 49 34 115 47 32
113 45 30 106 38 23 106 38 23 118 50 35 107 39 24 111 43 28 109 41 26 106 38 23 110 42 27 118 50 35 106 38 23 117 49 34 113 45 30 110 42 27 89 21 6 89 21 6 89 21 6 89 21 6 116 48 33 113 45 30 119 51 36 116 48 33 111 43 28 115 47 32 117 49 34 115 47 32 116 48 33 109 41 26 117 49 34 111 43 28 114 46 31 112 44 29 117 49 34 114 46 31 108 40 25 106 38 23 114 46 31 114 46 31 106 38 23 106 38 23 113 45 30 111 43 28 116 48 33 113 45 30 110 42 27 112 44 29 89 21 6 89 21 6 89 21 6 89 21 6 104 36 21 115 47 32 105 37 22 118 50 35 115 47 32 119 51 36 118 50 35 104 36 21 106 38 23 112 44 29 114 46 31 113 45 30 112 44 29 111 43 28 108 40 25 113 45 30 113 45 30 105 37 22 118 50 35 107 39 24 106 38 23 115 47 32 118 50 35 120 52 37 119 51 36 108 40 25 106 38 23 113 45 30 89 21 6 89 21 6 89 21 6 89 21 6 118 50 35 119 51 36 116 48 33 116 48 33 112 44 29 112 44 29 120 52 37 117 49 34 117 49 34 113 45 30 106 38 23 113 45 30 106 38 23 118 50 35 108 40 25 114 46 31 117 49 34 107 39 24 113 45 30 115 47 32 112 44 29 105 37 22 112 44 29 117 49 34 112 44 29 120 52 37 109 41 26 107 39 24 89 21 6 89 21 6 89 21 6 89 21 6 116 48 33 111 43 28 109 41 26 117 49 34 109 41 26 108 40 25 119 51 36 106 38 23 113 45 30 107 39 24 107 39 24 113 45 30 111 43 28 116 48 33
114 46 31 117 49 34 110 42 27 108 40 25 104 36 21 116 48 33 111 43 28 105 37 22 104 36 21 107 39 24 105 37 22 111 43 28 109 41 26 117 49 34 89 21 6 89 21 6 89 21 6 89 21 6 113 45 30 110 42 27 117 49 34 114 46 31 113 45 30 107 39 24 114 46 31 115 47 32 108 40 25 119 51 36 104 36 21 115 47 32 119 51 36 113 45 30 120 52 37 112 44 29 108 40 25 109 41 26 108 40 25 116 48 33 120 52 37 114 46 31 114 46 31 105 37 22 107 39 24 104 36 21 110 42 27 115 47 32 89 21 6 89 21 6 89 21 6 89 21 6 108 40 25 107 39 24 111 43 28 111 43 28 113 45 30 116 48 33 112 44 29 109 41 26 111 43 28 117 49 34 106 38 23 112 44 29 105 37 22 120 52 37 119 51 36 107 39 24 110 42 27 114 46 31 114 46 31 106 38 23 111 43 28 117 49 34 120 52 37 113 45 30 117 49 34 118 50 35 115 47 32 115 47 32 89 21 6 89 21 6 89 21 6 89 21 6 108 40 25 115 47 32 120 52 37 115 47 32 105 37 22 120 52 37 107 39 24 106 38 23 107 39 24 116 48 33 109 41 26 107 39 24 105 37 22 106 38 23 104 36 21 109 41 26 117 49 34 108 40 25 119 51 36 111 43 28 112 44 29 119 51 36 107 39 24 112 44 29 116 48 33 110 42 27 117 49 34 104 36 21 89 21 6 89 21 6 89 21 6 89 21 6 109 41 26 108 40 25 119 51 36 106 38 23 119 51 36 112 44 29 106 38 23 109 41 26 112 44 29 106 38 23 116 48 33 107 39 24 105 37 22 110 42 27
107 39 24 116 48 33 118 50 35 115 47 32 119 51 36 111 43 28 108 40 25 107 39 24 113 45 30 116 48 33 119 51 36 113 45 30 109 41 26 118 50 35 89 21 6 89 21 6 89 21 6 89 21 6 112 44 29 104 36 21 113 45 30 105 37 22 104 36 21 115 47 32 108 40 25 113 45 30 116 48 33 120 52 37 118 50 35 119 51 36 106 38 23 107 39 24 104 36 21 117 49 34 105 37 22 112 44 29 113 45 30 107 39 24 111 43 28 109 41 26 110 42 27 118 50 35 117 49 34 113 45 30 114 46 31 112 44 29 89 21 6 89 21 6 89 21 6 89 21 6 110 42 27 110 42 27 105 37 22 112 44 29 113 45 30 109 41 26 118 50 35 114 46 31 104 36 21 118 50 35 106 38 23 113 45 30 109 41 26 117 49 34 118 50 35 109 41 26 115 47 32 119 51 36 113 45 30 114 46 31 108 40 25 108 40 25 108 40 25 108 40 25 109 41 26 116 48 33 113 45 30 114 46 31 89 21 6 89 21 6 89 21 6 89 21 6 118 50 35 109 41 26 116 48 33 112 44 29 115 47 32 115 47 32 118 50 35 104 36 21 107 39 24 120 52 37 114 46 31 109 41 26 119 51 36 108 40 25 112 44 29 117 49 34 109 41 26 110 42 27 108 40 25 111 43 28 115 47 32 117 49 34 106 38 23 109 41 26 119 51 36 106 38 23 118 50 35 115 47 32 89 21 6 89 21 6 89 21 6 89 21 6 115 47 32 108 40 25 118 50 35 105 37 22 117 49 34 106 38 23 105 37 22 112 44 29 120 52 37 106 38 23 120 52 37 111 43 28 118 50 35 111 43 28
111 43 28 108 40 25 107 39 24 112 44 29 111 43 28 109 41 26 116 48 33 110 42 27 110 42 27 112 44 29 115 47 32 104 36 21 107 39 24 118 50 35 89 21 6 89 21 6 89 21 6 89 21 6 112 44 29 118 50 35 118 50 35 114 46 31 115 47 32 112 44 29 119 51 36 116 48 33 111 43 28 117 49 34 118 50 35 104 36 21 108 40 25 107 39 24 112 44 29 116 48 33 105 37 22 117 49 34 110 42 27 105 37 22 110 42 27 116 48 33 108 40 25 113 45 30 117 49 34 104 36 21 119 51 36 117 49 34 89 21 6 89 21 6 89 21 6 89 21 6 114 46 31 115 47 32 120 52 37 109 41 26 114 46 31 119 51 36 107 39 24 111 43 28 112 44 29 106 38 23 115 47 32 106 38 23 106 38 23 117 49 34 104 36 21 106 38 23 105 37 22 108 40 25 113 45 30 109 41 26 117 49 34 109 41 26 114 46 31 110 42 27 110 42 27 112 44 29 116 48 33 110 42 27 89 21 6 89 21 6 89 21 6 89 21 6 107 39 24 115 47 32 111 43 28 119 51 36 110 42 27 106 38 23 118 50 35 119 51 36 112 44 29 107 39 24 117 49 34 119 51 36 108 40 25 108 40 25 110 42 27 109 41 26 108 40 25 119 51 36 113 45 30 108 40 25 107 39 24 111 43 28 114 46 31 118 50 35 107 39 24 118 50 35 110 42 27 115 47 32 89 21 6 89 21 6 89 21 6 89 21 6 113 45 30 120 52 37 107 39 24 107 39 24 115 47 32 116 48 33 114 46 31 111 43 28 105 37 22 110 42 27 118 50 35 109 41 26 116 48 33 106 38 23
113 45 30 109 41 26 118 50 35 116 48 33 108 40 25 109 41 26 106 38 23 108 40 25 117 49 34 106 38 23 114 46 31 113 45 30 105 37 22 114 46 31 89 21 6 89 21 6 89 21 6 89 21 6 117 49 34 108 40 25 112 44 29 111 43 28 105 37 22 112 44 29 117 49 34 104 36 21 111 43 28 111 43 28 105 37 22 107 39 24 115 47 32 116 48 33 114 46 31 115 47 32 111 43 28 119 51 36 106 38 23 115 47 32 118 50 35 118 50 35 117 49 34 112 44 29 110 42 27 120 52 37 114 46 31 107 39 24 89 21 6 89 21 6 89 21 6 89 21 6 115 47 32 110 42 27 119 51 36 113 45 30 114 46 31 118 50 35 113 45 30 107 39 24 117 49 34 110 42 27 120 52 37 108 40 25 118 50 35 106 38 23 110 42 27 112 44 29 110 42 27 116 48 33 116 48 33 107 39 24 108 40 25 106 38 23 118 50 35 119 51 36 106 38 23 112 44 29 113 45 30 111 43 28 89 21 6 89 21 6 89 21 6 89 21 6 112 44 29 109 41 26 113 45 30 114 46 31 111 43 28 105 37 22 107 39 24 109 41 26 112 44 29 118 50 35 117 49 34 113 45 30 109 41 26 116 48 33 119 51 36 106 38 23 119 51 36 115 47 32 119 51 36 117 49 34 116 48 33 110 42 27 107 39 24 108 40 25 112 44 29 114 46 31 114 46 31 108 40 25 89 21 6 89 21 6 89 21 6 89 21 6 112 44 29 117 49 34 104 36 21 111 43 28 110 42 27 113 45 30 107 39 24 105 37 22 113 45 30 110 42 27 116 48 33 119 51 36 111 43 28 110 42 27
114 46 31 105 37 22 119 51 36 116 48 33 113 45 30 108 40 25 113 45 30 106 38 23 108 40 25 117 49 34 115 47 32 111 43 28 115 47 32 104 36 21 89 21 6 89 21 6 89 21 6 89 21 6 109 41 26 107 39 24 116 48 33 117 49 34 117 49 34 108 40 25 110 42 27 112 44 29 120 52 37 118 50 35 110 42 27 116 48 33 113 45 30 115 47 32 116 48 33 117 49 34 115 47 32 119 51 36 111 43 28 116 48 33 120 52 37 114 46 31 107 39 24 115 47 32 114 46 31 106 38 23 107 39 24 110 42 27 89 21 6 89 21 6 89 21 6 89 21 6 118 50 35 120 52 37 118 50 35 106 38 23 119 51 36 119 51 36 119 51 36 116 48 33 117 49 34 112 44 29 113 45 30 105 37 22 112 44 29 114 46 31 111 43 28 110 42 27 112 44 29 119 51 36 119 51 36 118 50 35 107 39 24 108 40 25 110 42 27 113 45 30 119 51 36 118 50 35 108 40 25 118 50 35 89 21 6 89 21 6 89 21 6 89 21 6 118 50 35 108 40 25 107 39 24 108 40 25 106 38 23 116 48 33 120 52 37 114 46 31 112 44 29 119 51 36 113 45 30 117 49 34 112 44 29 114 46 31 119 51 36 107 39 24 112 44 29 119 51 36 113 45 30 108 40 25 113 45 30 109 41 26 114 46 31 116 48 33 105 37 22 115 47 32 119 51 36 108 40 25 89 21 6 89 21 6 89 21 6 89 21 6 108 40 25 115 47 32 109 41 26 115 47 32 110 42 27 106 38 23 112 44 29 110 42 27 109 41 26 109 41 26 119 51 36 108 40 25 116 48 33 116 48 33
89 21 6 89 21 6 89 21 6 89 21 6 89 21 6 89 21 6 89 21 6 89 21 6 89 21 6 89 21 6 89 21 6 89 21 6 89 21 6 89 21 6 89 21 6 89 21 6 89 21 6 89 21 6 89 21 6 89 21 6 89 21 6 89 21 6 89 21 6 89 21 6 89 21 6 89 21 6 89 21 6 89 21 6 89 21 6 89 21 6 89 21 6 89 21 6 89 21 6 89 21 6 89 21 6 89 21 6 89 21 6 89 21 6 89 21 6 89 21 6 89 21 6 89 21 6 89 21 6 89 21 6 89 21 6 89 21 6 89 21 6 89 21 6 89 21 6 89 21 6 89 21 6 89 21 6 89 21 6 89 21 6 89 21 6 89 21 6 89 21 6 89 21 6 89 21 6 89 21 6 89 21 6 89 21 6 89 21 6 89 21 6 89 21 6 89 21 6 89 21 6 89 21 6 89 21 6 89 21 6 89 21 6 89 21 6 89 21 6 89 21 6 89 21 6 89 21 6 89 21 6 89 21 6 89 21 6 89 21 6 89 21 6 89 21 6 89 21 6 89 21 6 89 21 6 89 21 6 89 21 6 89 21 6 89 21 6 89 21 6 89 21 6 89 21 6 89 21 6 89 21 6 89 21 6 89 21 6 89 21 6 89 21 6 89 21 6 89 21 6 89 21 6 89 21 6 89 21 6 89 21 6 89 21 6 89 21 6 89 21 6 89 21 6 89 21 6 89 21 6 89 21 6 89 21 6 89 21 6 89 21 6 89 21 6 89 21 6 89 21 6 89 21 6 89 21 6 89 21 6 89 21 6 89 21 6 89 21 6 89 21 6 89 21 6 89 21 6 89 21 6 89 21 6
89 21 6 89 21 6 89 21 6 89 21 6 89 21 6 89 21 6 89 21 6 89 21 6 89 21 6 89 21 6 89 21 6 89 21 6 89 21 6 89 21 6 89 21 6 89 21 6 89 21 6 89 21 6 89 21 6 89 21 6 89 21 6 89 21 6 89 21 6 89 21 6 89 21 6 89 21 6 89 21 6 89 21 6 89 21 6 89 21 6 89 21 6 89 21 6 89 21 6 89 21 6 89 21 6 89 21 6 89 21 6 89 21 6 89 21 6 89 21 6 89 21 6 89 21 6 89 21 6 89 21 6 89 21 6 89 21 6 89 21 6 89 21 6 89 21 6 89 21 6 89 21 6 89 21 6 89 21 6 89 21 6 89 21 6 89 21 6 89 21 6 89 21 6 89 21 6 89 21 6 89 21 6 89 21 6 89 21 6 89 21 6 89 21 6 89 21 6 89 21 6 89 21 6 89 21 6 89 21 6 89 21 6 89 21 6 89 21 6 89 21 6 89 21 6 89 21 6 89 21 6 89 21 6 89 21 6 89 21 6 89 21 6 89 21 6 89 21 6 89 21 6 89 21 6 89 21 6 89 21 6 89 21 6 89 21 6 89 21 6 89 21 6 89 21 6 89 21 6 89 21 6 89 21 6 89 21 6 89 21 6 89 21 6 89 21 6 89 21 6 89 21 6 89 21 6 89 21 6 89 21 6 89 21 6 89 21 6 89 21 6 89 21 6 89 21 6 89 21 6 89 21 6 89 21 6 89 21 6 89 21 6 89 21 6 89 21 6 89 21 6 89 21 6 89 21 6 89 21 6 89 21 6 89 21 6 89 21 6 89 21 6 89 21 6 89 21 6 89 21 6 89 21 6
89 21 6 89 21 6 89 21 6 89 21 6 89 21 6 89 21 6 89 21 6 89 21 6 89 21 6 89 21 6 89 21 6 89 21 6 89 21 6 89 21 6 89 21 6 89 21 6 89 21 6 89 21 6 89 21 6 89 21 6 89 21 6 89 21 6 89 21 6 89 21 6 89 21 6 89 21 6 89 21 6 89 21 6 89 21 6 89 21 6 89 21 6 89 21 6 89 21 6 89 21 6 89 21 6 89 21 6 89 21 6 89 21 6 89 21 6 89 21 6 89 21 6 89 21 6 89 21 6 89 21 6 89 21 6 89 21 6 89 21 6 89 21 6 89 21 6 89 21 6 89 21 6 89 21 6 89 21 6 89 21 6 89 21 6 89 21 6 89 21 6 89 21 6 89 21 6 89 21 6 89 21 6 89 21 6 89 21 6 89 21 6 89 21 6 89 21 6 89 21 6 89 21 6 89 21 6 89 21 6 89 21 6 89 21 6 89 21 6 89 21 6 89 21 6 89 21 6 89 21 6 89 21 6 89 21 6 89 21 6 89 21 6 89 21 6 89 21 6 89 21 6 89 21 6 89 21 6 89 21 6 89 21 6 89 21 6 89 21 6 89 21 6 89 21 6 89 21 6 89 21 6 89 21 6 89 21 6 89 21 6 89 21 6 89 21 6 89 21 6 89 21 6 89 21 6 89 21 6 89 21 6 89 21 6 89 21 6 89 21 6 89 21 6 89 21 6 89 21 6 89 21 6 89 21 6 89 21 6 89 21 6 89 21 6 89 21 6 89 21 6 89 21 6 89 21 6 89 21 6 89 21 6 89 21 6 89 21 6 89 21 6 89 21 6 89 21 6 89 21 6 89 21 6
89 21 6 89 21 6 89 21 6 89 21 6 89 21 6 89 21 6 89 21 6 89 21 6 89 21 6 89 21 6 89 21 6 89 21 6 89 21 6 89 21 6 89 21 6 89 21 6 89 21 6 89 21 6 89 21 6 89 21 6 89 21 6 89 21 6 89 21 6 89 21 6 89 21 6 89 21 6 89 21 6 89 21 6 89 21 6 89 21 6 89 21 6 89 21 6 89 21 6 89 21 6 89 21 6 89 21 6 89 21 6 89 21 6 89 21 6 89 21 6 89 21 6 89 21 6 89 21 6 89 21 6 89 21 6 89 21 6 89 21 6 89 21 6 89 21 6 89 21 6 89 21 6 89 21 6 89 21 6 89 21 6 89 21 6 89 21 6 89 21 6 89 21 6 89 21 6 89 21 6 89 21 6 89 21 6 89 21 6 89 21 6 89 21 6 89 21 6 89 21 6 89 21 6 89 21 6 89 21 6 89 21 6 89 21 6 89 21 6 89 21 6 89 21 6 89 21 6 89 21 6 89 21 6 89 21 6 89 21 6 89 21 6 89 21 6 89 21 6 89 21 6 89 21 6 89 21 6 89 21 6 89 21 6 89 21 6 89 21 6 89 21 6 89 21 6 89 21 6 89 21 6 89 21 6 89 21 6 89 21 6 89 21 6 89 21 6 89 21 6 89 21 6 89 21 6 89 21 6 89 21 6 89 21 6 89 21 6 89 21 6 89 21 6 89 21 6 89 21 6 89 21 6 89 21 6 89 21 6 89 21 6 89 21 6 89 21 6 89 21 6 89 21 6 89 21 6 89 21 6 89 21 6 89 21 6 89 21 6 89 21 6 89 21 6 89 21 6 89 21 6 89 21 6
89 21 6 89 21 6 119 51 36 118 50 35 123 55 40 118 50 35 122 54 39 114 46 31 114 46 31 123 55 40 124 56 41 119 51 36 122 54 39 116 48 33 122 54 39 118 50 35 115 47 32 125 57 42 127 59 44 127 59 44 127 59 44 120 52 37 117 49 34 113 45 30 114 46 31 113 45 30 119 51 36 124 56 41 113 45 30 121 53 38 89 21 6 89 21 6 89 21 6 89 21 6 116 48 33 121 53 38 123 55 40 117 49 34 116 48 33 120 52 37 126 58 43 125 57 42 114 46 31 122 54 39 115 47 32 118 50 35 123 55 40 123 55 40 115 47 32 125 57 42 117 49 34 119 51 36 124 56 41 123 55 40 115 47 32 126 58 43 123 55 40 112 44 29 116 48 33 118 50 35 115 47 32 127 59 44 89 21 6 89 21 6 89 21 6 89 21 6 117 49 34 115 47 32 119 51 36 125 57 42 118 50 35 120 52 37 117 49 34 116 48 33 113 45 30 119 51 36 114 46 31 119 51 36 117 49 34 122 54 39 120 52 37 125 57 42 119 51 36 126 58 43 123 55 40 123 55 40 128 60 45 120 52 37 125 57 42 127 59 44 123 55 40 121 53 38 125 57 42 116 48 33 89 21 6 89 21 6 89 21 6 89 21 6 119 51 36 121 53 38 126 58 43 113 45 30 123 55 40 125 57 42 126 58 43 118 50 35 114 46 31 119 51 36 113 45 30 126 58 43 124 56 41 118 50 35 121 53 38 127 59 44 123 55 40 112 44 29 113 45 30 122 54 39 116 48 33 120 52 37 122 54 39 118 50 35 127 59 44 117 49 34 117 49 34 123 55 40 89 21 6 89 21 6
89 21 6 89 21 6 116 48 33 118 50 35 116 48 33 122 54 39 128 60 45 116 48 33 126 58 43 117 49 34 126 58 43 113 45 30 122 54 39 117 49 34 124 56 41 126 58 43 114 46 31 118 50 35 120 52 37 114 46 31 119 51 36 116 48 33 121 53 38 123 55 40 123 55 40 122 54 39 123 55 40 119 51 36 117 49 34 119 51 36 89 21 6 89 21 6 89 21 6 89 21 6 122 54 39 127 59 44 121 53 38 128 60 45 127 59 44 123 55 40 112 44 29 125 57 42 117 49 34 123 55 40 125 57 42 120 52 37 115 47 32 117 49 34 114 46 31 125 57 42 119 51 36 128 60 45 123 55 40 122 54 39 124 56 41 123 55 40 115 47 32 123 55 40 115 47 32 113 45 30 115 47 32 126 58 43 89 21 6 89 21 6 89 21 6 89 21 6 115 47 32 125 57 42 124 56 41 113 45 30 125 57 42 121 53 38 124 56 41 126 58 43 120 52 37 116 48 33 115 47 32 126 58 43 113 45 30 126 58 43 124 56 41 124 56 41 117 49 34 113 45 30 123 55 40 126 58 43 127 59 44 115 47 32 115 47 32 118 50 35 114 46 31 112 44 29 112 44 29 120 52 37 89 21 6 89 21 6 89 21 6 89 21 6 119 51 36 117 49 34 126 58 43 114 46 31 120 52 37 125 57 42 116 48 33 121 53 38 122 54 39 114 46 31 115 47 32 117 49 34 123 55 40 116 48 33 119 51 36 119 51 36 117 49 34 112 44 29 112 44 29 120 52 37 124 56 41 122 54 39 114 46 31 119 51 36 125 57 42 116 48 33 117 49 34 120 52 37 89 21 6 89 21 6
89 21 6 89 21 6 116 48 33 112 44 29 122 54 39 114 46 31 124 56 41 124 56 41 120 52 37 127 59 44 119 51 36 114 46 31 113 45 30 124 56 41 126 58 43 117 49 34 123 55 40 119 51 36 125 57 42 115 47 32 116 48 33 121 53 38 125 57 42 125 57 42 113 45 30 116 48 33 126 58 43 127 59 44 118 50 35 125 57 42 89 21 6 89 21 6 89 21 6 89 21 6 123 55 40 120 52 37 127 59 44 125 57 42 128 60 45 123 55 40 116 48 33 125 57 42 124 56 41 114 46 31 119 51 36 122 54 39 120 52 37 122 54 39 119 51 36 122 54 39 123 55 40 122 54 39 117 49 34 116 48 33 117 49 34 123 55 40 119 51 36 123 55 40 114 46 31 114 46 31 114 46 31 115 47 32 89 21 6 89 21 6 89 21 6 89 21 6 127 59 44 116 48 33 127 59 44 119 51 36 128 60 45 127 59 44 125 57 42 127 59 44 127 59 44 121 53 38 123 55 40 126 58 43 114 46 31 127 59 44 112 44 29 119 51 36 122 54 39 119 51 36 122 54 39 112 44 29 115 47 32 117 49 34 118 50 35 124 56 41 114 46 31 127 59 44 123 55 40 127 59 44 89 21 6 89 21 6 89 21 6 89 21 6 113 45 30 122 54 39 127 59 44 123 55 40 119 51 36 128 60 45 115 47 32 127 59 44 126 58 43 125 57 42 114 46 31 120 52 37 114 46 31 121 53 38 123 55 40 118 50 35 119 51 36 118 50 35 125 57 42 122 54 39 123 55 40 122 54 39 114 46 31 118 50 35 112 44 29 122 54 39 117 49 34 122 54 39 89 21 6 89 21 6
89 21 6 89 21 6 110 42 27 105 37 22 115 47 32 106 38 23 108 40 25 112 44 29 112 44 29 105 37 22 108 40 25 110 42 27 111 43 28 117 49 34 105 37 22 107 39 24 117 49 34 104 36 21 111 43 28 105 37 22 118 50 35 115 47 32 109 41 26 109 41 26 118 50 35 105 37 22 116 48 33 107 39 24 116 48 33 114 46 31 89 21 6 89 21 6 89 21 6 89 21 6 117 49 34 114 46 31 112 44 29 116 48 33 114 46 31 113 45 30 119 51 36 110 42 27 109 41 26 111 43 28 117 49 34 114 46 31 116 48 33 118 50 35 105 37 22 112 44 29 116 48 33 108 40 25 104 36 21 107 39 24 112 44 29 106 38 23 108 40 25 117 49 34 117 49 34 117 49 34 116 48 33 110 42 27 89 21 6 89 21 6 89 21 6 89 21 6 117 49 34 118 50 35 111 43 28 119 51 36 113 45 30 120 52 37 105 37 22 112 44 29 110 42 27 107 39 24 109 41 26 115 47 32 106 38 23 119 51 36 114 46 31 109 41 26 117 49 34 120 52 37 107 39 24 105 37 22 117 49 34 116 48 33 107 39 24 116 48 33 116 48 33 116 48 33 117 49 34 107 39 24 89 21 6 89 21 6 89 21 6 89 21 6 106 38 23 112 44 29 108 40 25 112 44 29 114 46 31 107 39 24 110 42 27 110 42 27 119 51 36 110 42 27 118 50 35 105 37 22 110 42 27 112 44 29 109 41 26 106 38 23 118 50 35 114 46 31 108 40 25 111 43 28 114 46 31 109 41 26 107 39 24 107 39 24 105 37 22 108 40 25 114 46 31 111 43 28 89 21 6 89 21 6
89 21 6 89 21 6 115 47 32 117 49 34 107 39 24 107 39 24 120 52 37 113 45 30 118 50 35 107 39 24 108 40 25 112 44 29 119 51 36 117 49 34 109 41 26 115 47 32 114 46 31 120 52 37 116 48 33 108 40 25 116 48 33 110 42 27 112 44 29 115 47 32 107 39 24 119 51 36 112 44 29 108 40 25 111 43 28 104 36 21 89 21 6 89 21 6 89 21 6 89 21 6 113 45 30 118 50 35 108 40 25 117 49 34 104 36 21 119 51 36 108 40 25 105 37 22 118 50 35 107 39 24 109 41 26 111 43 28 104 36 21 107 39 24 114 46 31 117 49 34 119 51 36 112 44 29 113 45 30 113 45 30 107 39 24 107 39 24 114 46 31 116 48 33 113 45 30 114 46 31 107 39 24 118 50 35 89 21 6 89 21 6 89 21 6 89 21 6 119 51 36 108 40 25 110 42 27 119 51 36 119 51 36 116 48 33 108 40 25 116 48 33 110 42 27 114 46 31 110 42 27 109 41 26 119 51 36 108 40 25 109 41 26 112 44 29 105 37 22 116 48 33 105 37 22 112 44 29 108 40 25 108 40 25 104 36 21 113 45 30 114 46 31 105 37 22 106 38 23 112 44 29 89 21 6 89 21 6 89 21 6 89 21 6 107 39 24 114 46 31 107 39 24 107 39 24 109 41 26 110 42 27 109 41 26 115 47 32 114 46 31 119 51 36 118 50 35 111 43 28 118 50 35 115 47 32 106 38 23 111 43 28 117 49 34 108 40 25 119 51 36 112 44 29 120 52 37 107 39 24 106 38 23 110 42 27 104 36 21 117 49 34 117 49 34 107 39 24 89 21 6 89 21 6
89 21 6 89 21 6 105 37 22 118 50 35 105 37 22 107 39 24 114 46 31 110 42 27 115 47 32 109 41 26 108 40 25 110 42 27 110 42 27 107 39 24 107 39 24 116 48 33 108 40 25 104 36 21 115 47 32 109 41 26 115 47 32 112 44 29 113 45 30 116 48 33 112 44 29 117 49 34 109 41 26 110 42 27 114 46 31 119 51 36 89 21 6 89 21 6 89 21 6 89 21 6 108 40 25 115 47 32 110 42 27 112 44 29 111 43 28 105 37 22 104 36 21 118 50 35 114 46 31 104 36 21 118 50 35 107 39 24 115 47 32 105 37 22 116 48 33 104 36 21 109 41 26 109 41 26 110 42 27 112 44 29 109 41 26 113 45 30 114 46 31 119 51 36 108 40 25 115 47 32 112 44 29 113 45 30 89 21 6 89 21 6 89 21 6 89 21 6 119 51 36 111 43 28 106 38 23 114 46 31 106 38 23 105 37 22 107 39 24 117 49 34 109 41 26 112 44 29 115 47 32 111 43 28 108 40 25 114 46 31 118 50 35 116 48 33 104 36 21 105 37 22 104 36 21 110 42 27 115 47 32 116 48 33 111 43 28 115 47 32 118 50 35 120 52 37 110 42 27 108 40 25 89 21 6 89 21 6 89 21 6 89 21 6 113 45 30 110 42 27 117 49 34 116 48 33 117 49 34 109 41 26 114 46 31 113 45 30 115 47 32 105 37 22 116 48 33 110 42 27 111 43 28 114 46 31 110 42 27 113 45 30 112 44 29 120 52 37 111 43 28 106 38 23 118 50 35 118 50 35 109 41 26 108 40 25 109 41 26 118 50 35 118 50 35 111 43 28 89 21 6 89 21 6
89 21 6 89 21 6 120 52 37 105 37 22 118 50 35 106 38 23 113 45 30 119 51 36 116 48 33 113 45 30 114 46 31 105 37 22 108 40 25 118 50 35 105 37 22 118 50 35 111 43 28 120 52 37 110 42 27 118 50 35 113 45 30 108 40 25 114 46 31 113 45 30 114 46 31 109 41 26 104 36 21 118 50 35 119 51 36 112 44 29 89 21 6 89 21 6 89 21 6 89 21 6 106 38 23 108 40 25 116 48 33 115 47 32 108 40 25 116 48 33 117 49 34 110 42 27 119 51 36 116 48 33 108 40 25 120 52 37 114 46 31 109 41 26 116 48 33 112 44 29 115 47 32 118 50 35 114 46 31 111 43 28 109 41 26 109 41 26 116 48 33 107 39 24 120 52 37 116 48 33 112 44 29 105 37 22 89 21 6 89 21 6 89 21 6 89 21 6 107 39 24 106 38 23 114 46 31 109 41 26 106 38 23 119 51 36 114 46 31 117 49 34 117 49 34 111 43 28 113 45 30 117 49 34 118 50 35 111 43 28 113 45 30 115 47 32 105 37 22 105 37 22 118 50 35 117 49 34 114 46 31 109 41 26 113 45 30 107 39 24 105 37 22 110 42 27 108 40 25 117 49 34 89 21 6 89 21 6 89 21 6 89 21 6 113 45 30 114 46 31 119 51 36 114 46 31 112 44 29 107 39 24 107 39 24 116 48 33 110 42 27 105 37 22 108 40 25 118 50 35 115 47 32 111 43 28 115 47 32 115 47 32 113 45 30 107 39 24 117 49 34 113 45 30 118 50 35 107 39 24 106 38 23 117 49 34 108 40 25 120 52 37 112 44 29 120 52 37 89 21 6 89 21 6
89 21 6 89 21 6 106 38 23 108 40 25 109 41 26 107 39 24 118 50 35 115 47 32 108 40 25 110 42 27 105 37 22 113 45 30 118 50 35 116 48 33 117 49 34 106 38 23 110 42 27 119 51 36 105 37 22 118 50 35 117 49 34 112 44 29 114 46 31 111 43 28 108 40 25 105 37 22 115 47 32 116 48 33 105 37 22 113 45 30 89 21 6 89 21 6 89 21 6 89 21 6 105 37 22 108 40 25 109 41 26 117 49 34 105 37 22 104 36 21 116 48 33 107 39 24 104 36 21 114 46 31 117 49 34 117 49 34 113 45 30 105 37 22 112 44 29 111 43 28 119 51 36 112 44 29 110 42 27 109 41 26 111 43 28 117 49 34 110 42 27 114 46 31 105 37 22 118 50 35 115 47 32 108 40 25 89 21 6 89 21 6 89 21 6 89 21 6 111 43 28 119 51 36 109 41 26 111 43 28 109 41 26 110 42 27 111 43 28 104 36 21 118 50 35 119 51 36 118 50 35 117 49 34 112 44 29 112 44 29 107 39 24 118 50 35 117 49 34 107 39 24 111 43 28 108 40 25 108 40 25 109 41 26 117 49 34 109 41 26 108 40 25 119 51 36 112 44 29 110 42 27 89 21 6 89 21 6 89 21 6 89 21 6 104 36 21 109 41 26 108 40 25 117 49 34 105 37 22 112 44 29 107 39 24 111 43 28 114 46 31 118 50 35 113 45 30 116 48 33 119 51 36 111 43 28 117 49 34 105 37 22 108 40 25 116 48 33 106 38 23 110 42 27 105 37 22 105 37 22 110 42 27 116 48 33 111 43 28 114 46 31 108 40 25 109 41 26 89 21 6 89 21 6
89 21 6 89 21 6 114 46 31 118 50 35 114 46 31 106 38 23 118 50 35 109 41 26 114 46 31 106 38 23 119 51 36 105 37 22 112 44 29 109 41 26 115 47 32 115 47 32 107 39 24 117 49 34 118 50 35 114 46 31 106 38 23 120 52 37 107 39 24 106 38 23 118 50 35 117 49 34 108 40 25 118 50 35 111 43 28 112 44 29 89 21 6 89 21 6 89 21 6 89 21 6 108 40 25 106 38 23 119 51 36 116 48 33 118 50 35 117 49 34 109 41 26 107 39 24 105 37 22 115 47 32 117 49 34 108 40 25 107 39 24 113 45 30 114 46 31 107 39 24 110 42 27 118 50 35 120 52 37 114 46 31 118 50 35 108 40 25 106 38 23 111 43 28 111 43 28 113 45 30 115 47 32 112 44 29 89 21 6 89 21 6 89 21 6 89 21 6 114 46 31 117 49 34 109 41 26 118 50 35 117 49 34 114 46 31 107 39 24 108 40 25 117 49 34 107 39 24 118 50 35 111 43 28 112 44 29 115 47 32 116 48 33 119 51 36 115 47 32 108 40 25 115 47 32 118 50 35 112 44 29 116 48 33 115 47 32 117 49 34 111 43 28 114 46 31 108 40 25 112 44 29 89 21 6 89 21 6 89 21 6 89 21 6 119 51 36 119 51 36 117 49 34 117 49 34 113 45 30 110 42 27 109 41 26 113 45 30 114 46 31 115 47 32 105 37 22 111 43 28 114 46 31 114 46 31 108 40 25 107 39 24 105 37 22 110 42 27 116 48 33 107 39 24 104 36 21 106 38 23 112 44 29 107 39 24 116 48 33 117 49 34 112 44 29 111 43 28 89 21 6 89 21 6
89 21 6 89 21 6 115 47 32 118 50 35 114 46 31 117 49 34 113 45 30 116 48 33 117 49 34 120 52 37 114 46 31 110 42 27 105 37 22 116 48 33 106 38 23 116 48 33 108 40 25 104 36 21 115 47 32 120 52 37 115 47 32 105 37 22 105 37 22 104 36 21 113 45 30 112 44 29 112 44 29 112 44 29 104 36 21 118 50 35 89 21 6 89 21 6 89 21 6 89 21 6 113 45 30 120 52 37 106 38 23 104 36 21 113 45 30 119 51 36 110 42 27 113 45 30 117 49 34 115 47 32 116 48 33 116 48 33 104 36 21 112 44 29 110 42 27 119 51 36 113 45 30 119 51 36 107 39 24 108 40 25 105 37 22 113 45 30 112 44 29 119 51 36 106 38 23 119 51 36 119 51 36 116 48 33 89 21 6 89 21 6 89 21 6 89 21 6 117 49 34 106 38 23 105 37 22 109 41 26 108 40 25 116 48 33 114 46 31 114 46 31 113 45 30 117 49 34 117 49 34 116 48 33 116 48 33 107 39 24 120 52 37 119 51 36 115 47 32 115 47 32 105 37 22 120 52 37 113 45 30 110 42 27 111 43 28 112 44 29 110 42 27 108 40 25 114 46 31 116 48 33 89 21 6 89 21 6 89 21 6 89 21 6 105 37 22 112 44 29 112 44 29 111 43 28 116 48 33 114 46 31 116 48 33 106 38 23 109 41 26 116 48 33 113 45 30 111 43 28 110 42 27 118 50 35 118 50 35 116 48 33 116 48 33 119 51 36 118 50 35 120 52 37 110 42 27 119 51 36 107 39 24 115 47 32 115 47 32 110 42 27 108 40 25 120 52 37 89 21 6 89 21 6
89 21 6 89 21 6 107 39 24 114 46 31 113 45 30 108 40 25 108 40 25 112 44 29 115 47 32 117 49 34 119 51 36 116 48 33 110 42 27 107 39 24 113 45 30 119 51 36 105 37 22 111 43 28 116 48 33 108 40 25 105 37 22 117 49 34 105 37 22 114 46 31 113 45 30 120 52 37 116 48 33 111 43 28 115 47 32 108 40 25 89 21 6 89 21 6 89 21 6 89 21 6 115 47 32 120 52 37 111 43 28 109 41 26 117 49 34 118 50 35 119 51 36 109 41 26 117 49 34 113 45 30 111 43 28 112 44 29 117 49 34 108 40 25 107 39 24 105 37 22 113 45 30 114 46 31 113 45 30 107 39 24 105 37 22 109 41 26 118 50 35 114 46 31 113 45 30 108 40 25 110 42 27 119 51 36 89 21 6 89 21 6 89 21 6 89 21 6 119 51 36 109 41 26 113 45 30 119 51 36 104 36 21 117 49 34 109 41 26 112 44 29 117 49 34 117 49 34 105 37 22 115 47 32 119 51 36 114 46 31 113 45 30 117 49 34 116 48 33 111 43 28 116 48 33 118 50 35 106 38 23 116 48 33 108 40 25 107 39 24 110 42 27 107 39 24 116 48 33 109 41 26 89 21 6 89 21 6 89 21 6 89 21 6 106 38 23 109 41 26 117 49 34 112 44 29 106 38 23 118 50 35 115 47 32 115 47 32 117 49 34 118 50 35 109 41 26 112 44 29 116 48 33 114 46 31 110 42 27 112 44 29 114 46 31 115 47 32 105 37 22 116 48 33 112 44 29 113 45 30 115 47 32 118 50 35 106 38 23 115 47 32 116 48 33 114 46 31 89 21 6 89 21 6
89 21 6 89 21 6 110 42 27 105 37 22 112 44 29 107 39 24 105 37 22 108 40 25 117 49 34 119 51 36 117 49 34 115 47 32 116 48 33 115 47 32 116 48 33 106 38 23 110 42 27 113 45 30 118 50 35 110 42 27 111 43 28 113 45 30 115 47 32 117 49 34 120 52 37 117 49 34 119 51 36 115 47 32 111 43 28 111 43 28 89 21 6 89 21 6 89 21 6 89 21 6 114 46 31 113 45 30 115 47 32 105 37 22 108 40 25 110 42 27 115 47 32 119 51 36 107 39 24 108 40 25 118 50 35 113 45 30 112 44 29 112 44 29 116 48 33 106 38 23 113 45 30 112 44 29 108 40 25 119 51 36 117 49 34 107 39 24 117 49 34 105 37 22 106 38 23 117 49 34 106 38 23 118 50 35 89 21 6 89 21 6 89 21 6 89 21 6 113 45 30 107 39 24 106 38 23 107 39 24 116 48 33 114 46 31 112 44 29 116 48 33 119 51 36 104 36 21 109 41 26 104 36 21 105 37 22 111 43 28 108 40 25 109 41 26 116 48 33 118 50 35 117 49 34 110 42 27 114 46 31 108 40 25 110 42 27 118 50 35 114 46 31 113 45 30 117 49 34 112 44 29 89 21 6 89 21 6 89 21 6 89 21 6 113 45 30 109 41 26 117 49 34 118 50 35 110 42 27 107 39 24 106 38 23 110 42 27 108 40 25 118 50 35 113 45 30 113 45 30 108 40 25 107 39 24 119 51 36 112 44 29 112 44 29 112 44 29 116 48 33 112 44 29 106 38 23 108 40 25 112 44 29 117 49 34 105 37 22 107 39 24 110 42 27 119 51 36 89 21 6 89 21 6
89 21 6 89 21 6 107 39 24 109 41 26 119 51 36 118 50 35 117 49 34 108 40 25 117 49 34 111 43 28 107 39 24 117 49 34 108 40 25 107 39 24 113 45 30 104 36 21 110 42 27 110 42 27 110 42 27 116 48 33 111 43 28 107 39 24 110 42 27 111 43 28 118 50 35 108 40 25 105 37 22 118 50 35 108 40 25 106 38 23 89 21 6 89 21 6 89 21 6 89 21 6 106 38 23 105 37 22 109 41 26 111 43 28 116 48 33 114 46 31 113 45 30 113 45 30 110 42 27 120 52 37 110 42 27 107 39 24 107 39 24 115 47 32 115 47 32 113 45 30 106 38 23 105 37 22 113 45 30 114 46 31 109 41 26 117 49 34 106 38 23 117 49 34 119 51 36 105 37 22 118 50 35 117 49 34 89 21 6 89 21 6 89 21 6 89 21 6 117 49 34 116 48 33 115 47 32 109 41 26 105 37 22 119 51 36 118 50 35 105 37 22 110 42 27 114 46 31 110 42 27 110 42 27 114 46 31 110 42 27 110 42 27 113 45 30 104 36 21 115 47 32 104 36 21 108 40 25 113 45 30 110 42 27 119 51 36 114 46 31 107 39 24 118 50 35 107 39 24 120 52 37 89 21 6 89 21 6 89 21 6 89 21 6 107 39 24 112 44 29 117 49 34 114 46 31 117 49 34 112 44 29 108 40 25 112 44 29 111 43 28 107 39 24 120 52 37 107 39 24 107 39 24 116 48 33 113 45 30 116 48 33 116 48 33 115 47 32 119 51 36 110 42 27 106 38 23 118 50 35 111 43 28 108 40 25 117 49 34 110 42 27 108 40 25 116 48 33 89 21 6 89 21 6
89 21 6 89 21 6 109 41 26 110 42 27 107 39 24 108 40 25 113 45 30 120 52 37 120 52 37 114 46 31 116 48 33 117 49 34 108 40 25 110 42 27 109 41 26 117 49 34 118 50 35 113 45 30 106 38 23 117 49 34 119 51 36 114 46 31 108 40 25 111 43 28 110 42 27 107 39 24 118 50 35 109 41 26 112 44 29 115 47 32 89 21 6 89 21 6 89 21 6 89 21 6 111 43 28 109 41 26 117 49 34 112 44 29 107 39 24 118 50 35 119 51 36 119 51 36 105 37 22 118 50 35 109 41 26 120 52 37 110 42 27 112 44 29 110 42 27 106 38 23 107 39 24 107 39 24 119 51 36 112 44 29 117 49 34 119 51 36 109 41 26 119 51 36 117 49 34 112 44 29 105 37 22 105 37 22 89 21 6 89 21 6 89 21 6 89 21 6 114 46 31 119 51 36 118 50 35 117 49 34 110 42 27 115 47 32 110 42 27 117 49 34 106 38 23 112 44 29 107 39 24 111 43 28 112 44 29 107 39 24 108 40 25 113 45 30 110 42 27 119 51 36 113 45 30 110 42 27 110 42 27 114 46 31 111 43 28 115 47 32 112 44 29 113 45 30 106 38 23 108 40 25 89 21 6 89 21 6 89 21 6 89 21 6 108 40 25 119 51 36 114 46 31 104 36 21 117 49 34 116 48 33 107 39 24 119 51 36 119 51 36 107 39 24 105 37 22 110 42 27 118 50 35 107 39 24 116 48 33 113 45 30 117 49 34 116 48 33 120 52 37 104 36 21 119 51 36 112 44 29 117 49 34 105 37 22 118 50 35 113 45 30 120 52 37 119 51 36 89 21 6 89 21 6
89 21 6 89 21 6 113 45 30 120 52 37 105 37 22 107 39 24 107 39 24 120 52 37 118 50 35 114 46 31 107 39 24 111 43 28 110 42 27 118 50 35 113 45 30 107 39 24 112 44 29 117 49 34 106 38 23 117 49 34 106 38 23 106 38 23 120 52 37 112 44 29 110 42 27 112 44 29 109 41 26 110 42 27 114 46 31 108 40 25 89 21 6 89 21 6 89 21 6 89 21 6 119 51 36 106 38 23 114 46 31 115 47 32 108 40 25 109 41 26 107 39 24 115 47 32 105 37 22 117 49 34 105 37 22 119 51 36 115 47 32 111 43 28 108 40 25 104 36 21 111 43 28 117 49 34 111 43 28 120 52 37 112 44 29 110 42 27 106 38 23 119 51 36 107 39 24 108 40 25 106 38 23 112 44 29 89 21 6 89 21 6 89 21 6 89 21 6 118 50 35 107 39 24 114 46 31 105 37 22 119 51 36 117 49 34 108 40 25 114 46 31 106 38 23 111 43 28 111 43 28 109 41 26 111 43 28 105 37 22 106 38 23 105 37 22 108 40 25 113 45 30 105 37 22 116 48 33 116 48 33 112 44 29 119 51 36 110 42 27 111 43 28 118 50 35 115 47 32 118 50 35 89 21 6 89 21 6 89 21 6 89 21 6 109 41 26 111 43 28 112 44 29 116 48 33 114 46 31 105 37 22 110 42 27 115 47 32 109 41 26 114 46 31 106 38 23 116 48 33 106 38 23 117 49 34 118 50 35 120 52 37 106 38 23 119 51 36 104 36 21 119 51 36 118 50 35 106 38 23 106 38 23 107 39 24 116 48 33 113 45 30 108 40 25 108 40 25 89 21 6 89 21 6
89 21 6 89 21 6 107 39 24 115 47 32 114 46 31 118 50 35 106 38 23 107 39 24 105 37 22 107 39 24 109 41 26 118 50 35 113 45 30 107 39 24 105 37 22 120 52 37 112 44 29 108 40 25 113 45 30 107 39 24 120 52 37 118 50 35 108 40 25 114 46 31 119 51 36 107 39 24 111 43 28 120 52 37 115 47 32 118 50 35 89 21 6 89 21 6 89 21 6 89 21 6 111 43 28 108 40 25 113 45 30 111 43 28 116 48 33 112 44 29 118 50 35 114 46 31 114 46 31 110 42 27 115 47 32 115 47 32 116 48 33 112 44 29 109 41 26 108 40 25 108 40 25 113 45 30 112 44 29 107 39 24 113 45 30 115 47 32 117 49 34 115 47 32 117 49 34 115 47 32 119 51 36 117 49 34 89 21 6 89 21 6 89 21 6 89 21 6 111 43 28 106 38 23 107 39 24 105 37 22 118 50 35 112 44 29 115 47 32 107 39 24 118 50 35 119 51 36 104 36 21 110 42 27 111 43 28 109 41 26 110 42 27 120 52 37 113 45 30 110 42 27 105 37 22 118 50 35 108 40 25 110 42 27 109 41 26 111 43 28 115 47 32 108 40 25 111 43 28 106 38 23 89 21 6 89 21 6 89 21 6 89 21 6 116 48 33 114 46 31 105 37 22 118 50 35 105 37 22 115 47 32 114 46 31 113 45 30 105 37 22 116 48 33 113 45 30 119 51 36 117 49 34 112 44 29 108 40 25 116 48 33 106 38 23 118 50 35 108 40 25 108 40 25 116 48 33 104 36 21 113 45 30 120 52 37 110 42 27 112 44 29 111 43 28 111 43 28 89 21 6 89 21 6
89 21 6 89 21 6 89 21 6 89 21 6 89 21 6 89 21 6 89 21 6 89 21 6 89 21 6 89 21 6 89 21 6 89 21 6 89 21 6 89 21 6 89 21 6 89 21 6 89 21 6 89 21 6 89 21 6 89 21 6 89 21 6 89 21 6 89 21 6 89 21 6 89 21 6 89 21 6 89 21 6 89 21 6 89 21 6 89 21 6 89 21 6 89 21 6 89 21 6 89 21 6 89 21 6 89 21 6 89 21 6 89 21 6 89 21 6 89 21 6 89 21 6 89 21 6 89 21 6 89 21 6 89 21 6 89 21 6 89 21 6 89 21 6 89 21 6 89 21 6 89 21 6 89 21 6 89 21 6 89 21 6 89 21 6 89 21 6 89 21 6 89 21 6 89 21 6 89 21 6 89 21 6 89 21 6 89 21 6 89 21 6 89 21 6 89 21 6 89 21 6 89 21 6 89 21 6 89 21 6 89 21 6 89 21 6 89 21 6 89 21 6 89 21 6 89 21 6 89 21 6 89 21 6 89 21 6 89 21 6 89 21 6 89 21 6 89 21 6 89 21 6 89 21 6 89 21 6 89 21 6 89 21 6 89 21 6 89 21 6 89 21 6 89 21 6 89 21 6 89 21 6 89 21 6 89 21 6 89 21 6 89 21 6 89 21 6 89 21 6 89 21 6 89 21 6 89 21 6 89 21 6 89 21 6 89 21 6 89 21 6 89 21 6 89 21 6 89 21 6 89 21 6 89 21 6 89 21 6 89 21 6 89 21 6 89 21 6 89 21 6 89 21 6 89 21 6 89 21 6 89 21 6 89 21 6 89 21 6 89 21 6 89 21 6 89 21 6 89 21 6 89 21 6
89 21 6 89 21 6 89 21 6 89 21 6 89 21 6 89 21 6 89 21 6 89 21 6 89 21 6 89 21 6 89 21 6 89 21 6 89 21 6 89 21 6 89 21 6 89 21 6 89 21 6 89 21 6 89 21 6 89 21 6 89 21 6 89 21 6 89 21 6 89 21 6 89 21 6 89 21 6 89 21 6 89 21 6 89 21 6 89 21 6 89 21 6 89 21 6 89 21 6 89 21 6 89 21 6 89 21 6 89 21 6 89 21 6 89 21 6 89 21 6 89 21 6 89 21 6 89 21 6 89 21 6 89 21 6 89 21 6 89 21 6 89 21 6 89 21 6 89 21 6 89 21 6 89 21 6 89 21 6 89 21 6 89 21 6 89 21 6 89 21 6 89 21 6 89 21 6 89 21 6 89 21 6 89 21 6 89 21 6 89 21 6 89 21 6 89 21 6 89 21 6 89 21 6 89 21 6 89 21 6 89 21 6 89 21 6 89 21 6 89 21 6 89 21 6 89 21 6 89 21 6 89 21 6 89 21 6 89 21 6 89 21 6 89 21 6 89 21 6 89 21 6 89 21 6 89 21 6 89 21 6 89 21 6 89 21 6 89 21 6 89 21 6 89 21 6 89 21 6 89 21 6 89 21 6 89 21 6 89 21 6 89 21 6 89 21 6 89 21 6 89 21 6 89 21 6 89 21 6 89 21 6 89 21 6 89 21 6 89 21 6 89 21 6 89 21 6 89 21 6 89 21 6 89 21 6 89 21 6 89 21 6 89 21 6 89 21 6 89 21 6 89 21 6 89 21 6 89 21 6 89 21 6 89 21 6 89 21 6 89 21 6 89 21 6 89 21 6 89 21 6 89 21 6
89 21 6 89 21 6 89 21 6 89 21 6 89 21 6 89 21 6 89 21 6 89 21 6 89 21 6 89 21 6 89 21 6 89 21 6 89 21 6 89 21 6 89 21 6 89 21 6 89 21 6 89 21 6 89 21 6 89 21 6 89 21 6 89 21 6 89 21 6 89 21 6 89 21 6 89 21 6 89 21 6 89 21 6 89 21 6 89 21 6 89 21 6 89 21 6 89 21 6 89 21 6 89 21 6 89 21 6 89 21 6 89 21 6 89 21 6 89 21 6 89 21 6 89 21 6 89 21 6 89 21 6 89 21 6 89 21 6 89 21 6 89 21 6 89 21 6 89 21 6 89 21 6 89 21 6 89 21 6 89 21 6 89 21 6 89 21 6 89 21 6 89 21 6 89 21 6 89 21 6 89 21 6 89 21 6 89 21 6 89 21 6 89 21 6 89 21 6 89 21 6 89 21 6 89 21 6 89 21 6 89 21 6 89 21 6 89 21 6 89 21 6 89 21 6 89 21 6 89 21 6 89 21 6 89 21 6 89 21 6 89 21 6 89 21 6 89 21 6 89 21 6 89 21 6 89 21 6 89 21 6 89 21 6 89 21 6 89 21 6 89 21 6 89 21 6 89 21 6 89 21 6 89 21 6 89 21 6 89 21 6 89 21 6 89 21 6 89 21 6 89 21 6 89 21 6 89 21 6 89 21 6 89 21 6 89 21 6 89 21 6 89 21 6 89 21 6 89 21 6 89 21 6 89 21 6 89 21 6 89 21 6 89 21 6 89 21 6 89 21 6 89 21 6 89 21 6 89 21 6 89 21 6 89 21 6 89 21 6 89 21 6 89 21 6 89 21 6 89 21 6 89 21 6
89 21 6 89 21 6 89 21 6 89 21 6 89 21 6 89 21 6 89 21 6 89 21 6 89 21 6 89 21 6 89 21 6 89 21 6 89 21 6 89 21 6 89 21 6 89 21 6 89 21 6 89 21 6 89 21 6 89 21 6 89 21 6 89 21 6 89 21 6 89 21 6 89 21 6 89 21 6 89 21 6 89 21 6 89 21 6 89 21 6 89 21 6 89 21 6 89 21 6 89 21 6 89 21 6 89 21 6 89 21 6 89 21 6 89 21 6 89 21 6 89 21 6 89 21 6 89 21 6 89 21 6 89 21 6 89 21 6 89 21 6 89 21 6 89 21 6 89 21 6 89 21 6 89 21 6 89 21 6 89 21 6 89 21 6 89 21 6 89 21 6 89 21 6 89 21 6 89 21 6 89 21 6 89 21 6 89 21 6 89 21 6 89 21 6 89 21 6 89 21 6 89 21 6 89 21 6 89 21 6 89 21 6 89 21 6 89 21 6 89 21 6 89 21 6 89 21 6 89 21 6 89 21 6 89 21 6 89 21 6 89 21 6 89 21 6 89 21 6 89 21 6 89 21 6 89 21 6 89 21 6 89 21 6 89 21 6 89 21 6 89 21 6 89 21 6 89 21 6 89 21 6 89 21 6 89 21 6 89 21 6 89 21 6 89 21 6 89 21 6 89 21 6 89 21 6 89 21 6 89 21 6 89 21 6 89 21 6 89 21 6 89 21 6 89 21 6 89 21 6 89 21 6 89 21 6 89 21 6 89 21 6 89 21 6 89 21 6 89 21 6 89 21 6 89 21 6 89 21 6 89 21 6 89 21 6 89 21 6 89 21 6 89 21 6 89 21 6 89 21 6 89 21 6
123 55 40 116 48 33 119 51 36 115 47 32 123 55 40 115 47 32 124 56 41 123 55 40 121 53 38 114 46 31 118 50 35 119 51 36 117 49 34 112 44 29 89 21 6 89 21 6 89 21 6 89 21 6 119 51 36 117 49 34 122 54 39 125 57 42 125 57 42 124 56 41 124 56 41 120 52 37 119 51 36 122 54 39 121 53 38 120 52 37 124 56 41 123 55 40 117 49 34 116 48 33 128 60 45 114 46 31 121 53 38 124 56 41 114 46 31 123 55 40 113 45 30 118 50 35 122 54 39 120 52 37 116 48 33 123 55 40 89 21 6 89 21 6 89 21 6 89 21 6 117 49 34 119 51 36 113 45 30 127 59 44 128 60 45 117 49 34 127 59 44 112 44 29 114 46 31 117 49 34 122 54 39 122 54 39 122 54 39 114 46 31 116 48 33 113 45 30 127 59 44 117 49 34 121 53 38 118 50 35 117 49 34 115 47 32 126 58 43 122 54 39 121 53 38 127 59 44 126 58 43 127 59 44 89 21 6 89 21 6 89 21 6 89 21 6 118 50 35 122 54 39 114 46 31 115 47 32 119 51 36 116 48 33 127 59 44 127 59 44 114 46 31 120 52 37 116 48 33 121 53 38 120 52 37 126 58 43 112 44 29 112 44 29 115 47 32 113 45 30 113 45 30 120 52 37 122 54 39 112 44 29 115 47 32 115 47 32 122 54 39 119 51 36 112 44 29 120 52 37 89 21 6 89 21 6 89 21 6 89 21 6 126 58 43 116 48 33 124 56 41 121 53 38 124 56 41 127 59 44 113 45 30 123 55 40 119 51 36 127 59 44 123 55 40 116 48 33 126 58 43 115 47 32
118 50 35 115 47 32 125 57 42 112 44 29 121 53 38 122 54 39 117 49 34 120 52 37 116 48 33 118 50 35 123 55 40 114 46 31 122 54 39 117 49 34 89 21 6 89 21 6 89 21 6 89 21 6 119 51 36 125 57 42 126 58 43 124 56 41 127 59 44 124 56 41 122 54 39 118 50 35 127 59 44 118 50 35 115 47 32 116 48 33 126 58 43 114 46 31 114 46 31 112 44 29 125 57 42 116 48 33 124 56 41 119 51 36 115 47 32 120 52 37 118 50 35 126 58 43 123 55 40 123 55 40 128 60 45 122 54 39 89 21 6 89 21 6 89 21 6 89 21 6 116 48 33 114 46 31 114 46 31 121 53 38 114 46 31 117 49 34 126 58 43 118 50 35 116 48 33 126 58 43 127 59 44 118 50 35 120 52 37 119 51 36 116 48 33 126 58 43 115 47 32 114 46 31 124 56 41 116 48 33 114 46 31 126 58 43 123 55 40 118 50 35 114 46 31 117 49 34 115 47 32 125 57 42 89 21 6 89 21 6 89 21 6 89 21 6 120 52 37 120 52 37 119 51 36 114 46 31 121 53 38 120 52 37 126 58 43 116 48 33 116 48 33 126 58 43 126 58 43 121 53 38 128 60 45 114 46 31 113 45 30 116 48 33 119 51 36 122 54 39 127 59 44 123 55 40 114 46 31 124 56 41 122 54 39 120 52 37 113 45 30 126 58 43 122 54 39 123 55 40 89 21 6 89 21 6 89 21 6 89 21 6 120 52 37 116 48 33 122 54 39 117 49 34 115 47 32 124 56 41 123 55 40 121 53 38 123 55 40 117 49 34 127 59 44 115 47 32 124 56 41 122 54 39
113 45 30 123 55 40 128 60 45 123 55 40 121 53 38 125 57 42 119 51 36 119 51 36 118 50 35 122 54 39 114 46 31 121 53 38 121 53 38 127 59 44 89 21 6 89 21 6 89 21 6 89 21 6 113 45 30 127 59 44 120 52 37 120 52 37 126 58 43 119 51 36 119 51 36 127 59 44 127 59 44 119 51 36 117 49 34 116 48 33 119 51 36 116 48 33 117 49 34 112 44 29 118 50 35 124 56 41 124 56 41 124 56 41 112 44 29 128 60 45 115 47 32 115 47 32 119 51 36 122 54 39 127 59 44 121 53 38 89 21 6 89 21 6 89 21 6 89 21 6 126 58 43 125 57 42 126 58 43 118 50 35 124 56 41 121 53 38 115 47 32 123 55 40 125 57 42 120 52 37 120 52 37 116 48 33 124 56 41 117 49 34 118 50 35 113 45 30 121 53 38 118 50 35 123 55 40 116 48 33 114 46 31 117 49 34 120 52 37 118 50 35 121 53 38 120 52 37 117 49 34 112 44 29 89 21 6 89 21 6 89 21 6 89 21 6 118 50 35 118 50 35 119 51 36 120 52 37 113 45 30 118 50 35 120 52 37 125 57 42 124 56 41 123 55 40 126 58 43 113 45 30 121 53 38 122 54 39 119 51 36 114 46 31 125 57 42 116 48 33 123 55 40 119 51 36 113 45 30 124 56 41 122 54 39 119 51 36 118 50 35 127 59 44 116 48 33 121 53 38 89 21 6 89 21 6 89 21 6 89 21 6 126 58 43 115 47 32 123 55 40 124 56 41 121 53 38 117 49 34 122 54 39 127 59 44 116 48 33 123 55 40 119 51 36 122 54 39 114 46 31 127 59 44
104 36 21 107 39 24 113 45 30 107 39 24 107 39 24 114 46 31 118 50 35 119 51 36 110 42 27 112 44 29 114 46 31 105 37 22 115 47 32 116 48 33 89 21 6 89 21 6 89 21 6 89 21 6 115 47 32 107 39 24 115 47 32 115 47 32 106 38 23 110 42 27 113 45 30 119 51 36 106 38 23 118 50 35 115 47 32 107 39 24 108 40 25 105 37 22 114 46 31 107 39 24 107 39 24 107 39 24 109 41 26 110 42 27 111 43 28 108 40 25 113 45 30 116 48 33 118 50 35 106 38 23 109 41 26 116 48 33 89 21 6 89 21 6 89 21 6 89 21 6 106 38 23 119 51 36 109 41 26 105 37 22 104 36 21 109 41 26 107 39 24 109 41 26 113 45 30 116 48 33 109 41 26 105 37 22 109 41 26 113 45 30 113 45 30 115 47 32 106 38 23 108 40 25 118 50 35 107 39 24 105 37 22 108 40 25 105 37 22 109 41 26 106 38 23 116 48 33 106 38 23 110 42 27 89 21 6 89 21 6 89 21 6 89 21 6 107 39 24 107 39 24 106 38 23 109 41 26 109 41 26 119 51 36 111 43 28 107 39 24 105 37 22 105 37 22 111 43 28 108 40 25 116 48 33 113 45 30 105 37 22 119 51 36 112 44 29 118 50 35 109 41 26 104 36 21 117 49 34 113 45 30 107 39 24 107 39 24 105 37 22 110 42 27 113 45 30 117 49 34 89 21 6 89 21 6 89 21 6 89 21 6 114 46 31 105 37 22 111 43 28 114 46 31 118 50 35 111 43 28 110 42 27 112 44 29 104 36 21 111 43 28 105 37 22 108 40 25 105 37 22 112 44 29
117 49 34 105 37 22 108 40 25 105 37 22 104 36 21 111 43 28 112 44 29 115 47 32 117 49 34 110 42 27 120 52 37 110 42 27 104 36 21 117 49 34 89 21 6 89 21 6 89 21 6 89 21 6 118 50 35 113 45 30 111 43 28 110 42 27 115 47 32 119 51 36 110 42 27 113 45 30 119 51 36 117 49 34 119 51 36 120 52 37 107 39 24 114 46 31 116 48 33 104 36 21 118 50 35 106 38 23 114 46 31 113 45 30 114 46 31 109 41 26 112 44 29 119 51 36 111 43 28 118 50 35 114 46 31 109 41 26 89 21 6 89 21 6 89 21 6 89 21 6 114 46 31 104 36 21 109 41 26 105 37 22 104 36 21 116 48 33 104 36 21 115 47 32 116 48 33 115 47 32 113 45 30 118 50 35 106 38 23 115 47 32 106 38 23 110 42 27 109 41 26 113 45 30 115 47 32 111 43 28 111 43 28 105 37 22 105 37 22 114 46 31 110 42 27 113 45 30 112 44 29 112 44 29 89 21 6 89 21 6 89 21 6 89 21 6 110 42 27 104 36 21 112 44 29 116 48 33 110 42 27 113 45 30 114 46 31 110 42 27 114 46 31 118 50 35 113 45 30 105 37 22 106 38 23 113 45 30 114 46 31 106 38 23 117 49 34 108 40 25 104 36 21 113 45 30 118 50 35 120 52 37 116 48 33 117 49 34 114 46 31 116 48 33 107 39 24 111 43 28 89 21 6 89 21 6 89 21 6 89 21 6 115 47 32 113 45 30 113 45 30 112 44 29 120 52 37 107 39 24 107 39 24 107 39 24 109 41 26 105 37 22 116 48 33 107 39 24 111 43 28 119 51 36
115 47 32 111 43 28 109 41 26 115 47 32 110 42 27 106 38 23 108 40 25 118 50 35 116 48 33 107 39 24 112 44 29 105 37 22 112 44 29 105 37 22 89 21 6 89 21 6 89 21 6 89 21 6 104 36 21 106 38 23 118 50 35 118 50 35 112 44 29 110 42 27 115 47 32 113 45 30 119 51 36 119 51 36 112 44 29 118 50 35 114 46 31 117 49 34 118 50 35 117 49 34 117 49 34 106 38 23 107 39 24 108 40 25 117 49 34 107 39 24 110 42 27 107 39 24 114 46 31 106 38 23 111 43 28 107 39 24 89 21 6 89 21 6 89 21 6 89 21 6 114 46 31 113 45 30 111 43 28 117 49 34 116 48 33 115 47 32 109 41 26 106 38 23 118 50 35 116 48 33 118 50 35 119 51 36 104 36 21 120 52 37 104 36 21 115 47 32 107 39 24 115 47 32 119 51 36 111 43 28 108 40 25 116 48 33 115 47 32 117 49 34 117 49 34 116 48 33 118 50 35 109 41 26 89 21 6 89 21 6 89 21 6 89 21 6 105 37 22 105 37 22 106 38 23 116 48 33 118 50 35 107 39 24 113 45 30 107 39 24 109 41 26 115 47 32 110 42 27 107 39 24 105 37 22 109 41 26 119 51 36 115 47 32 119 51 36 114 46 31 115 47 32 116 48 33 120 52 37 114 46 31 111 43 28 113 45 30 118 50 35 107 39 24 109 41 26 116 48 33 89 21 6 89 21 6 89 21 6 89 21 6 113 45 30 116 48 33 110 42 27 105 37 22 119 51 36 117 49 34 118 50 35 105 37 22 114 46 31 115 47 32 105 37 22 111 43 28 110 42 27 106 38 23
111 43 28 119 51 36 117 49 34 118 50 35 105 37 22 118 50 35 119 51 36 107 39 24 111 43 28 114 46 31 110 42 27 106 38 23 109 41 26 118 50 35 89 21 6 89 21 6 89 21 6 89 21 6 106 38 23 117 49 34 105 37 22 117 49 34 119 51 36 110 42 27 113 45 30 110 42 27 111 43 28 109 41 26 114 46 31 114 46 31 112 44 29 115 47 32 105 37 22 104 36 21 115 47 32 111 43 28 115 47 32 109 41 26 110 42 27 112 44 29 115 47 32 112 44 29 114 46 31 111 43 28 107 39 24 119 51 36 89 21 6 89 21 6 89 21 6 89 21 6 105 37 22 113 45 30 108 40 25 114 46 31 113 45 30 113 45 30 119 51 36 108 40 25 112 44 29 120 52 37 104 36 21 104 36 21 117 49 34 116 48 33 110 42 27 105 37 22 105 37 22 114 46 31 117 49 34 107 39 24 112 44 29 111 43 28 108 40 25 114 46 31 110 42 27 106 38 23 119 51 36 116 48 33 89 21 6 89 21 6 89 21 6 89 21 6 108 40 25 112 44 29 108 40 25 105 37 22 116 48 33 119 51 36 105 37 22 114 46 31 119 51 36 117 49 34 107 39 24 107 39 24 114 46 31 118 50 35 113 45 30 104 36 21 113 45 30 115 47 32 118 50 35 114 46 31 116 48 33 112 44 29 117 49 34 111 43 28 115 47 32 106 38 23 105 37 22 105 37 22 89 21 6 89 21 6 89 21 6 89 21 6 116 48 33 115 47 32 104 36 21 113 45 30 109 41 26 104 36 21 118 50 35 110 42 27 111 43 28 115 47 32 106 38 23 116 48 33 104 36 21 113 45 30
114 46 31 109 41 26 115 47 32 107 39 24 104 36 21 111 43 28 117 49 34 104 36 21 107 39 24 110 42 27 117 49 34 105 37 22 112 44 29 114 46 31 89 21 6 89 21 6 89 21 6 89 21 6 108 40 25 117 49 34 106 38 23 107 39 24 115 47 32 105 37 22 113 45 30 117 49 34 108 40 25 108 40 25 118 50 35 106 38 23 113 45 30 106 38 23 111 43 28 105 37 22 111 43 28 108 40 25 120 52 37 113 45 30 113 45 30 111 43 28 118 50 35 113 45 30 111 43 28 115 47 32 105 37 22 117 49 34 89 21 6 89 21 6 89 21 6 89 21 6 110 42 27 116 48 33 115 47 32 117 49 34 111 43 28 104 36 21 108 40 25 105 37 22 112 44 29 107 39 24 108 40 25 118 50 35 105 37 22 120 52 37 108 40 25 108 40 25 110 42 27 105 37 22 119 51 36 111 43 28 104 36 21 109 41 26 106 38 23 113 45 30 115 47 32 114 46 31 112 44 29 105 37 22 89 21 6 89 21 6 89 21 6 89 21 6 107 39 24 108 40 25 117 49 34 111 43 28 116 48 33 110 42 27 118 50 35 106 38 23 119 51 36 113 45 30 114 46 31 111 43 28 108 40 25 116 48 33 117 49 34 111 43 28 106 38 23 112 44 29 114 46 31 114 46 31 113 45 30 106 38 23 111 43 28 105 37 22 109 41 26 112 44 29 109 41 26 116 48 33 89 21 6 89 21 6 89 21 6 89 21 6 105 37 22 115 47 32 116 48 33 111 43 28 116 48 33 117 49 34 116 48 33 116 48 33 113 45 30 116 48 33 110 42 27 115 47 32 116 48 33 107 39 24
107 39 24 107 39 24 116 48 33 112 44 29 116 48 33 105 37 22 119 51 36 115 47 32 115 47 32 108 40 25 110 42 27 115 47 32 107 39 24 116 48 33 89 21 6 89 21 6 89 21 6 89 21 6 106 38 23 108 40 25 111 43 28 120 52 37 107 39 24 113 45 30 108 40 25 115 47 32 104 36 21 113 45 30 118 50 35 115 47 32 112 44 29 118 50 35 106 38 23 116 48 33 114 46 31 105 37 22 115 47 32 117 49 34 110 42 27 110 42 27 113 45 30 107 39 24 116 48 33 114 46 31 120 52 37 120 52 37 89 21 6 89 21 6 89 21 6 89 21 6 106 38 23 118 50 35 105 37 22 111 43 28 110 42 27 116 48 33 118 50 35 105 37 22 109 41 26 115 47 32 108 40 25 114 46 31 115 47 32 112 44 29 117 49 34 117 49 34 110 42 27 106 38 23 111 43 28 117 49 34 111 43 28 119 51 36 117 49 34 113 45 30 110 42 27 111 43 28 118 50 35 119 51 36 89 21 6 89 21 6 89 21 6 89 21 6 115 47 32 104 36 21 106 38 23 108 40 25 111 43 28 109 41 26 118 50 35 116 48 33 111 43 28 112 44 29 119 51 36 115 47 32 115 47 32 110 42 27 108 40 25 119 51 36 105 37 22 110 42 27 109 41 26 113 45 30 105 37 22 105 37 22 106 38 23 116 48 33 118 50 35 106 38 23 119 51 36 112 44 29 89 21 6 89 21 6 89 21 6 89 21 6 110 42 27 118 50 35 114 46 31 110 42 27 105 37 22 106 38 23 116 48 33 110 42 27 112 44 29 109 41 26 114 46 31 113 45 30 118 50 35 108 40 25
109 41 26 113 45 30 116 48 33 118 50 35 113 45 30 118 50 35 120 52 37 118 50 35 118 50 35 113 45 30 109 41 26 115 47 32 118 50 35 120 52 37 89 21 6 89 21 6 89 21 6 89 21 6 105 37 22 116 48 33 109 41 26 114 46 31 111 43 28 114 46 31 105 37 22 119 51 36 105 37 22 112 44 29 116 48 33 117 49 34 112 44 29 109 41 26 117 49 34 107 39 24 106 38 23 117 49 34 106 38 23 116 48 33 118 50 35 115 47 32 120 52 37 106 38 23 115 47 32 110 42 27 114 46 31 117 49 34 89 21 6 89 21 6 89 21 6 89 21 6 110 42 27 113 45 30 112 44 29 105 37 22 115 47 32 105 37 22 104 36 21 106 38 23 109 41 26 114 46 31 109 41 26 112 44 29 114 46 31 111 43 28 105 37 22 105 37 22 109 41 26 113 45 30 107 39 24 109 41 26 120 52 37 113 45 30 109 41 26 115 47 32 118 50 35 114 46 31 119 51 36 107 39 24 89 21 6 89 21 6 89 21 6 89 21 6 105 37 22 116 48 33 113 45 30 118 50 35 108 40 25 116 48 33 119 51 36 107 39 24 120 52 37 116 48 33 113 45 30 106 38 23 110 42 27 112 44 29 117 49 34 112 44 29 118 50 35 114 46 31 108 40 25 107 39 24 117 49 34 106 38 23 107 39 24 106 38 23 115 47 32 108 40 25 106 38 23 106 38 23 89 21 6 89 21 6 89 21 6 89 21 6 114 46 31 106 38 23 110 42 27 117 49 34 111 43 28 109 41 26 108 40 25 113 45 30 109 41 26 109 41 26 119 51 36 105 37 22 111 43 28 110 42 27
110 42 27 116 48 33 114 46 31 119 51 36 106 38 23 118 50 35 117 49 34 118 50 35 116 48 33 119 51 36 118 50 35 106 38 23 115 47 32 110 42 27 89 21 6 89 21 6 89 21 6 89 21 6 109 41 26 110 42 27 108 40 25 105 37 22 116 48 33 114 46 31 104 36 21 111 43 28 116 48 33 119 51 36 112 44 29 110 42 27 108 40 25 110 42 27 117 49 34 106 38 23 110 42 27 110 42 27 120 52 37 112 44 29 115 47 32 113 45 30 110 42 27 116 48 33 113 45 30 110 42 27 116 48 33 119 51 36 89 21 6 89 21 6 89 21 6 89 21 6 109 41 26 106 38 23 112 44 29 114 46 31 105 37 22 113 45 30 105 37 22 110 42 27 115 47 32 117 49 34 115 47 32 116 48 33 113 45 30 106 38 23 113 45 30 105 37 22 105 37 22 106 38 23 118 50 35 106 38 23 119 51 36 109 41 26 110 42 27 112 44 29 113 45 30 105 37 22 116 48 33 115 47 32 89 21 6 89 21 6 89 21 6 89 21 6 113 45 30 110 42 27 104 36 21 109 41 26 113 45 30 119 51 36 114 46 31 107 39 24 117 49 34 110 42 27 119 51 36 117 49 34 110 42 27 105 37 22 120 52 37 118 50 35 118 50 35 105 37 22 112 44 29 113 45 30 113 45 30 109 41 26 120 52 37 105 37 22 105 37 22 110 42 27 119 51 36 107 39 24 89 21 6 89 21 6 89 21 6 89 21 6 118 50 35 105 37 22 111 43 28 119 51 36 112 44 29 107 39 24 106 38 23 119 51 36 105 37 22 109 41 26 110 42 27 107 39 24 116 48 33 117 49 34
114 46 31 110 42 27 119 51 36 110 42 27 118 50 35 110 42 27 118 50 35 106 38 23 110 42 27 108 40 25 105 37 22 109 41 26 115 47 32 113 45 30 89 21 6 89 21 6 89 21 6 89 21 6 119 51 36 113 45 30 114 46 31 120 52 37 119 51 36 115 47 32 105 37 22 112 44 29 111 43 28 105 37 22 112 44 29 105 37 22 111 43 28 105 37 22 112 44 29 118 50 35 108 40 25 106 38 23 109 41 26 115 47 32 117 49 34 110 42 27 105 37 22 112 44 29 107 39 24 117 49 34 107 39 24 119 51 36 89 21 6 89 21 6 89 21 6 89 21 6 117 49 34 109 41 26 106 38 23 115 47 32 110 42 27 115 47 32 112 44 29 117 49 34 118 50 35 115 47 32 114 46 31 107 39 24 105 37 22 116 48 33 110 42 27 104 36 21 113 45 30 107 39 24 112 44 29 113 45 30 106 38 23 116 48 33 120 52 37 104 36 21 107 39 24 104 36 21 106 38 23 119 51 36 89 21 6 89 21 6 89 21 6 89 21 6 116 48 33 114 46 31 117 49 34 116 48 33 113 45 30 112 44 29 108 40 25 110 42 27 112 44 29 110 42 27 118 50 35 115 47 32 118 50 35 119 51 36 118 50 35 116 48 33 112 44 29 112 44 29 117 49 34 113 45 30 115 47 32 112 44 29 117 49 34 111 43 28 104 36 21 104 36 21 111 43 28 105 37 22 89 21 6 89 21 6 89 21 6 89 21 6 112 44 29 113 45 30 114 46 31 110 42 27 112 44 29 119 51 36 119 51 36 118 50 35 116 48 33 111 43 28 107 39 24 112 44 29 118 50 35 113 45 30
118 50 35 111 43 28 115 47 32 114 46 31 107 39 24 115 47 32 104 36 21 116 48 33 108 40 25 109 41 26 115 47 32 108 40 25 117 49 34 119 51 36 89 21 6 89 21 6 89 21 6 89 21 6 118 50 35 118 50 35 105 37 22 115 47 32 118 50 35 107 39 24 114 46 31 105 37 22 107 39 24 112 44 29 112 44 29 104 36 21 107 39 24 106 38 23 119 51 36 117 49 34 116 48 33 112 44 29 116 48 33 109 41 26 111 43 28 107 39 24 106 38 23 111 43 28 104 36 21 105 37 22 115 47 32 113 45 30 89 21 6 89 21 6 89 21 6 89 21 6 120 52 37 110 42 27 105 37 22 116 48 33 111 43 28 117 49 34 113 45 30 120 52 37 105 37 22 109 41 26 104 36 21 114 46 31 114 46 31 110 42 27 111 43 28 118 50 35 111 43 28 104 36 21 118 50 35 115 47 32 114 46 31 107 39 24 118 50 35 110 42 27 108 40 25 107 39 24 107 39 24 116 48 33 89 21 6 89 21 6 89 21 6 89 21 6 105 37 22 113 45 30 118 50 35 112 44 29 106 38 23 119 51 36 108 40 25 104 36 21 119 51 36 105 37 22 120 52 37 109 41 26 110 42 27 109 41 26 115 47 32 119 51 36 109 41 26 119 51 36 105 37 22 109 41 26 105 37 22 108 40 25 107 39 24 120 52 37 111 43 28 105 37 22 107 39 24 109 41 26 89 21 6 89 21 6 89 21 6 89 21 6 109 41 26 119 51 36 115 47 32 115 47 32 110 42 27 112 44 29 108 40 25 115 47 32 109 41 26 105 37 22 105 37 22 104 36 21 111 43 28 106 38 23
114 46 31 118 50 35 111 43 28 114 46 31 115 47 32 108 40 25 108 40 25 106 38 23 107 39 24 107 39 24 107 39 24 112 44 29 113 45 30 112 44 29 89 21 6 89 21 6 89 21 6 89 21 6 109 41 26 105 37 22 111 43 28 115 47 32 107 39 24 117 49 34 118 50 35 119 51 36 118 50 35 113 45 30 114 46 31 106 38 23 111 43 28 108 40 25 110 42 27 116 48 33 120 52 37 108 40 25 106 38 23 109 41 26 106 38 23 109 41 26 120 52 37 113 45 30 105 37 22 115 47 32 112 44 29 117 49 34 89 21 6 89 21 6 89 21 6 89 21 6 112 44 29 118 50 35 105 37 22 112 44 29 106 38 23 110 42 27 114 46 31 108 40 25 111 43 28 107 39 24 118 50 35 104 36 21 106 38 23 109 41 26 112 44 29 119 51 36 118 50 35 111 43 28 112 44 29 119 51 36 114 46 31 117 49 34 108 40 25 118 50 35 112 44 29 117 49 34 116 48 33 118 50 35 89 21 6 89 21 6 89 21 6 89 21 6 111 43 28 115 47 32 113 45 30 110 42 27 110 42 27 107 39 24 110 42 27 107 39 24 114 46 31 113 45 30 111 43 28 116 48 33 109 41 26 106 38 23 112 44 29 110 42 27 113 45 30 116 48 33 115 47 32 107 39 24 107 39 24 115 47 32 104 36 21 107 39 24 108 40 25 118 50 35 105 37 22 112 44 29 89 21 6 89 21 6 89 21 6 89 21 6 113 45 30 116 48 33 119 51 36 111 43 28 108 40 25 109 41 26 110 42 27 112 44 29 106 38 23 109 41 26 111 43 28 106 38 23 120 52 37 117 49 34
114 46 31 110 42 27 117 49 34 115 47 32 117 49 34 111 43 28 113 45 30 111 43 28 104 36 21 118 50 35 113 45 30 111 43 28 116 48 33 106 38 23 89 21 6 89 21 6 89 21 6 89 21 6 116 48 33 105 37 22 115 47 32 117 49 34 118 50 35 117 49 34 117 49 34 113 45 30 105 37 22 115 47 32 119 51 36 119 51 36 105 37 22 114 46 31 109 41 26 115 47 32 112 44 29 106 38 23 118 50 35 113 45 30 108 40 25 116 48 33 111 43 28 109 41 26 118 50 35 118 50 35 105 37 22 108 40 25 89 21 6 89 21 6 89 21 6 89 21 6 109 41 26 120 52 37 117 49 34 104 36 21 119 51 36 109 41 26 108 40 25 119 51 36 118 50 35 112 44 29 111 43 28 109 41 26 111 43 28 106 38 23 110 42 27 111 43 28 114 46 31 116 48 33 113 45 30 111 43 28 118 50 35 116 48 33 119 51 36 117 49 34 113 45 30 106 38 23 106 38 23 109 41 26 89 21 6 89 21 6 89 21 6 89 21 6 120 52 37 108 40 25 108 40 25 105 37 22 107 39 24 105 37 22 111 43 28 105 37 22 107 39 24 116 48 33 117 49 34 119 51 36 109 41 26 112 44 29 115 47 32 116 48 33 109 41 26 112 44 29 110 42 27 114 46 31 119 51 36 111 43 28 110 42 27 115 47 32 114 46 31 114 46 31 116 48 33 106 38 23 89 21 6 89 21 6 89 21 6 89 21 6 104 36 21 109 41 26 116 48 33 108 40 25 107 39 24 109 41 26 115 47 32 109 41 26 110 42 27 119 51 36 117 49 34 110 42 27 107 39 24 114 46 31
109 41 26 107 39 24 113 45 30 106 38 23 108 40 25 108 40 25 110 42 27 116 48 33 108 40 25 105 37 22 107 39 24 113 45 30 111 43 28 106 38 23 89 21 6 89 21 6 89 21 6 89 21 6 119 51 36 106 38 23 118 50 35 118 50 35 109 41 26 120 52 37 106 38 23 116 48 33 118 50 35 119 51 36 109 41 26 111 43 28 106 38 23 120 52 37 117 49 34 114 46 31 110 42 27 106 38 23 110 42 27 111 43 28 119 51 36 112 44 29 118 50 35 120 52 37 118 50 35 111 43 28 111 43 28 115 47 32 89 21 6 89 21 6 89 21 6 89 21 6 114 46 31 113 45 30 111 43 28 115 47 32 108 40 25 116 48 33 108 40 25 118 50 35 108 40 25 116 48 33 106 38 23 104 36 21 118 50 35 113 45 30 113 45 30 117 49 34 110 42 27 110 42 27 105 37 22 108 40 25 114 46 31 111 43 28 107 39 24 110 42 27 115 47 32 104 36 21 112 44 29 109 41 26 89 21 6 89 21 6 89 21 6 89 21 6 120 52 37 110 42 27 117 49 34 117 49 34 107 39 24 109 41 26 104 36 21 116 48 33 111 43 28 107 39 24 105 37 22 118 50 35 110 42 27 118 50 35 112 44 29 112 44 29 106 38 23 105 37 22 116 48 33 114 46 31 108 40 25 111 43 28 114 46 31 105 37 22 111 43 28 107 39 24 120 52 37 115 47 32 89 21 6 89 21 6 89 21 6 89 21 6 109 41 26 118 50 35 119 51 36 114 46 31 115 47 32 112 44 29 107 39 24 114 46 31 119 51 36 120 52 37 108 40 25 115 47 32 106 38 23 118 50 35
89 21 6 89 21 6 89 21 6 89 21 6 89 21 6 89 21 6 89 21 6 89 21 6 89 21 6 89 21 6 89 21 6 89 21 6 89 21 6 89 21 6 89 21 6 89 21 6 89 21 6 89 21 6 89 21 6 89 21 6 89 21 6 89 21 6 89 21 6 89 21 6 89 21 6 89 21 6 89 21 6 89 21 6 89 21 6 89 21 6 89 21 6 89 21 6 89 21 6 89 21 6 89 21 6 89 21 6 89 21 6 89 21 6 89 21 6 89 21 6 89 21 6 89 21 6 89 21 6 89 21 6 89 21 6 89 21 6 89 21 6 89 21 6 89 21 6 89 21 6 89 21 6 89 21 6 89 21 6 89 21 6 89 21 6 89 21 6 89 21 6 89 21 6 89 21 6 89 21 6 89 21 6 89 21 6 89 21 6 89 21 6 89 21 6 89 21 6 89 21 6 89 21 6 89 21 6 89 21 6 89 21 6 89 21 6 89 21 6 89 21 6 89 21 6 89 21 6 89 21 6 89 21 6 89 21 6 89 21 6 89 21 6 89 21 6 89 21 6 89 21 6 89 21 6 89 21 6 89 21 6 89 21 6 89 21 6 89 21 6 89 21 6 89 21 6 89 21 6 89 21 6 89 21 6 89 21 6 89 21 6 89 21 6 89 21 6 89 21 6 89 21 6 89 21 6 89 21 6 89 21 6 89 21 6 89 21 6 89 21 6 89 21 6 89 21 6 89 21 6 89 21 6 89 21 6 89 21 6 89 21 6 89 21 6 89 21 6 89 21 6 89 21 6 89 21 6 89 21 6 89 21 6 89 21 6 89 21 6 89 21 6 89 21 6 89 21 6 89 21 6 89 21 6
89 21 6 89 21 6 89 21 6 89 21 6 89 21 6 89 21 6 89 21 6 89 21 6 89 21 6 89 21 6 89 21 6 89 21 6 89 21 6 89 21 6 89 21 6 89 21 6 89 21 6 89 21 6 89 21 6 89 21 6 89 21 6 89 21 6 89 21 6 89 21 6 89 21 6 89 21 6 89 21 6 89 21 6 89 21 6 89 21 6 89 21 6 89 21 6 89 21 6 89 21 6 89 21 6 89 21 6 89 21 6 89 21 6 89 21 6 89 21 6 89 21 6 89 21 6 89 21 6 89 21 6 89 21 6 89 21 6 89 21 6 89 21 6 89 21 6 89 21 6 89 21 6 89 21 6 89 21 6 89 21 6 89 21 6 89 21 6 89 21 6 89 21 6 89 21 6 89 21 6 89 21 6 89 21 6 89 21 6 89 21 6 89 21 6 89 21 6 89 21 6 89 21 6 89 21 6 89 21 6 89 21 6 89 21 6 89 21 6 89 21 6 89 21 6 89 21 6 89 21 6 89 21 6 89 21 6 89 21 6 89 21 6 89 21 6 89 21 6 89 21 6 89 21 6 89 21 6 89 21 6 89 21 6 89 21 6 89 21 6 89 21 6 89 21 6 89 21 6 89 21 6 89 21 6 89 21 6 89 21 6 89 21 6 89 21 6 89 21 6 89 21 6 89 21 6 89 21 6 89 21 6 89 21 6 89 21 6 89 21 6 89 21 6 89 21 6 89 21 6 89 21 6 89 21 6 89 21 6 89 21 6 89 21 6 89 21 6 89 21 6 89 21 6 89 21 6 89 21 6 89 21 6 89 21 6 89 21 6 89 21 6 89 21 6 89 21 6 89 21 6 89 21 6
89 21 6 89 21 6 89 21 6 89 21 6 89 21 6 89 21 6 89 21 6 89 21 6 89 21 6 89 21 6 89 21 6 89 21 6 89 21 6 89 21 6 89 21 6 89 21 6 89 21 6 89 21 6 89 21 6 89 21 6 89 21 6 89 21 6 89 21 6 89 21 6 89 21 6 89 21 6 89 21 6 89 21 6 89 21 6 89 21 6 89 21 6 89 21 6 89 21 6 89 21 6 89 21 6 89 21 6 89 21 6 89 21 6 89 21 6 89 21 6 89 21 6 89 21 6 89 21 6 89 21 6 89 21 6 89 21 6 89 21 6 89 21 6 89 21 6 89 21 6 89 21 6 89 21 6 89 21 6 89 21 6 89 21 6 89 21 6 89 21 6 89 21 6 89 21 6 89 21 6 89 21 6 89 21 6 89 21 6 89 21 6 89 21 6 89 21 6 89 21 6 89 21 6 89 21 6 89 21 6 89 21 6 89 21 6 89 21 6 89 21 6 89 21 6 89 21 6 89 21 6 89 21 6 89 21 6 89 21 6 89 21 6 89 21 6 89 21 6 89 21 6 89 21 6 89 21 6 89 21 6 89 21 6 89 21 6 89 21 6 89 21 6 89 21 6 89 21 6 89 21 6 89 21 6 89 21 6 89 21 6 89 21 6 89 21 6 89 21 6 89 21 6 89 21 6 89 21 6 89 21 6 89 21 6 89 21 6 89 21 6 89 21 6 89 21 6 89 21 6 89 21 6 89 21 6 89 21 6 89 21 6 89 21 6 89 21 6 89 21 6 89 21 6 89 21 6 89 21 6 89 21 6 89 21 6 89 21 6 89 21 6 89 21 6 89 21 6 89 21 6 89 21 6
89 21 6 89 21 6 89 21 6 89 21 6 89 21 6 89 21 6 89 21 6 89 21 6 89 21 6 89 21 6 89 21 6 89 21 6 89 21 6 89 21 6 89 21 6 89 21 6 89 21 6 89 21 6 89 21 6 89 21 6 89 21 6 89 21 6 89 21 6 89 21 6 89 21 6 89 21 6 89 21 6 89 21 6 89 21 6 89 21 6 89 21 6 89 21 6 89 21 6 89 21 6 89 21 6 89 21 6 89 21 6 89 21 6 89 21 6 89 21 6 89 21 6 89 21 6 89 21 6 89 21 6 89 21 6 89 21 6 89 21 6 89 21 6 89 21 6 89 21 6 89 21 6 89 21 6 89 21 6 89 21 6 89 21 6 89 21 6 89 21 6 89 21 6 89 21 6 89 21 6 89 21 6 89 21 6 89 21 6 89 21 6 89 21 6 89 21 6 89 21 6 89 21 6 89 21 6 89 21 6 89 21 6 89 21 6 89 21 6 89 21 6 89 21 6 89 21 6 89 21 6 89 21 6 89 21 6 89 21 6 89 21 6 89 21 6 89 21 6 89 21 6 89 21 6 89 21 6 89 21 6 89 21 6 89 21 6 89 21 6 89 21 6 89 21 6 89 21 6 89 21 6 89 21 6 89 21 6 89 21 6 89 21 6 89 21 6 89 21 6 89 21 6 89 21 6 89 21 6 89 21 6 89 21 6 89 21 6 89 21 6 89 21 6 89 21 6 89 21 6 89 21 6 89 21 6 89 21 6 89 21 6 89 21 6 89 21 6 89 21 6 89 21 6 89 21 6 89 21 6 89 21 6 89 21 6 89 21 6 89 21 6 89 21 6 89 21 6 89 21 6 89 21 6
89 21 6 89 21 6 117 49 34 117 49 34 125 57 42 117 49 34 119 51 36 126 58 43 121 53 38 126 58 43 115 47 32 123 55 40 124 56 41 119 51 36 125 57 42 124 56 41 117 49 34 120 52 37 119 51 36 127 59 44 128 60 45 124 56 41 114 46 31 121 53 38 117 49 34 112 44 29 113 45 30 113 45 30 113 45 30 112 44 29 89 21 6 89 21 6 89 21 6 89 21 6 113 45 30 118 50 35 127 59 44 125 57 42 112 44 29 127 59 44 121 53 38 114 46 31 120 52 37 126 58 43 123 55 40 123 55 40 113 45 30 125 57 42 120 52 37 120 52 37 120 52 37 119 51 36 120 52 37 119 51 36 127 59 44 125 57 42 118 50 35 113 45 30 128 60 45 125 57 42 126 58 43 119 51 36 89 21 6 89 21 6 89 21 6 89 21 6 124 56 41 127 59 44 125 57 42 115 47 32 113 45 30 123 55 40 119 51 36 120 52 37 117 49 34 116 48 33 115 47 32 123 55 40 126 58 43 122 54 39 119 51 36 118 50 35 127 59 44 117 49 34 116 48 33 119 51 36 118 50 35 117 49 34 120 52 37 128 60 45 127 59 44 124 56 41 128 60 45 123 55 40 89 21 6 89 21 6 89 21 6 89 21 6 123 55 40 119 51 36 119 51 36 118 50 35 126 58 43 125 57 42 123 55 40 120 52 37 115 47 32 112 44 29 116 48 33 117 49 34 118 50 35 125 57 42 113 45 30 113 45 30 113 45 30 125 57 42 116 48 33 119 51 36 119 51 36 127 59 44 119 51 36 123 55 40 122 54 39 119 51 36 127 59 44 117 49 34 89 21 6 89 21 6
89 21 6 89 21 6 121 53 38 117 49 34 126 58 43 125 57 42 117 49 34 119 51 36 116 48 33 121 53 38 115 47 32 116 48 33 123 55 40 114 46 31 112 44 29 122 54 39 125 57 42 117 49 34 114 46 31 119 51 36 124 56 41 116 48 33 117 49 34 124 56 41 118 50 35 116 48 33 116 48 33 125 57 42 114 46 31 127 59 44 89 21 6 89 21 6 89 21 6 89 21 6 120 52 37 123 55 40 113 45 30 118 50 35 126 58 43 116 48 33 115 47 32 117 49 34 119 51 36 126 58 43 123 55 40 121 53 38 118 50 35 121 53 38 122 54 39 125 57 42 118 50 35 116 48 33 127 59 44 120 52 37 125 57 42 118 50 35 115 47 32 117 49 34 114 46 31 120 52 37 125 57 42 124 56 41 89 21 6 89 21 6 89 21 6 89 21 6 114 46 31 114 46 31 119 51 36 115 47 32 119 51 36 120 52 37 122 54 39 124 56 41 124 56 41 121 53 38 113 45 30 123 55 40 126 58 43 127 59 44 114 46 31 128 60 45 128 60 45 114 46 31 127 59 44 113 45 30 123 55 40 115 47 32 126 58 43 125 57 42 120 52 37 114 46 31 121 53 38 122 54 39 89 21 6 89 21 6 89 21 6 89 21 6 113 45 30 119 51 36 114 46 31 124 56 41 126 58 43 120 52 37 112 44 29 117 49 34 116 48 33 125 57 42 113 45 30 123 55 40 126 58 43 116 48 33 126 58 43 115 47 32 114 46 31 120 52 37 120 52 37 113 45 30 114 46 31 127 59 44 126 58 43 127 59 44 124 56 41 123 55 40 118 50 35 122 54 39 89 21 6 89 21 6
89 21 6 89 21 6 119 51 36 123 55 40 125 57 42 121 53 38 124 56 41 121 53 38 124 56 41 125 57 42 120 52 37 124 56 41 118 50 35 125 57 42 113 45 30 127 59 44 112 44 29 127 59 44 120 52 37 127 59 44 121 53 38 121 53 38 121 53 38 127 59 44 127 59 44 127 59 44 114 46 31 113 45 30 119 51 36 114 46 31 89 21 6 89 21 6 89 21 6 89 21 6 126 58 43 120 52 37 121 53 38 122 54 39 127 59 44 125 57 42 126 58 43 123 55 40 116 48 33 124 56 41 124 56 41 117 49 34 119 51 36 112 44 29 118 50 35 119 51 36 128 60 45 125 57 42 123 55 40 127 59 44 115 47 32 126 58 43 123 55 40 120 52 37 112 44 29 121 53 38 123 55 40 126 58 43 89 21 6 89 21 6 89 21 6 89 21 6 124 56 41 127 59 44 115 47 32 126 58 43 124 56 41 116 48 33 121 53 38 127 59 44 116 48 33 121 53 38 121 53 38 119 51 36 126 58 43 128 60 45 127 59 44 127 59 44 119 51 36 112 44 29 113 45 30 114 46 31 121 53 38 123 55 40 127 59 44 115 47 32 116 48 33 116 48 33 113 45 30 124 56 41 89 21 6 89 21 6 89 21 6 89 21 6 125 57 42 114 46 31 114 46 31 122 54 39 117 49 34 117 49 34 123 55 40 127 59 44 122 54 39 119 51 36 123 55 40 125 57 42 128 60 45 119 51 36 114 46 31 114 46 31 126 58 43 119 51 36 124 56 41 119 51 36 126 58 43 114 46 31 123 55 40 114 46 31 124 56 41 121 53 38 122 54 39 126 58 43 89 21 6 89 21 6
89 21 6 89 21 6 106 38 23 120 52 37 106 38 23 118 50 35 117 49 34 109 41 26 118 50 35 118 50 35 113 45 30 118 50 35 118 50 35 119 51 36 106 38 23 112 44 29 119 51 36 111 43 28 113 45 30 117 49 34 108 40 25 108 40 25 106 38 23 113 45 30 108 40 25 117 49 34 107 39 24 111 43 28 111 43 28 104 36 21 89 21 6 89 21 6 89 21 6 89 21 6 104 36 21 106 38 23 112 44 29 113 45 30 120 52 37 111 43 28 108 40 25 119 51 36 110 42 27 108 40 25 109 41 26 113 45 30 104 36 21 111 43 28 115 47 32 111 43 28 116 48 33 114 46 31 119 51 36 114 46 31 119 51 36 113 45 30 114 46 31 113 45 30 110 42 27 116 48 33 111 43 28 113 45 30 89 21 6 89 21 6 89 21 6 89 21 6 108 40 25 106 38 23 104 36 21 120 52 37 106 38 23 118 50 35 119 51 36 109 41 26 110 42 27 116 48 33 118 50 35 116 48 33 112 44 29 115 47 32 114 46 31 115 47 32 119 51 36 114 46 31 118 50 35 119 51 36 118 50 35 108 40 25 110 42 27 113 45 30 111 43 28 105 37 22 106 38 23 119 51 36 89 21 6 89 21 6 89 21 6 89 21 6 118 50 35 114 46 31 116 48 33 120 52 37 109 41 26 105 37 22 116 48 33 114 46 31 110 42 27 104 36 21 111 43 28 109 41 26 117 49 34 119 51 36 119 51 36 106 38 23 107 39 24 116 48 33 118 50 35 116 48 33 114 46 31 115 47 32 110 42 27 106 38 23 116 48 33 107 39 24 105 37 22 110 42 27 89 21 6 89 21 6
89 21 6 89 21 6 116 48 33 110 42 27 109 41 26 106 38 23 118 50 35 109 41 26 116 48 33 108 40 25 113 45 30 117 49 34 116 48 33 108 40 25 106 38 23 115 47 32 107 39 24 106 38 23 115 47 32 107 39 24 117 49 34 111 43 28 109 41 26 111 43 28 114 46 31 111 43 28 107 39 24 120 52 37 111 43 28 116 48 33 89 21 6 89 21 6 89 21 6 89 21 6 111 43 28 118 50 35 104 36 21 112 44 29 110 42 27 118 50 35 105 37 22 107 39 24 110 42 27 112 44 29 106 38 23 115 47 32 116 48 33 112 44 29 109 41 26 113 45 30 119 51 36 105 37 22 118 50 35 119 51 36 117 49 34 112 44 29 118 50 35 118 50 35 113 45 30 119 51 36 106 38 23 116 48 33 89 21 6 89 21 6 89 21 6 89 21 6 117 49 34 116 48 33 116 48 33 110 42 27 119 51 36 116 48 33 107 39 24 118 50 35 111 43 28 115 47 32 116 48 33 112 44 29 105 37 22 113 45 30 111 43 28 108 40 25 116 48 33 112 44 29 112 44 29 114 46 31 116 48 33 116 48 33 118 50 35 108 40 25 110 42 27 111 43 28 111 43 28 114 46 31 89 21 6 89 21 6 89 21 6 89 21 6 105 37 22 105 37 22 106 38 23 108 40 25 117 49 34 104 36 21 116 48 33 105 37 22 109 41 26 116 48 33 114 46 31 118 50 35 110 42 27 117 49 34 110 42 27 109 41 26 106 38 23 106 38 23 104 36 21 112 44 29 108 40 25 117 49 34 113 45 30 119 51 36 115 47 32 116 48 33 115 47 32 108 40 25 89 21 6 89 21 6
89 21 6 89 21 6 119 51 36 112 44 29 119 51 36 116 48 33 108 40 25 118 50 35 113 45 30 113 45 30 119 51 36 119 51 36 116 48 33 118 50 35 117 49 34 105 37 22 109 41 26 115 47 32 105 37 22 113 45 30 116 48 33 118 50 35 110 42 27 112 44 29 106 38 23 110 42 27 115 47 32 111 43 28 119 51 36 112 44 29 89 21 6 89 21 6 89 21 6 89 21 6 111 43 28 112 44 29 115 47 32 120 52 37 119 51 36 104 36 21 105 37 22 115 47 32 117 49 34 110 42 27 118 50 35 115 47 32 106 38 23 107 39 24 118 50 35 106 38 23 115 47 32 118 50 35 115 47 32 119 51 36 108 40 25 118 50 35 109 41 26 116 48 33 113 45 30 116 48 33 110 42 27 109 41 26 89 21 6 89 21 6 89 21 6 89 21 6 111 43 28 117 49 34 110 42 27 115 47 32 112 44 29 119 51 36 117 49 34 107 39 24 112 44 29 110 42 27 117 49 34 118 50 35 119 51 36 108 40 25 109 41 26 114 46 31 105 37 22 116 48 33 107 39 24 114 46 31 112 44 29 119 51 36 107 39 24 110 42 27 119 51 36 106 38 23 105 37 22 110 42 27 89 21 6 89 21 6 89 21 6 89 21 6 111 43 28 113 45 30 118 50 35 119 51 36 114 46 31 110 42 27 108 40 25 113 45 30 118 50 35 115 47 32 110 42 27 104 36 21 107 39 24 114 46 31 115 47 32 113 45 30 112 44 29 116 48 33 114 46 31 115 47 32 115 47 32 114 46 31 109 41 26 115 47 32 111 43 28 109 41 26 104 36 21 105 37 22 89 21 6 89 21 6
