P3
128 128
255
94 47 15 94 47 15 94 47 15 94 47 15 94 47 15 94 47 15 94 47 15 94 47 15 94 47 15 94 47 15 94 47 15 94 47 15 94 47 15 94 47 15 94 47 15 94 47 15 94 47 15 94 47 15 94 47 15 94 47 15 94 47 15 94 47 15 94 47 15 94 47 15 94 47 15 94 47 15 94 47 15 94 47 15 94 47 15 94 47 15 94 47 15 94 47 15 94 47 15 94 47 15 94 47 15 94 47 15 94 47 15 94 47 15 94 47 15 94 47 15 94 47 15 94 47 15 94 47 15 94 47 15 94 47 15 94 47 15 94 47 15 94 47 15 94 47 15 94 47 15 94 47 15 94 47 15 94 47 15 94 47 15 94 47 15 94 47 15 94 47 15 94 47 15 94 47 15 94 47 15 94 47 15 94 47 15 94 47 15 94 47 15 94 47 15 94 47 15 94 47 15 94 47 15 94 47 15 94 47 15 94 47 15 94 47 15 94 47 15 94 47 15 94 47 15 94 47 15 94 47 15 94 47 15 94 47 15 94 47 15 94 47 15 94 47 15 94 47 15 94 47 15 94 47 15 94 47 15 94 47 15 94 47 15 94 47 15 94 47 15 94 47 15 94 47 15 94 47 15 94 47 15 94 47 15 94 47 15 94 47 15 94 47 15 94 47 15 94 47 15 94 47 15 94 47 15 94 47 15 94 47 15 94 47 15 94 47 15 94 47 15 94 47 15 94 47 15 94 47 15 94 47 15 94 47 15 94 47 15 94 47 15 94 47 15 94 47 15 94 47 15 94 47 15 94 47 15 94 47 15 94 47 15 94 47 15 94 47 15 94 47 15 94 47 15 94 47 15 94 47 15 94 47 15
94 47 15 94 47 15 94 47 15 94 47 15 94 47 15 94 47 15 94 47 15 94 47 15 94 47 15 94 47 15 94 47 15 94 47 15 94 47 15 94 47 15 94 47 15 94 47 15 94 47 15 94 47 15 94 47 15 94 47 15 94 47 15 94 47 15 94 47 15 94 47 15 94 47 15 94 47 15 94 47 15 94 47 15 94 47 15 94 47 15 94 47 15 94 47 15 94 47 15 94 47 15 94 47 15 94 47 15 94 47 15 94 47 15 94 47 15 94 47 15 94 47 15 94 47 15 94 47 15 94 47 15 94 47 15 94 47 15 94 47 15 94 47 15 94 47 15 94 47 15 94 47 15 94 47 15 94 47 15 94 47 15 94 47 15 94 47 15 94 47 15 94 47 15 94 47 15 94 47 15 94 47 15 94 47 15 94 47 15 94 47 15 94 47 15 94 47 15 94 47 15 94 47 15 94 47 15 94 47 15 94 47 15 94 47 15 94 47 15 94 47 15 94 47 15 94 47 15 94 47 15 94 47 15 94 47 15 94 47 15 94 47 15 94 47 15 94 47 15 94 47 15 94 47 15 94 47 15 94 47 15 94 47 15 94 47 15 94 47 15 94 47 15 94 47 15 94 47 15 94 47 15 94 47 15 94 47 15 94 47 15 94 47 15 94 47 15 94 47 15 94 47 15 94 47 15 94 47 15 94 47 15 94 47 15 94 47 15 94 47 15 94 47 15 94 47 15 94 47 15 94 47 15 94 47 15 94 47 15 94 47 15 94 47 15 94 47 15 94 47 15 94 47 15 94 47 15 94 47 15 94 47 15 94 47 15 94 47 15 94 47 15 94 47 15 94 47 15 94 47 15 94 47 15
119 72 40 114 67 35 126 79 47 125 78 46 127 80 48 120 73 41 130 83 51 121 74 42 117 70 38 128 81 49 116 69 37 115 68 36 124 77 45 119 72 40 110 63 31 113 66 34 112 65 33 114 67 35 113 66 34 111 64 32 121 74 42 121 74 42 115 68 36 126 79 47 126 79 47 122 75 43 129 82 50 123 76 44 120 73 41 128 81 49 127 80 48 127 80 48 126 79 47 113 66 34 118 71 39 117 70 38 111 64 32 114 67 35 106 59 27 110 63 31 106 59 27 111 64 32 107 60 28 115 68 36 109 62 30 117 70 38 113 66 34 118 71 39 126 79 47 123 76 44 125 78 46 112 65 33 120 73 41 114 67 35 116 69 37 117 70 38 105 58 26 110 63 31 105 58 26 97 50 18 102 55 23 107 60 28 99 52 20 101 54 22 116 69 37 117 70 38 113 66 34 117 70 38 116 69 37 121 74 42 125 78 46 126 79 47 117 70 38 119 72 40 123 76 44 123 76 44 108 61 29 115 68 36 108 61 29 106 59 27 114 67 35 116 69 37 104 57 25 118 71 39 110 63 31 113 66 34 113 66 34 126 79 47 124 77 45 128 81 49 131 84 52 128 81 49 133 86 54 121 74 42 124 77 45 127 80 48 122 75 43 126 79 47 117 70 38 113 66 34 116 69 37 114 67 35 120 73 41 116 69 37 117 70 38 116 69 37 116 69 37 111 64 32 113 66 34 116 69 37 116 69 37 127 80 48 130 83 51 123 76 44 129 82 50 125 78 46 115 68 36 126 79 47 122 75 43 115 68 36 114 67 35 107 60 28 107 60 28 107 60 28 110 63 31 102 55 23 106 59 27 106 59 27
116 69 37 115 68 36 115 68 36 116 69 37 118 71 39 126 79 47 132 85 53 129 82 50 131 84 52 122 75 43 118 71 39 121 74 42 112 65 33 117 70 38 112 65 33 114 67 35 109 62 30 117 70 38 109 62 30 117 70 38 120 73 41 125 78 46 128 81 49 118 71 39 124 77 45 131 84 52 127 80 48 124 77 45 122 75 43 126 79 47 121 74 42 127 80 48 121 74 42 113 66 34 111 64 32 114 67 35 105 58 26 111 64 32 105 58 26 115 68 36 109 62 30 109 62 30 116 69 37 120 73 41 111 64 32 121 74 42 123 76 44 119 72 40 121 74 42 114 67 35 119 72 40 124 77 45 122 75 43 111 64 32 114 67 35 109 62 30 108 61 29 110 63 31 106 59 27 100 53 21 110 63 31 110 63 31 102 55 23 101 54 22 104 57 25 114 67 35 118 71 39 112 65 33 115 68 36 116 69 37 116 69 37 125 78 46 124 77 45 125 78 46 112 65 33 111 64 32 120 73 41 119 72 40 108 61 29 113 66 34 104 57 25 112 65 33 104 57 25 105 58 26 113 66 34 122 75 43 120 73 41 120 73 41 120 73 41 130 83 51 131 84 52 127 80 48 128 81 49 127 80 48 129 82 50 130 83 51 120 73 41 128 81 49 117 70 38 122 75 43 118 71 39 122 75 43 116 69 37 109 62 30 120 73 41 117 70 38 120 73 41 114 67 35 114 67 35 125 78 46 118 71 39 128 81 49 119 72 40 126 79 47 126 79 47 128 81 49 117 70 38 115 68 36 115 68 36 122 75 43 111 64 32 113 66 34 109 62 30 104 57 25 107 60 28 107 60 28 100 53 21 108 61 29
113 66 34 121 74 42 116 69 37 118 71 39 124 77 45 130 83 51 119 72 40 124 77 45 119 72 40 129 82 50 115 68 36 115 68 36 120 73 41 114 67 35 114 67 35 121 74 42 110 63 31 111 64 32 112 65 33 119 72 40 122 75 43 114 67 35 125 78 46 126 79 47 129 82 50 133 86 54 134 87 55 132 85 53 133 86 54 123 76 44 128 81 49 119 72 40 114 67 35 118 71 39 114 67 35 106 59 27 117 70 38 109 62 30 110 63 31 106 59 27 106 59 27 117 70 38 108 61 29 114 67 35 117 70 38 123 76 44 117 70 38 117 70 38 122 75 43 121 74 42 112 65 33 116 69 37 114 67 35 110 63 31 118 71 39 110 63 31 102 55 23 104 57 25 104 57 25 106 59 27 102 55 23 109 62 30 101 54 22 104 57 25 115 68 36 116 69 37 113 66 34 122 75 43 116 69 37 116 69 37 121 74 42 124 77 45 122 75 43 125 78 46 112 65 33 117 70 38 117 70 38 108 61 29 118 71 39 111 64 32 110 63 31 116 69 37 107 60 28 106 59 27 119 72 40 111 64 32 118 71 39 122 75 43 117 70 38 130 83 51 126 79 47 133 86 54 123 76 44 122 75 43 126 79 47 126 79 47 123 76 44 124 77 45 121 74 42 119 72 40 112 65 33 109 62 30 118 71 39 108 61 29 115 68 36 110 63 31 116 69 37 111 64 32 113 66 34 116 69 37 126 79 47 124 77 45 118 71 39 121 74 42 131 84 52 124 77 45 122 75 43 127 80 48 125 78 46 119 72 40 107 60 28 108 61 29 106 59 27 112 65 33 110 63 31 113 66 34 106 59 27 110 63 31
122 75 43 114 67 35 119 72 40 118 71 39 119 72 40 132 85 53 129 82 50 124 77 45 120 73 41 125 78 46 122 75 43 113 66 34 114 67 35 110 63 31 111 64 32 111 64 32 118 71 39 115 68 36 118 71 39 122 75 43 119 72 40 114 67 35 126 79 47 122 75 43 129 82 50 122 75 43 126 79 47 131 84 52 132 85 53 131 84 52 130 83 51 116 69 37 120 73 41 118 71 39 116 69 37 106 59 27 112 65 33 113 66 34 110 63 31 114 67 35 105 58 26 108 61 29 112 65 33 109 62 30 122 75 43 114 67 35 119 72 40 118 71 39 115 68 36 125 78 46 113 66 34 123 76 44 113 66 34 113 66 34 113 66 34 108 61 29 109 62 30 107 60 28 112 65 33 101 54 22 104 57 25 103 56 24 107 60 28 101 54 22 112 65 33 106 59 27 118 71 39 118 71 39 117 70 38 121 74 42 113 66 34 117 70 38 115 68 36 112 65 33 122 75 43 113 66 34 121 74 42 110 63 31 116 69 37 116 69 37 114 67 35 111 64 32 110 63 31 114 67 35 110 63 31 108 61 29 124 77 45 125 78 46 117 70 38 122 75 43 119 72 40 133 86 54 134 87 55 134 87 55 131 84 52 121 74 42 123 76 44 119 72 40 120 73 41 122 75 43 114 67 35 114 67 35 108 61 29 115 68 36 117 70 38 117 70 38 113 66 34 113 66 34 116 69 37 124 77 45 116 69 37 123 76 44 119 72 40 119 72 40 121 74 42 128 81 49 117 70 38 125 78 46 125 78 46 118 71 39 115 68 36 106 59 27 111 64 32 108 61 29 106 59 27 108 61 29 112 65 33 106 59 27
121 74 42 116 69 37 114 67 35 121 74 42 124 77 45 129 82 50 128 81 49 118 71 39 120 73 41 116 69 37 118 71 39 120 73 41 119 72 40 121 74 42 109 62 30 108 61 29 107 60 28 108 61 29 111 64 32 113 66 34 124 77 45 123 76 44 125 78 46 129 82 50 131 84 52 128 81 49 128 81 49 120 73 41 121 74 42 122 75 43 117 70 38 125 78 46 121 74 42 115 68 36 115 68 36 118 71 39 114 67 35 104 57 25 111 64 32 107 60 28 112 65 33 114 67 35 111 64 32 116 69 37 122 75 43 122 75 43 118 71 39 113 66 34 113 66 34 118 71 39 113 66 34 120 73 41 115 68 36 109 62 30 112 65 33 106 59 27 105 58 26 101 54 22 110 63 31 103 56 24 107 60 28 109 62 30 106 59 27 110 63 31 103 56 24 110 63 31 113 66 34 119 72 40 121 74 42 112 65 33 117 70 38 122 75 43 125 78 46 122 75 43 116 69 37 120 73 41 118 71 39 119 72 40 110 63 31 111 64 32 103 56 24 104 57 25 114 67 35 112 65 33 119 72 40 110 63 31 113 66 34 119 72 40 119 72 40 123 76 44 121 74 42 128 81 49 131 84 52 125 78 46 130 83 51 119 72 40 120 73 41 120 73 41 117 70 38 119 72 40 122 75 43 113 66 34 115 68 36 111 64 32 119 72 40 115 68 36 113 66 34 119 72 40 120 73 41 122 75 43 120 73 41 128 81 49 125 78 46 122 75 43 124 77 45 130 83 51 124 77 45 121 74 42 121 74 42 123 76 44 114 67 35 114 67 35 113 66 34 104 57 25 112 65 33 104 57 25 104 57 25 101 54 22
114 67 35 119 72 40 115 68 36 121 74 42 121 74 42 120 73 41 125 78 46 122 75 43 121 74 42 129 82 50 116 69 37 122 75 43 114 67 35 120 73 41 113 66 34 120 73 41 114 67 35 119 72 40 117 70 38 116 69 37 117 70 38 114 67 35 124 77 45 124 77 45 118 71 39 130 83 51 126 79 47 121 74 42 120 73 41 133 86 54 118 71 39 121 74 42 119 72 40 115 68 36 119 72 40 116 69 37 117 70 38 115 68 36 116 69 37 115 68 36 104 57 25 108 61 29 106 59 27 115 68 36 109 62 30 121 74 42 114 67 35 112 65 33 125 78 46 116 69 37 113 66 34 124 77 45 118 71 39 116 69 37 109 62 30 114 67 35 113 66 34 108 61 29 105 58 26 98 51 19 104 57 25 105 58 26 103 56 24 112 65 33 104 57 25 105 58 26 111 64 32 118 71 39 122 75 43 119 72 40 120 73 41 122 75 43 114 67 35 120 73 41 116 69 37 120 73 41 108 61 29 113 66 34 105 58 26 109 62 30 114 67 35 107 60 28 117 70 38 111 64 32 119 72 40 113 66 34 123 76 44 120 73 41 122 75 43 126 79 47 124 77 45 120 73 41 123 76 44 125 78 46 126 79 47 131 84 52 127 80 48 120 73 41 124 77 45 120 73 41 112 65 33 109 62 30 109 62 30 117 70 38 110 63 31 110 63 31 117 70 38 114 67 35 124 77 45 122 75 43 117 70 38 127 80 48 123 76 44 119 72 40 119 72 40 128 81 49 120 73 41 114 67 35 117 70 38 118 71 39 109 62 30 111 64 32 102 55 23 111 64 32 101 54 22 101 54 22 113 66 34 106 59 27
119 72 40 122 75 43 119 72 40 122 75 43 125 78 46 128 81 49 129 82 50 119 72 40 128 81 49 120 73 41 122 75 43 114 67 35 115 68 36 116 69 37 112 65 33 121 74 42 110 63 31 117 70 38 114 67 35 116 69 37 123 76 44 123 76 44 116 69 37 125 78 46 118 71 39 133 86 54 127 80 48 130 83 51 129 82 50 124 77 45 122 75 43 124 77 45 120 73 41 111 64 32 110 63 31 109 62 30 106 59 27 106 59 27 110 63 31 106 59 27 116 69 37 107 60 28 116 69 37 114 67 35 114 67 35 121 74 42 118 71 39 112 65 33 126 79 47 118 71 39 116 69 37 113 66 34 120 73 41 112 65 33 118 71 39 103 56 24 105 58 26 103 56 24 98 51 19 109 62 30 107 60 28 111 64 32 111 64 32 106 59 27 105 58 26 113 66 34 109 62 30 121 74 42 114 67 35 125 78 46 118 71 39 115 68 36 117 70 38 118 71 39 119 72 40 123 76 44 112 65 33 119 72 40 109 62 30 106 59 27 110 63 31 105 58 26 105 58 26 111 64 32 120 73 41 118 71 39 112 65 33 123 76 44 126 79 47 125 78 46 120 73 41 127 80 48 126 79 47 122 75 43 133 86 54 125 78 46 119 72 40 127 80 48 124 77 45 120 73 41 111 64 32 122 75 43 118 71 39 114 67 35 110 63 31 109 62 30 120 73 41 121 74 42 114 67 35 126 79 47 126 79 47 128 81 49 129 82 50 131 84 52 120 73 41 117 70 38 123 76 44 122 75 43 125 78 46 111 64 32 119 72 40 109 62 30 105 58 26 107 60 28 106 59 27 108 61 29 110 63 31 107 60 28
120 73 41 115 68 36 126 79 47 121 74 42 119 72 40 120 73 41 129 82 50 119 72 40 126 79 47 124 77 45 125 78 46 123 76 44 118 71 39 110 63 31 120 73 41 112 65 33 108 61 29 109 62 30 108 61 29 109 62 30 124 77 45 117 70 38 125 78 46 126 79 47 125 78 46 127 80 48 121 74 42 131 84 52 126 79 47 126 79 47 119 72 40 129 82 50 123 76 44 116 69 37 112 65 33 112 65 33 113 66 34 104 57 25 105 58 26 105 58 26 104 57 25 112 65 33 114 67 35 109 62 30 116 69 37 114 67 35 124 77 45 118 71 39 123 76 44 116 69 37 117 70 38 118 71 39 113 66 34 116 69 37 111 64 32 110 63 31 108 61 29 105 58 26 110 63 31 100 53 21 103 56 24 102 55 23 100 53 21 101 54 22 110 63 31 109 62 30 119 72 40 118 71 39 111 64 32 122 75 43 118 71 39 122 75 43 116 69 37 115 68 36 113 66 34 109 62 30 108 61 29 117 70 38 116 69 37 106 59 27 104 57 25 112 65 33 112 65 33 113 66 34 108 61 29 109 62 30 112 65 33 126 79 47 126 79 47 126 79 47 122 75 43 122 75 43 122 75 43 122 75 43 125 78 46 127 80 48 130 83 51 127 80 48 116 69 37 123 76 44 118 71 39 108 61 29 111 64 32 108 61 29 119 72 40 119 72 40 110 63 31 111 64 32 120 73 41 120 73 41 126 79 47 127 80 48 124 77 45 122 75 43 119 72 40 119 72 40 128 81 49 127 80 48 120 73 41 120 73 41 109 62 30 113 66 34 116 69 37 104 57 25 101 54 22 107 60 28 104 57 25 109 62 30
120 73 41 121 74 42 124 77 45 129 82 50 124 77 45 131 84 52 129 82 50 129 82 50 120 73 41 129 82 50 128 81 49 123 76 44 112 65 33 113 66 34 116 69 37 110 63 31 121 74 42 114 67 35 109 62 30 117 70 38 115 68 36 121 74 42 118 71 39 122 75 43 127 80 48 124 77 45 134 87 55 131 84 52 123 76 44 130 83 51 130 83 51 128 81 49 119 72 40 114 67 35 114 67 35 107 60 28 114 67 35 113 66 34 108 61 29 104 57 25 114 67 35 116 69 37 108 61 29 111 64 32 110 63 31 123 76 44 114 67 35 125 78 46 120 73 41 120 73 41 113 66 34 123 76 44 110 63 31 113 66 34 119 72 40 116 69 37 114 67 35 100 53 21 109 62 30 99 52 20 110 63 31 110 63 31 110 63 31 101 54 22 109 62 30 117 70 38 109 62 30 109 62 30 120 73 41 115 68 36 124 77 45 120 73 41 124 77 45 114 67 35 120 73 41 112 65 33 113 66 34 117 70 38 106 59 27 112 65 33 114 67 35 106 59 27 106 59 27 118 71 39 110 63 31 110 63 31 114 67 35 124 77 45 116 69 37 124 77 45 130 83 51 127 80 48 123 76 44 134 87 55 130 83 51 118 71 39 128 81 49 116 69 37 123 76 44 124 77 45 121 74 42 119 72 40 107 60 28 109 62 30 114 67 35 110 63 31 117 70 38 116 69 37 118 71 39 116 69 37 122 75 43 126 79 47 119 72 40 121 74 42 125 78 46 128 81 49 118 71 39 122 75 43 114 67 35 118 71 39 119 72 40 110 63 31 108 61 29 104 57 25 113 66 34 102 55 23 105 58 26 109 62 30
113 66 34 119 72 40 117 70 38 119 72 40 119 72 40 128 81 49 127 80 48 119 72 40 128 81 49 117 70 38 127 80 48 115 68 36 111 64 32 119 72 40 114 67 35 111 64 32 108 61 29 120 73 41 119 72 40 111 64 32 124 77 45 123 76 44 116 69 37 117 70 38 122 75 43 128 81 49 122 75 43 134 87 55 127 80 48 123 76 44 127 80 48 115 68 36 116 69 37 111 64 32 119 72 40 115 68 36 114 67 35 107 60 28 110 63 31 113 66 34 110 63 31 112 65 33 110 63 31 114 67 35 120 73 41 115 68 36 125 78 46 120 73 41 116 69 37 113 66 34 124 77 45 116 69 37 111 64 32 107 60 28 117 70 38 106 59 27 109 62 30 101 54 22 110 63 31 98 51 19 102 55 23 104 57 25 112 65 33 101 54 22 108 61 29 117 70 38 118 71 39 111 64 32 114 67 35 116 69 37 114 67 35 116 69 37 124 77 45 119 72 40 112 65 33 115 68 36 120 73 41 119 72 40 105 58 26 109 62 30 111 64 32 107 60 28 116 69 37 117 70 38 106 59 27 121 74 42 119 72 40 114 67 35 116 69 37 129 82 50 124 77 45 125 78 46 128 81 49 122 75 43 122 75 43 119 72 40 120 73 41 117 70 38 114 67 35 116 69 37 115 68 36 108 61 29 111 64 32 107 60 28 110 63 31 121 74 42 120 73 41 116 69 37 115 68 36 121 74 42 127 80 48 118 71 39 123 76 44 129 82 50 120 73 41 130 83 51 128 81 49 118 71 39 120 73 41 110 63 31 119 72 40 117 70 38 106 59 27 104 57 25 100 53 21 110 63 31 107 60 28 109 62 30
117 70 38 123 76 44 121 74 42 125 78 46 127 80 48 128 81 49 128 81 49 120 73 41 119 72 40 119 72 40 122 75 43 117 70 38 120 73 41 117 70 38 121 74 42 116 69 37 118 71 39 120 73 41 116 69 37 111 64 32 112 65 33 115 68 36 119 72 40 120 73 41 124 77 45 132 85 53 133 86 54 128 81 49 123 76 44 119 72 40 125 78 46 128 81 49 123 76 44 120 73 41 122 75 43 110 63 31 106 59 27 112 65 33 111 64 32 111 64 32 105 58 26 113 66 34 116 69 37 114 67 35 111 64 32 120 73 41 119 72 40 124 77 45 121 74 42 121 74 42 122 75 43 118 71 39 119 72 40 110 63 31 115 68 36 104 57 25 107 60 28 101 54 22 106 59 27 98 51 19 102 55 23 100 53 21 103 56 24 107 60 28 105 58 26 108 61 29 120 73 41 120 73 41 114 67 35 119 72 40 116 69 37 124 77 45 121 74 42 116 69 37 118 71 39 120 73 41 112 65 33 112 65 33 116 69 37 115 68 36 114 67 35 114 67 35 106 59 27 114 67 35 115 68 36 116 69 37 111 64 32 121 74 42 116 69 37 123 76 44 126 79 47 129 82 50 133 86 54 133 86 54 128 81 49 131 84 52 117 70 38 128 81 49 119 72 40 117 70 38 120 73 41 122 75 43 115 68 36 115 68 36 120 73 41 108 61 29 121 74 42 118 71 39 121 74 42 124 77 45 120 73 41 121 74 42 120 73 41 124 77 45 122 75 43 130 83 51 123 76 44 124 77 45 111 64 32 116 69 37 118 71 39 117 70 38 112 65 33 108 61 29 105 58 26 106 59 27 103 56 24 114 67 35
121 74 42 112 65 33 124 77 45 124 77 45 120 73 41 123 76 44 128 81 49 131 84 52 124 77 45 116 69 37 121 74 42 116 69 37 114 67 35 118 71 39 117 70 38 109 62 30 114 67 35 116 69 37 117 70 38 115 68 36 115 68 36 125 78 46 121 74 42 121 74 42 131 84 52 121 74 42 131 84 52 128 81 49 123 76 44 122 75 43 118 71 39 120 73 41 122 75 43 123 76 44 110 63 31 110 63 31 108 61 29 115 68 36 111 64 32 112 65 33 115 68 36 107 60 28 110 63 31 119 72 40 116 69 37 120 73 41 124 77 45 114 67 35 125 78 46 122 75 43 113 66 34 122 75 43 111 64 32 112 65 33 109 62 30 106 59 27 111 64 32 101 54 22 110 63 31 98 51 19 108 61 29 105 58 26 99 52 20 111 64 32 113 66 34 114 67 35 109 62 30 116 69 37 119 72 40 117 70 38 115 68 36 124 77 45 116 69 37 122 75 43 123 76 44 123 76 44 114 67 35 111 64 32 111 64 32 108 61 29 116 69 37 113 66 34 110 63 31 114 67 35 120 73 41 116 69 37 117 70 38 124 77 45 118 71 39 127 80 48 127 80 48 131 84 52 122 75 43 127 80 48 131 84 52 127 80 48 119 72 40 124 77 45 123 76 44 122 75 43 119 72 40 112 65 33 120 73 41 112 65 33 120 73 41 108 61 29 118 71 39 122 75 43 125 78 46 123 76 44 121 74 42 128 81 49 119 72 40 120 73 41 120 73 41 118 71 39 122 75 43 124 77 45 122 75 43 118 71 39 114 67 35 107 60 28 106 59 27 109 62 30 111 64 32 108 61 29 104 57 25 112 65 33
112 65 33 115 68 36 115 68 36 118 71 39 121 74 42 131 84 52 131 84 52 128 81 49 128 81 49 124 77 45 117 70 38 122 75 43 112 65 33 121 74 42 112 65 33 120 73 41 109 62 30 116 69 37 119 72 40 114 67 35 116 69 37 119 72 40 128 81 49 124 77 45 124 77 45 127 80 48 125 78 46 130 83 51 123 76 44 125 78 46 117 70 38 124 77 45 123 76 44 114 67 35 112 65 33 107 60 28 108 61 29 104 57 25 115 68 36 114 67 35 103 56 24 109 62 30 110 63 31 110 63 31 120 73 41 120 73 41 115 68 36 118 71 39 124 77 45 117 70 38 112 65 33 117 70 38 117 70 38 108 61 29 109 62 30 116 69 37 107 60 28 111 64 32 109 62 30 108 61 29 103 56 24 109 62 30 110 63 31 111 64 32 106 59 27 105 58 26 110 63 31 116 69 37 112 65 33 116 69 37 122 75 43 116 69 37 121 74 42 121 74 42 115 68 36 110 63 31 112 65 33 107 60 28 115 68 36 117 70 38 112 65 33 115 68 36 110 63 31 117 70 38 109 62 30 112 65 33 122 75 43 114 67 35 126 79 47 118 71 39 128 81 49 131 84 52 126 79 47 126 79 47 120 73 41 119 72 40 130 83 51 124 77 45 113 66 34 116 69 37 123 76 44 113 66 34 116 69 37 108 61 29 109 62 30 118 71 39 113 66 34 111 64 32 121 74 42 119 72 40 121 74 42 120 73 41 128 81 49 120 73 41 118 71 39 126 79 47 121 74 42 119 72 40 115 68 36 116 69 37 119 72 40 104 57 25 108 61 29 109 62 30 108 61 29 112 65 33 112 65 33 104 57 25
120 73 41 125 78 46 120 73 41 126 79 47 123 76 44 127 80 48 123 76 44 120 73 41 118 71 39 124 77 45 124 77 45 121 74 42 112 65 33 111 64 32 121 74 42 121 74 42 119 72 40 115 68 36 114 67 35 115 68 36 121 74 42 125 78 46 124 77 45 124 77 45 132 85 53 132 85 53 131 84 52 131 84 52 124 77 45 121 74 42 124 77 45 125 78 46 117 70 38 116 69 37 112 65 33 118 71 39 112 65 33 112 65 33 105 58 26 107 60 28 116 69 37 108 61 29 111 64 32 108 61 29 109 62 30 113 66 34 118 71 39 120 73 41 114 67 35 115 68 36 124 77 45 120 73 41 119 72 40 114 67 35 117 70 38 113 66 34 103 56 24 111 64 32 107 60 28 108 61 29 102 55 23 109 62 30 111 64 32 103 56 24 105 58 26 107 60 28 121 74 42 116 69 37 118 71 39 116 69 37 115 68 36 121 74 42 119 72 40 114 67 35 116 69 37 118 71 39 109 62 30 119 72 40 118 71 39 106 59 27 112 65 33 106 59 27 107 60 28 115 68 36 110 63 31 112 65 33 121 74 42 122 75 43 118 71 39 118 71 39 120 73 41 126 79 47 125 78 46 134 87 55 131 84 52 126 79 47 122 75 43 128 81 49 124 77 45 119 72 40 110 63 31 110 63 31 114 67 35 113 66 34 109 62 30 113 66 34 120 73 41 118 71 39 117 70 38 118 71 39 126 79 47 119 72 40 119 72 40 129 82 50 121 74 42 127 80 48 122 75 43 119 72 40 125 78 46 113 66 34 117 70 38 117 70 38 115 68 36 107 60 28 112 65 33 104 57 25 109 62 30 114 67 35
110 63 31 119 72 40 121 74 42 126 79 47 127 80 48 129 82 50 126 79 47 128 81 49 118 71 39 116 69 37 119 72 40 121 74 42 116 69 37 113 66 34 115 68 36 115 68 36 117 70 38 109 62 30 112 65 33 121 74 42 117 70 38 123 76 44 125 78 46 117 70 38 124 77 45 131 84 52 121 74 42 126 79 47 127 80 48 131 84 52 120 73 41 125 78 46 121 74 42 117 70 38 111 64 32 107 60 28 106 59 27 111 64 32 107 60 28 107 60 28 108 61 29 104 57 25 111 64 32 117 70 38 116 69 37 123 76 44 113 66 34 121 74 42 126 79 47 121 74 42 114 67 35 122 75 43 116 69 37 113 66 34 106 59 27 115 68 36 104 57 25 111 64 32 101 54 22 107 60 28 104 57 25 110 63 31 105 58 26 109 62 30 116 69 37 107 60 28 116 69 37 117 70 38 117 70 38 121 74 42 118 71 39 118 71 39 114 67 35 123 76 44 122 75 43 119 72 40 115 68 36 109 62 30 105 58 26 106 59 27 104 57 25 117 70 38 104 57 25 112 65 33 119 72 40 117 70 38 111 64 32 116 69 37 127 80 48 124 77 45 132 85 53 120 73 41 127 80 48 124 77 45 125 78 46 132 85 53 129 82 50 127 80 48 118 71 39 114 67 35 114 67 35 119 72 40 110 63 31 112 65 33 116 69 37 116 69 37 119 72 40 122 75 43 112 65 33 123 76 44 120 73 41 129 82 50 122 75 43 121 74 42 128 81 49 118 71 39 117 70 38 124 77 45 121 74 42 111 64 32 114 67 35 108 61 29 103 56 24 106 59 27 107 60 28 102 55 23 107 60 28 112 65 33
117 70 38 120 73 41 127 80 48 119 72 40 122 75 43 123 76 44 124 77 45 130 83 51 117 70 38 119 72 40 120 73 41 125 78 46 112 65 33 114 67 35 114 67 35 116 69 37 113 66 34 120 73 41 110 63 31 109 62 30 125 78 46 113 66 34 115 68 36 118 71 39 122 75 43 129 82 50 123 76 44 128 81 49 129 82 50 123 76 44 119 72 40 121 74 42 113 66 34 120 73 41 112 65 33 116 69 37 106 59 27 110 63 31 116 69 37 114 67 35 105 58 26 108 61 29 110 63 31 110 63 31 114 67 35 118 71 39 122 75 43 119 72 40 115 68 36 113 66 34 115 68 36 120 73 41 118 71 39 113 66 34 112 65 33 109 62 30 107 60 28 101 54 22 112 65 33 101 54 22 103 56 24 111 64 32 102 55 23 101 54 22 106 59 27 109 62 30 110 63 31 117 70 38 117 70 38 125 78 46 116 69 37 118 71 39 123 76 44 116 69 37 115 68 36 122 75 43 115 68 36 116 69 37 109 62 30 115 68 36 109 62 30 106 59 27 108 61 29 116 69 37 119 72 40 116 69 37 118 71 39 125 78 46 125 78 46 119 72 40 120 73 41 129 82 50 121 74 42 121 74 42 124 77 45 119 72 40 123 76 44 123 76 44 116 69 37 125 78 46 118 71 39 118 71 39 112 65 33 119 72 40 108 61 29 108 61 29 116 69 37 111 64 32 114 67 35 122 75 43 120 73 41 122 75 43 129 82 50 120 73 41 119 72 40 128 81 49 124 77 45 118 71 39 125 78 46 111 64 32 107 60 28 116 69 37 107 60 28 106 59 27 104 57 25 105 58 26 101 54 22 101 54 22
116 69 37 125 78 46 126 79 47 116 69 37 119 72 40 120 73 41 120 73 41 123 76 44 123 76 44 121 74 42 125 78 46 125 78 46 117 70 38 120 73 41 119 72 40 119 72 40 108 61 29 109 62 30 114 67 35 121 74 42 113 66 34 119 72 40 124 77 45 124 77 45 129 82 50 122 75 43 126 79 47 127 80 48 129 82 50 129 82 50 130 83 51 127 80 48 122 75 43 115 68 36 114 67 35 113 66 34 114 67 35 113 66 34 114 67 35 113 66 34 110 63 31 116 69 37 118 71 39 107 60 28 120 73 41 116 69 37 125 78 46 124 77 45 119 72 40 125 78 46 121 74 42 119 72 40 116 69 37 108 61 29 110 63 31 112 65 33 101 54 22 107 60 28 109 62 30 102 55 23 104 57 25 102 55 23 111 64 32 114 67 35 110 63 31 106 59 27 120 73 41 112 65 33 122 75 43 124 77 45 113 66 34 120 73 41 123 76 44 125 78 46 114 67 35 118 71 39 119 72 40 112 65 33 107 60 28 114 67 35 108 61 29 114 67 35 112 65 33 112 65 33 117 70 38 115 68 36 118 71 39 116 69 37 116 69 37 121 74 42 132 85 53 124 77 45 133 86 54 131 84 52 120 73 41 120 73 41 120 73 41 126 79 47 118 71 39 122 75 43 119 72 40 115 68 36 107 60 28 120 73 41 118 71 39 115 68 36 117 70 38 115 68 36 122 75 43 125 78 46 128 81 49 128 81 49 124 77 45 124 77 45 129 82 50 126 79 47 122 75 43 127 80 48 111 64 32 120 73 41 120 73 41 110 63 31 116 69 37 102 55 23 109 62 30 109 62 30 103 56 24 113 66 34
120 73 41 124 77 45 126 79 47 124 77 45 126 79 47 123 76 44 123 76 44 126 79 47 129 82 50 126 79 47 117 70 38 114 67 35 116 69 37 122 75 43 122 75 43 115 68 36 119 72 40 108 61 29 114 67 35 109 62 30 120 73 41 121 74 42 117 70 38 120 73 41 126 79 47 131 84 52 131 84 52 125 78 46 126 79 47 132 85 53 124 77 45 127 80 48 127 80 48 115 68 36 121 74 42 109 62 30 109 62 30 110 63 31 110 63 31 116 69 37 110 63 31 117 70 38 118 71 39 109 62 30 121 74 42 119 72 40 117 70 38 124 77 45 116 69 37 123 76 44 117 70 38 120 73 41 111 64 32 118 71 39 111 64 32 114 67 35 111 64 32 100 53 21 101 54 22 100 53 21 105 58 26 107 60 28 109 62 30 112 65 33 111 64 32 111 64 32 118 71 39 120 73 41 121 74 42 122 75 43 117 70 38 126 79 47 122 75 43 114 67 35 118 71 39 111 64 32 115 68 36 118 71 39 119 72 40 109 62 30 112 65 33 113 66 34 115 68 36 112 65 33 117 70 38 121 74 42 117 70 38 113 66 34 117 70 38 126 79 47 125 78 46 126 79 47 126 79 47 122 75 43 129 82 50 120 73 41 123 76 44 118 71 39 125 78 46 117 70 38 115 68 36 118 71 39 112 65 33 118 71 39 112 65 33 109 62 30 121 74 42 123 76 44 115 68 36 127 80 48 127 80 48 127 80 48 129 82 50 127 80 48 125 78 46 120 73 41 119 72 40 127 80 48 120 73 41 122 75 43 111 64 32 117 70 38 103 56 24 114 67 35 107 60 28 113 66 34 105 58 26 101 54 22
119 72 40 121 74 42 123 76 44 124 77 45 125 78 46 121 74 42 126 79 47 124 77 45 131 84 52 124 77 45 119 72 40 113 66 34 117 70 38 113 66 34 117 70 38 110 63 31 111 64 32 114 67 35 116 69 37 111 64 32 112 65 33 116 69 37 118 71 39 118 71 39 128 81 49 127 80 48 124 77 45 126 79 47 126 79 47 132 85 53 129 82 50 118 71 39 124 77 45 117 70 38 115 68 36 112 65 33 106 59 27 104 57 25 111 64 32 111 64 32 116 69 37 108 61 29 106 59 27 118 71 39 115 68 36 122 75 43 119 72 40 121 74 42 114 67 35 124 77 45 119 72 40 112 65 33 109 62 30 111 64 32 107 60 28 111 64 32 113 66 34 101 54 22 109 62 30 105 58 26 99 52 20 110 63 31 104 57 25 105 58 26 114 67 35 106 59 27 113 66 34 115 68 36 114 67 35 112 65 33 124 77 45 117 70 38 116 69 37 112 65 33 117 70 38 118 71 39 114 67 35 116 69 37 115 68 36 114 67 35 115 68 36 107 60 28 114 67 35 118 71 39 109 62 30 115 68 36 124 77 45 119 72 40 126 79 47 122 75 43 132 85 53 133 86 54 126 79 47 128 81 49 120 73 41 128 81 49 129 82 50 122 75 43 114 67 35 118 71 39 122 75 43 121 74 42 117 70 38 112 65 33 113 66 34 115 68 36 119 72 40 114 67 35 125 78 46 124 77 45 126 79 47 124 77 45 121 74 42 130 83 51 124 77 45 121 74 42 126 79 47 124 77 45 113 66 34 120 73 41 114 67 35 108 61 29 105 58 26 109 62 30 102 55 23 102 55 23 108 61 29 113 66 34
111 64 32 125 78 46 122 75 43 117 70 38 122 75 43 122 75 43 124 77 45 122 75 43 120 73 41 119 72 40 128 81 49 117 70 38 114 67 35 112 65 33 121 74 42 110 63 31 109 62 30 114 67 35 114 67 35 120 73 41 118 71 39 123 76 44 127 80 48 127 80 48 128 81 49 133 86 54 121 74 42 126 79 47 123 76 44 131 84 52 130 83 51 127 80 48 121 74 42 121 74 42 117 70 38 112 65 33 115 68 36 113 66 34 110 63 31 105 58 26 105 58 26 108 61 29 108 61 29 115 68 36 115 68 36 114 67 35 117 70 38 123 76 44 119 72 40 116 69 37 121 74 42 117 70 38 113 66 34 107 60 28 105 58 26 104 57 25 114 67 35 100 53 21 102 55 23 105 58 26 102 55 23 105 58 26 105 58 26 113 66 34 107 60 28 111 64 32 117 70 38 109 62 30 117 70 38 118 71 39 114 67 35 125 78 46 115 68 36 122 75 43 112 65 33 113 66 34 120 73 41 113 66 34 108 61 29 111 64 32 112 65 33 106 59 27 110 63 31 117 70 38 119 72 40 114 67 35 122 75 43 116 69 37 119 72 40 118 71 39 121 74 42 127 80 48 127 80 48 127 80 48 123 76 44 131 84 52 122 75 43 128 81 49 117 70 38 124 77 45 121 74 42 112 65 33 111 64 32 117 70 38 116 69 37 114 67 35 120 73 41 115 68 36 124 77 45 126 79 47 120 73 41 128 81 49 127 80 48 122 75 43 120 73 41 130 83 51 125 78 46 125 78 46 123 76 44 122 75 43 113 66 34 111 64 32 116 69 37 107 60 28 108 61 29 100 53 21 111 64 32 114 67 35
122 75 43 116 69 37 117 70 38 128 81 49 128 81 49 122 75 43 130 83 51 127 80 48 123 76 44 126 79 47 126 79 47 113 66 34 121 74 42 115 68 36 108 61 29 110 63 31 120 73 41 110 63 31 122 75 43 111 64 32 122 75 43 118 71 39 128 81 49 124 77 45 132 85 53 126 79 47 131 84 52 128 81 49 133 86 54 128 81 49 118 71 39 116 69 37 118 71 39 112 65 33 118 71 39 106 59 27 109 62 30 104 57 25 107 60 28 115 68 36 113 66 34 110 63 31 107 60 28 117 70 38 122 75 43 113 66 34 119 72 40 125 78 46 117 70 38 119 72 40 115 68 36 124 77 45 116 69 37 117 70 38 114 67 35 115 68 36 108 61 29 109 62 30 111 64 32 99 52 20 103 56 24 108 61 29 104 57 25 113 66 34 104 57 25 109 62 30 120 73 41 122 75 43 119 72 40 121 74 42 113 66 34 123 76 44 122 75 43 117 70 38 116 69 37 113 66 34 109 62 30 110 63 31 115 68 36 114 67 35 115 68 36 105 58 26 108 61 29 118 71 39 109 62 30 113 66 34 112 65 33 120 73 41 118 71 39 124 77 45 123 76 44 120 73 41 132 85 53 134 87 55 120 73 41 131 84 52 130 83 51 120 73 41 123 76 44 113 66 34 120 73 41 120 73 41 110 63 31 113 66 34 111 64 32 109 62 30 117 70 38 120 73 41 113 66 34 125 78 46 116 69 37 124 77 45 117 70 38 119 72 40 123 76 44 126 79 47 116 69 37 114 67 35 121 74 42 116 69 37 108 61 29 118 71 39 106 59 27 109 62 30 109 62 30 105 58 26 110 63 31 105 58 26
115 68 36 116 69 37 118 71 39 123 76 44 126 79 47 131 84 52 129 82 50 129 82 50 118 71 39 130 83 51 118 71 39 117 70 38 121 74 42 120 73 41 122 75 43 109 62 30 116 69 37 111 64 32 114 67 35 111 64 32 111 64 32 113 66 34 122 75 43 121 74 42 130 83 51 131 84 52 124 77 45 123 76 44 131 84 52 125 78 46 127 80 48 120 73 41 121 74 42 111 64 32 121 74 42 109 62 30 106 59 27 112 65 33 115 68 36 114 67 35 106 59 27 105 58 26 116 69 37 116 69 37 116 69 37 114 67 35 114 67 35 114 67 35 126 79 47 115 68 36 119 72 40 117 70 38 109 62 30 115 68 36 115 68 36 113 66 34 103 56 24 113 66 34 106 59 27 99 52 20 102 55 23 108 61 29 109 62 30 105 58 26 116 69 37 106 59 27 116 69 37 111 64 32 114 67 35 114 67 35 118 71 39 122 75 43 124 77 45 125 78 46 117 70 38 113 66 34 119 72 40 113 66 34 113 66 34 115 68 36 106 59 27 104 57 25 111 64 32 116 69 37 116 69 37 121 74 42 122 75 43 115 68 36 122 75 43 118 71 39 129 82 50 123 76 44 131 84 52 127 80 48 123 76 44 122 75 43 124 77 45 117 70 38 126 79 47 112 65 33 110 63 31 118 71 39 118 71 39 118 71 39 120 73 41 112 65 33 119 72 40 120 73 41 116 69 37 119 72 40 127 80 48 121 74 42 119 72 40 121 74 42 125 78 46 129 82 50 121 74 42 123 76 44 124 77 45 110 63 31 119 72 40 110 63 31 104 57 25 114 67 35 105 58 26 112 65 33 106 59 27 104 57 25
120 73 41 116 69 37 121 74 42 126 79 47 117 70 38 129 82 50 120 73 41 120 73 41 120 73 41 116 69 37 125 78 46 117 70 38 111 64 32 112 65 33 111 64 32 111 64 32 111 64 32 108 61 29 119 72 40 110 63 31 117 70 38 114 67 35 116 69 37 130 83 51 127 80 48 127 80 48 122 75 43 127 80 48 122 75 43 123 76 44 123 76 44 124 77 45 125 78 46 112 65 33 117 70 38 118 71 39 115 68 36 111 64 32 110 63 31 107 60 28 112 65 33 107 60 28 107 60 28 115 68 36 121 74 42 120 73 41 119 72 40 113 66 34 119 72 40 117 70 38 114 67 35 123 76 44 116 69 37 117 70 38 114 67 35 112 65 33 114 67 35 108 61 29 105 58 26 109 62 30 103 56 24 102 55 23 106 59 27 106 59 27 116 69 37 105 58 26 109 62 30 112 65 33 121 74 42 115 68 36 118 71 39 114 67 35 118 71 39 115 68 36 121 74 42 116 69 37 118 71 39 107 60 28 107 60 28 106 59 27 104 57 25 116 69 37 111 64 32 116 69 37 113 66 34 117 70 38 117 70 38 114 67 35 124 77 45 121 74 42 125 78 46 120 73 41 127 80 48 121 74 42 120 73 41 121 74 42 125 78 46 124 77 45 117 70 38 114 67 35 114 67 35 116 69 37 114 67 35 109 62 30 118 71 39 119 72 40 121 74 42 118 71 39 124 77 45 128 81 49 119 72 40 127 80 48 118 71 39 127 80 48 118 71 39 127 80 48 117 70 38 127 80 48 114 67 35 111 64 32 118 71 39 108 61 29 115 68 36 104 57 25 100 53 21 102 55 23 100 53 21 109 62 30
115 68 36 125 78 46 119 72 40 126 79 47 125 78 46 123 76 44 132 85 53 128 81 49 127 80 48 119 72 40 127 80 48 126 79 47 111 64 32 118 71 39 117 70 38 109 62 30 118 71 39 121 74 42 111 64 32 116 69 37 124 77 45 116 69 37 117 70 38 123 76 44 129 82 50 127 80 48 130 83 51 130 83 51 126 79 47 127 80 48 126 79 47 122 75 43 120 73 41 123 76 44 121 74 42 117 70 38 105 58 26 110 63 31 112 65 33 111 64 32 108 61 29 109 62 30 109 62 30 111 64 32 120 73 41 119 72 40 116 69 37 115 68 36 113 66 34 121 74 42 118 71 39 119 72 40 110 63 31 113 66 34 106 59 27 110 63 31 113 66 34 107 60 28 102 55 23 99 52 20 103 56 24 109 62 30 103 56 24 103 56 24 112 65 33 106 59 27 109 62 30 120 73 41 114 67 35 121 74 42 127 80 48 114 67 35 126 79 47 121 74 42 117 70 38 122 75 43 119 72 40 110 63 31 117 70 38 111 64 32 107 60 28 114 67 35 111 64 32 111 64 32 113 66 34 120 73 41 119 72 40 121 74 42 115 68 36 121 74 42 124 77 45 124 77 45 128 81 49 131 84 52 129 82 50 121 74 42 125 78 46 127 80 48 113 66 34 121 74 42 111 64 32 119 72 40 107 60 28 107 60 28 109 62 30 116 69 37 115 68 36 118 71 39 120 73 41 127 80 48 126 79 47 128 81 49 125 78 46 128 81 49 124 77 45 126 79 47 116 69 37 120 73 41 119 72 40 111 64 32 115 68 36 111 64 32 115 68 36 103 56 24 112 65 33 107 60 28 108 61 29 101 54 22
120 73 41 117 70 38 117 70 38 116 69 37 126 79 47 122 75 43 119 72 40 122 75 43 125 78 46 122 75 43 124 77 45 117 70 38 124 77 45 112 65 33 117 70 38 116 69 37 114 67 35 119 72 40 121 74 42 123 76 44 121 74 42 119 72 40 119 72 40 125 78 46 127 80 48 121 74 42 131 84 52 121 74 42 125 78 46 130 83 51 121 74 42 119 72 40 115 68 36 114 67 35 116 69 37 112 65 33 111 64 32 107 60 28 113 66 34 112 65 33 116 69 37 104 57 25 111 64 32 115 68 36 115 68 36 110 63 31 123 76 44 116 69 37 117 70 38 119 72 40 122 75 43 113 66 34 110 63 31 108 61 29 113 66 34 106 59 27 104 57 25 105 58 26 109 62 30 99 52 20 99 52 20 107 60 28 110 63 31 106 59 27 113 66 34 118 71 39 113 66 34 118 71 39 115 68 36 121 74 42 113 66 34 124 77 45 126 79 47 120 73 41 113 66 34 111 64 32 119 72 40 111 64 32 116 69 37 112 65 33 116 69 37 105 58 26 116 69 37 113 66 34 108 61 29 116 69 37 124 77 45 126 79 47 116 69 37 127 80 48 129 82 50 120 73 41 127 80 48 129 82 50 130 83 51 122 75 43 127 80 48 122 75 43 123 76 44 125 78 46 112 65 33 112 65 33 117 70 38 116 69 37 119 72 40 110 63 31 117 70 38 115 68 36 125 78 46 126 79 47 129 82 50 126 79 47 119 72 40 119 72 40 131 84 52 119 72 40 119 72 40 124 77 45 122 75 43 120 73 41 117 70 38 114 67 35 107 60 28 114 67 35 109 62 30 111 64 32 111 64 32 103 56 24
113 66 34 122 75 43 117 70 38 119 72 40 122 75 43 124 77 45 131 84 52 127 80 48 130 83 51 118 71 39 126 79 47 114 67 35 120 73 41 110 63 31 117 70 38 117 70 38 109 62 30 116 69 37 119 72 40 115 68 36 119 72 40 121 74 42 127 80 48 123 76 44 127 80 48 133 86 54 126 79 47 127 80 48 121 74 42 126 79 47 119 72 40 119 72 40 120 73 41 121 74 42 122 75 43 115 68 36 107 60 28 109 62 30 106 59 27 115 68 36 112 65 33 108 61 29 112 65 33 114 67 35 115 68 36 114 67 35 119 72 40 124 77 45 126 79 47 115 68 36 122 75 43 124 77 45 112 65 33 114 67 35 114 67 35 106 59 27 104 57 25 111 64 32 111 64 32 100 53 21 108 61 29 102 55 23 102 55 23 102 55 23 104 57 25 109 62 30 115 68 36 111 64 32 115 68 36 124 77 45 122 75 43 123 76 44 127 80 48 113 66 34 112 65 33 119 72 40 116 69 37 113 66 34 107 60 28 116 69 37 115 68 36 103 56 24 113 66 34 106 59 27 108 61 29 120 73 41 112 65 33 114 67 35 116 69 37 129 82 50 130 83 51 122 75 43 131 84 52 122 75 43 130 83 51 120 73 41 129 82 50 129 82 50 118 71 39 120 73 41 116 69 37 118 71 39 110 63 31 119 72 40 113 66 34 108 61 29 123 76 44 116 69 37 114 67 35 127 80 48 129 82 50 130 83 51 122 75 43 129 82 50 119 72 40 118 71 39 128 81 49 118 71 39 115 68 36 114 67 35 108 61 29 104 57 25 104 57 25 106 59 27 112 65 33 108 61 29 113 66 34 112 65 33
119 72 40 116 69 37 127 80 48 122 75 43 119 72 40 122 75 43 131 84 52 127 80 48 130 83 51 119 72 40 118 71 39 125 78 46 115 68 36 113 66 34 109 62 30 108 61 29 120 73 41 111 64 32 117 70 38 119 72 40 118 71 39 118 71 39 115 68 36 126 79 47 128 81 49 127 80 48 133 86 54 121 74 42 120 73 41 124 77 45 118 71 39 117 70 38 126 79 47 122 75 43 121 74 42 119 72 40 114 67 35 109 62 30 108 61 29 110 63 31 116 69 37 116 69 37 115 68 36 108 61 29 117 70 38 118 71 39 112 65 33 124 77 45 126 79 47 121 74 42 113 66 34 124 77 45 120 73 41 116 69 37 112 65 33 116 69 37 114 67 35 112 65 33 104 57 25 108 61 29 111 64 32 108 61 29 102 55 23 110 63 31 108 61 29 114 67 35 112 65 33 113 66 34 125 78 46 115 68 36 122 75 43 126 79 47 126 79 47 118 71 39 125 78 46 114 67 35 113 66 34 116 69 37 109 62 30 117 70 38 116 69 37 114 67 35 117 70 38 109 62 30 117 70 38 115 68 36 117 70 38 120 73 41 118 71 39 130 83 51 123 76 44 122 75 43 127 80 48 121 74 42 131 84 52 123 76 44 127 80 48 117 70 38 118 71 39 114 67 35 112 65 33 113 66 34 119 72 40 110 63 31 114 67 35 114 67 35 115 68 36 111 64 32 124 77 45 120 73 41 119 72 40 125 78 46 124 77 45 120 73 41 119 72 40 128 81 49 123 76 44 114 67 35 113 66 34 111 64 32 120 73 41 115 68 36 113 66 34 107 60 28 105 58 26 110 63 31 106 59 27 103 56 24
119 72 40 122 75 43 115 68 36 118 71 39 124 77 45 122 75 43 123 76 44 126 79 47 117 70 38 128 81 49 116 69 37 115 68 36 120 73 41 119 72 40 114 67 35 120 73 41 120 73 41 116 69 37 110 63 31 121 74 42 116 69 37 127 80 48 126 79 47 130 83 51 129 82 50 122 75 43 133 86 54 129 82 50 129 82 50 132 85 53 124 77 45 122 75 43 116 69 37 124 77 45 120 73 41 107 60 28 117 70 38 104 57 25 103 56 24 110 63 31 112 65 33 106 59 27 113 66 34 109 62 30 114 67 35 111 64 32 116 69 37 125 78 46 114 67 35 120 73 41 113 66 34 122 75 43 119 72 40 114 67 35 111 64 32 116 69 37 103 56 24 107 60 28 109 62 30 101 54 22 109 62 30 106 59 27 104 57 25 108 61 29 115 68 36 108 61 29 117 70 38 114 67 35 113 66 34 120 73 41 114 67 35 115 68 36 120 73 41 118 71 39 124 77 45 119 72 40 118 71 39 113 66 34 118 71 39 107 60 28 106 59 27 110 63 31 117 70 38 109 62 30 106 59 27 114 67 35 121 74 42 116 69 37 123 76 44 123 76 44 119 72 40 127 80 48 129 82 50 122 75 43 121 74 42 132 85 53 120 73 41 122 75 43 113 66 34 124 77 45 116 69 37 114 67 35 112 65 33 117 70 38 118 71 39 118 71 39 118 71 39 111 64 32 118 71 39 114 67 35 119 72 40 118 71 39 126 79 47 131 84 52 124 77 45 126 79 47 121 74 42 122 75 43 119 72 40 119 72 40 111 64 32 106 59 27 113 66 34 110 63 31 110 63 31 101 54 22 107 60 28 103 56 24
120 73 41 117 70 38 114 67 35 124 77 45 127 80 48 130 83 51 127 80 48 126 79 47 122 75 43 127 80 48 114 67 35 126 79 47 121 74 42 120 73 41 110 63 31 113 66 34 109 62 30 120 73 41 114 67 35 122 75 43 113 66 34 123 76 44 124 77 45 122 75 43 122 75 43 121 74 42 132 85 53 129 82 50 130 83 51 120 73 41 122 75 43 126 79 47 116 69 37 117 70 38 111 64 32 107 60 28 111 64 32 115 68 36 115 68 36 115 68 36 117 70 38 107 60 28 116 69 37 111 64 32 114 67 35 117 70 38 119 72 40 121 74 42 126 79 47 126 79 47 112 65 33 121 74 42 120 73 41 117 70 38 109 62 30 109 62 30 110 63 31 109 62 30 98 51 19 108 61 29 109 62 30 100 53 21 105 58 26 104 57 25 103 56 24 109 62 30 113 66 34 113 66 34 119 72 40 117 70 38 119 72 40 125 78 46 114 67 35 118 71 39 123 76 44 121 74 42 121 74 42 118 71 39 105 58 26 116 69 37 103 56 24 109 62 30 116 69 37 117 70 38 110 63 31 118 71 39 118 71 39 127 80 48 117 70 38 125 78 46 130 83 51 128 81 49 121 74 42 125 78 46 128 81 49 121 74 42 123 76 44 127 80 48 118 71 39 118 71 39 109 62 30 113 66 34 116 69 37 118 71 39 116 69 37 117 70 38 114 67 35 111 64 32 117 70 38 128 81 49 126 79 47 119 72 40 126 79 47 126 79 47 129 82 50 128 81 49 117 70 38 119 72 40 115 68 36 110 63 31 113 66 34 109 62 30 103 56 24 101 54 22 108 61 29 106 59 27 105 58 26 101 54 22
119 72 40 120 73 41 114 67 35 127 80 48 128 81 49 130 83 51 130 83 51 119 72 40 119 72 40 127 80 48 115 68 36 117 70 38 115 68 36 112 65 33 111 64 32 115 68 36 112 65 33 115 68 36 108 61 29 123 76 44 125 78 46 115 68 36 123 76 44 130 83 51 128 81 49 133 86 54 131 84 52 133 86 54 120 73 41 130 83 51 130 83 51 125 78 46 126 79 47 123 76 44 114 67 35 114 67 35 108 61 29 110 63 31 113 66 34 109 62 30 104 57 25 115 68 36 112 65 33 119 72 40 118 71 39 121 74 42 114 67 35 121 74 42 113 66 34 119 72 40 117 70 38 115 68 36 111 64 32 110 63 31 117 70 38 105 58 26 107 60 28 112 65 33 104 57 25 109 62 30 97 50 18 99 52 20 112 65 33 106 59 27 106 59 27 112 65 33 114 67 35 111 64 32 113 66 34 117 70 38 125 78 46 114 67 35 121 74 42 117 70 38 117 70 38 117 70 38 112 65 33 110 63 31 116 69 37 112 65 33 108 61 29 107 60 28 116 69 37 113 66 34 113 66 34 116 69 37 112 65 33 118 71 39 127 80 48 123 76 44 121 74 42 129 82 50 130 83 51 124 77 45 131 84 52 126 79 47 118 71 39 117 70 38 123 76 44 118 71 39 114 67 35 112 65 33 119 72 40 111 64 32 117 70 38 113 66 34 116 69 37 116 69 37 119 72 40 127 80 48 117 70 38 121 74 42 125 78 46 131 84 52 131 84 52 123 76 44 123 76 44 117 70 38 121 74 42 111 64 32 119 72 40 115 68 36 116 69 37 103 56 24 104 57 25 101 54 22 110 63 31 113 66 34
94 47 15 94 47 15 94 47 15 94 47 15 94 47 15 94 47 15 94 47 15 94 47 15 94 47 15 94 47 15 94 47 15 94 47 15 94 47 15 94 47 15 94 47 15 94 47 15 94 47 15 94 47 15 94 47 15 94 47 15 94 47 15 94 47 15 94 47 15 94 47 15 94 47 15 94 47 15 94 47 15 94 47 15 94 47 15 94 47 15 94 47 15 94 47 15 94 47 15 94 47 15 94 47 15 94 47 15 94 47 15 94 47 15 94 47 15 94 47 15 94 47 15 94 47 15 94 47 15 94 47 15 94 47 15 94 47 15 94 47 15 94 47 15 94 47 15 94 47 15 94 47 15 94 47 15 94 47 15 94 47 15 94 47 15 94 47 15 94 47 15 94 47 15 94 47 15 94 47 15 94 47 15 94 47 15 94 47 15 94 47 15 94 47 15 94 47 15 94 47 15 94 47 15 94 47 15 94 47 15 94 47 15 94 47 15 94 47 15 94 47 15 94 47 15 94 47 15 94 47 15 94 47 15 94 47 15 94 47 15 94 47 15 94 47 15 94 47 15 94 47 15 94 47 15 94 47 15 94 47 15 94 47 15 94 47 15 94 47 15 94 47 15 94 47 15 94 47 15 94 47 15 94 47 15 94 47 15 94 47 15 94 47 15 94 47 15 94 47 15 94 47 15 94 47 15 94 47 15 94 47 15 94 47 15 94 47 15 94 47 15 94 47 15 94 47 15 94 47 15 94 47 15 94 47 15 94 47 15 94 47 15 94 47 15 94 47 15 94 47 15 94 47 15 94 47 15 94 47 15 94 47 15 94 47 15 94 47 15 94 47 15 94 47 15 94 47 15 94 47 15 94 47 15
94 47 15 94 47 15 94 47 15 94 47 15 94 47 15 94 47 15 94 47 15 94 47 15 94 47 15 94 47 15 94 47 15 94 47 15 94 47 15 94 47 15 94 47 15 94 47 15 94 47 15 94 47 15 94 47 15 94 47 15 94 47 15 94 47 15 94 47 15 94 47 15 94 47 15 94 47 15 94 47 15 94 47 15 94 47 15 94 47 15 94 47 15 94 47 15 94 47 15 94 47 15 94 47 15 94 47 15 94 47 15 94 47 15 94 47 15 94 47 15 94 47 15 94 47 15 94 47 15 94 47 15 94 47 15 94 47 15 94 47 15 94 47 15 94 47 15 94 47 15 94 47 15 94 47 15 94 47 15 94 47 15 94 47 15 94 47 15 94 47 15 94 47 15 94 47 15 94 47 15 94 47 15 94 47 15 94 47 15 94 47 15 94 47 15 94 47 15 94 47 15 94 47 15 94 47 15 94 47 15 94 47 15 94 47 15 94 47 15 94 47 15 94 47 15 94 47 15 94 47 15 94 47 15 94 47 15 94 47 15 94 47 15 94 47 15 94 47 15 94 47 15 94 47 15 94 47 15 94 47 15 94 47 15 94 47 15 94 47 15 94 47 15 94 47 15 94 47 15 94 47 15 94 47 15 94 47 15 94 47 15 94 47 15 94 47 15 94 47 15 94 47 15 94 47 15 94 47 15 94 47 15 94 47 15 94 47 15 94 47 15 94 47 15 94 47 15 94 47 15 94 47 15 94 47 15 94 47 15 94 47 15 94 47 15 94 47 15 94 47 15 94 47 15 94 47 15 94 47 15 94 47 15 94 47 15 94 47 15 94 47 15 94 47 15 94 47 15 94 47 15 94 47 15
118 71 39 127 80 48 120 73 41 117 70 38 118 71 39 116 69 37 114 67 35 110 63 31 110 63 31 117 70 38 116 69 37 112 65 33 109 62 30 113 66 34 123 76 44 117 70 38 123 76 44 130 83 51 119 72 40 121 74 42 130 83 51 133 86 54 130 83 51 133 86 54 131 84 52 126 79 47 118 71 39 117 70 38 111 64 32 121 74 42 120 73 41 107 60 28 107 60 28 109 62 30 117 70 38 118 71 39 119 72 40 121 74 42 117 70 38 116 69 37 127 80 48 116 69 37 124 77 45 119 72 40 120 73 41 126 79 47 114 67 35 109 62 30 112 65 33 114 67 35 108 61 29 107 60 28 103 56 24 106 59 27 101 54 22 111 64 32 103 56 24 112 65 33 116 69 37 106 59 27 111 64 32 120 73 41 119 72 40 113 66 34 114 67 35 124 77 45 121 74 42 117 70 38 112 65 33 114 67 35 116 69 37 117 70 38 115 68 36 112 65 33 114 67 35 105 58 26 113 66 34 104 57 25 106 59 27 107 60 28 111 64 32 113 66 34 114 67 35 118 71 39 123 76 44 127 80 48 130 83 51 124 77 45 127 80 48 127 80 48 122 75 43 119 72 40 120 73 41 117 70 38 120 73 41 114 67 35 108 61 29 116 69 37 119 72 40 113 66 34 115 68 36 112 65 33 125 78 46 129 82 50 123 76 44 125 78 46 126 79 47 126 79 47 126 79 47 127 80 48 130 83 51 128 81 49 120 73 41 121 74 42 116 69 37 118 71 39 112 65 33 103 56 24 105 58 26 111 64 32 104 57 25 107 60 28 104 57 25 117 70 38 108 61 29 116 69 37 123 76 44 120 73 41
127 80 48 126 79 47 123 76 44 127 80 48 121 74 42 118 71 39 118 71 39 110 63 31 113 66 34 107 60 28 106 59 27 112 65 33 121 74 42 116 69 37 120 73 41 114 67 35 122 75 43 121 74 42 133 86 54 120 73 41 134 87 55 122 75 43 129 82 50 131 84 52 118 71 39 126 79 47 117 70 38 116 69 37 111 64 32 115 68 36 118 71 39 113 66 34 114 67 35 114 67 35 115 68 36 111 64 32 119 72 40 119 72 40 117 70 38 122 75 43 114 67 35 125 78 46 118 71 39 123 76 44 116 69 37 125 78 46 113 66 34 112 65 33 113 66 34 110 63 31 111 64 32 107 60 28 108 61 29 107 60 28 107 60 28 111 64 32 100 53 21 103 56 24 111 64 32 116 69 37 112 65 33 120 73 41 123 76 44 113 66 34 116 69 37 118 71 39 113 66 34 118 71 39 112 65 33 116 69 37 110 63 31 112 65 33 116 69 37 111 64 32 113 66 34 102 55 23 109 62 30 106 59 27 104 57 25 115 68 36 115 68 36 121 74 42 125 78 46 117 70 38 124 77 45 121 74 42 130 83 51 120 73 41 119 72 40 130 83 51 119 72 40 115 68 36 123 76 44 115 68 36 115 68 36 120 73 41 121 74 42 115 68 36 114 67 35 109 62 30 117 70 38 117 70 38 118 71 39 127 80 48 129 82 50 131 84 52 124 77 45 121 74 42 125 78 46 127 80 48 118 71 39 124 77 45 120 73 41 121 74 42 112 65 33 112 65 33 108 61 29 104 57 25 103 56 24 114 67 35 109 62 30 116 69 37 111 64 32 108 61 29 113 66 34 118 71 39 114 67 35 118 71 39
125 78 46 128 81 49 124 77 45 125 78 46 125 78 46 116 69 37 116 69 37 120 73 41 108 61 29 115 68 36 110 63 31 109 62 30 112 65 33 119 72 40 118 71 39 123 76 44 128 81 49 130 83 51 129 82 50 126 79 47 134 87 55 132 85 53 134 87 55 127 80 48 128 81 49 117 70 38 121 74 42 117 70 38 123 76 44 109 62 30 116 69 37 107 60 28 106 59 27 119 72 40 109 62 30 109 62 30 113 66 34 112 65 33 123 76 44 115 68 36 114 67 35 128 81 49 117 70 38 115 68 36 123 76 44 118 71 39 123 76 44 112 65 33 110 63 31 108 61 29 112 65 33 107 60 28 105 58 26 102 55 23 110 63 31 101 54 22 103 56 24 115 68 36 108 61 29 105 58 26 109 62 30 111 64 32 122 75 43 116 69 37 119 72 40 123 76 44 113 66 34 112 65 33 120 73 41 114 67 35 111 64 32 106 59 27 116 69 37 102 55 23 113 66 34 105 58 26 103 56 24 108 61 29 118 71 39 119 72 40 120 73 41 124 77 45 119 72 40 123 76 44 121 74 42 124 77 45 122 75 43 132 85 53 125 78 46 119 72 40 125 78 46 119 72 40 117 70 38 122 75 43 118 71 39 113 66 34 110 63 31 115 68 36 112 65 33 113 66 34 124 77 45 112 65 33 119 72 40 122 75 43 128 81 49 129 82 50 131 84 52 126 79 47 133 86 54 123 76 44 118 71 39 120 73 41 118 71 39 116 69 37 119 72 40 117 70 38 117 70 38 110 63 31 106 59 27 110 63 31 110 63 31 111 64 32 112 65 33 107 60 28 112 65 33 115 68 36 115 68 36 119 72 40
126 79 47 129 82 50 115 68 36 124 77 45 123 76 44 123 76 44 120 73 41 110 63 31 109 62 30 112 65 33 117 70 38 106 59 27 118 71 39 117 70 38 113 66 34 117 70 38 121 74 42 129 82 50 121 74 42 131 84 52 127 80 48 123 76 44 122 75 43 121 74 42 121 74 42 118 71 39 115 68 36 113 66 34 123 76 44 112 65 33 108 61 29 115 68 36 109 62 30 118 71 39 107 60 28 110 63 31 109 62 30 118 71 39 121 74 42 119 72 40 118 71 39 119 72 40 124 77 45 124 77 45 124 77 45 119 72 40 115 68 36 121 74 42 110 63 31 115 68 36 101 54 22 100 53 21 99 52 20 108 61 29 99 52 20 100 53 21 102 55 23 104 57 25 103 56 24 106 59 27 113 66 34 116 69 37 110 63 31 118 71 39 121 74 42 116 69 37 124 77 45 110 63 31 121 74 42 114 67 35 115 68 36 107 60 28 110 63 31 112 65 33 109 62 30 103 56 24 111 64 32 108 61 29 111 64 32 116 69 37 116 69 37 116 69 37 115 68 36 123 76 44 124 77 45 123 76 44 120 73 41 124 77 45 131 84 52 121 74 42 126 79 47 120 73 41 123 76 44 113 66 34 117 70 38 118 71 39 113 66 34 110 63 31 121 74 42 113 66 34 115 68 36 116 69 37 123 76 44 126 79 47 125 78 46 124 77 45 123 76 44 128 81 49 127 80 48 120 73 41 130 83 51 124 77 45 117 70 38 124 77 45 113 66 34 110 63 31 114 67 35 112 65 33 102 55 23 115 68 36 109 62 30 116 69 37 105 58 26 111 64 32 120 73 41 117 70 38 121 74 42 113 66 34
121 74 42 117 70 38 116 69 37 116 69 37 115 68 36 119 72 40 117 70 38 108 61 29 109 62 30 116 69 37 116 69 37 110 63 31 118 71 39 120 73 41 117 70 38 126 79 47 125 78 46 126 79 47 129 82 50 125 78 46 130 83 51 122 75 43 125 78 46 125 78 46 122 75 43 127 80 48 118 71 39 124 77 45 123 76 44 115 68 36 119 72 40 114 67 35 118 71 39 106 59 27 111 64 32 118 71 39 109 62 30 122 75 43 112 65 33 123 76 44 118 71 39 122 75 43 117 70 38 115 68 36 120 73 41 126 79 47 121 74 42 118 71 39 113 66 34 112 65 33 108 61 29 105 58 26 103 56 24 105 58 26 104 57 25 103 56 24 105 58 26 111 64 32 103 56 24 104 57 25 108 61 29 109 62 30 114 67 35 119 72 40 115 68 36 114 67 35 113 66 34 120 73 41 110 63 31 111 64 32 112 65 33 109 62 30 113 66 34 110 63 31 110 63 31 109 62 30 105 58 26 110 63 31 107 60 28 117 70 38 115 68 36 119 72 40 123 76 44 126 79 47 121 74 42 119 72 40 129 82 50 120 73 41 126 79 47 125 78 46 129 82 50 114 67 35 121 74 42 113 66 34 116 69 37 120 73 41 112 65 33 114 67 35 116 69 37 120 73 41 110 63 31 118 71 39 125 78 46 118 71 39 121 74 42 119 72 40 130 83 51 127 80 48 132 85 53 120 73 41 121 74 42 121 74 42 126 79 47 123 76 44 119 72 40 108 61 29 114 67 35 114 67 35 113 66 34 114 67 35 111 64 32 110 63 31 107 60 28 112 65 33 121 74 42 115 68 36 124 77 45 120 73 41
124 77 45 126 79 47 125 78 46 127 80 48 120 73 41 124 77 45 116 69 37 121 74 42 119 72 40 109 62 30 111 64 32 120 73 41 119 72 40 118 71 39 115 68 36 115 68 36 115 68 36 125 78 46 123 76 44 128 81 49 126 79 47 126 79 47 132 85 53 128 81 49 123 76 44 120 73 41 125 78 46 124 77 45 119 72 40 109 62 30 107 60 28 106 59 27 109 62 30 110 63 31 110 63 31 108 61 29 113 66 34 122 75 43 122 75 43 117 70 38 118 71 39 122 75 43 119 72 40 120 73 41 127 80 48 125 78 46 118 71 39 110 63 31 108 61 29 114 67 35 111 64 32 110 63 31 106 59 27 108 61 29 100 53 21 104 57 25 101 54 22 102 55 23 105 58 26 112 65 33 118 71 39 111 64 32 115 68 36 115 68 36 122 75 43 115 68 36 118 71 39 112 65 33 110 63 31 116 69 37 110 63 31 114 67 35 108 61 29 104 57 25 110 63 31 106 59 27 104 57 25 109 62 30 115 68 36 117 70 38 110 63 31 122 75 43 120 73 41 129 82 50 129 82 50 124 77 45 131 84 52 126 79 47 131 84 52 122 75 43 125 78 46 123 76 44 116 69 37 115 68 36 113 66 34 113 66 34 112 65 33 108 61 29 117 70 38 113 66 34 114 67 35 115 68 36 122 75 43 127 80 48 128 81 49 120 73 41 131 84 52 132 85 53 123 76 44 128 81 49 121 74 42 128 81 49 114 67 35 121 74 42 120 73 41 111 64 32 116 69 37 104 57 25 107 60 28 108 61 29 116 69 37 114 67 35 115 68 36 116 69 37 109 62 30 119 72 40 111 64 32 113 66 34
118 71 39 125 78 46 115 68 36 124 77 45 116 69 37 113 66 34 117 70 38 118 71 39 113 66 34 112 65 33 118 71 39 114 67 35 119 72 40 118 71 39 113 66 34 118 71 39 118 71 39 125 78 46 120 73 41 126 79 47 126 79 47 123 76 44 127 80 48 132 85 53 124 77 45 122 75 43 117 70 38 117 70 38 115 68 36 114 67 35 118 71 39 111 64 32 106 59 27 106 59 27 119 72 40 120 73 41 112 65 33 124 77 45 113 66 34 124 77 45 117 70 38 125 78 46 121 74 42 125 78 46 126 79 47 121 74 42 118 71 39 112 65 33 108 61 29 104 57 25 111 64 32 100 53 21 107 60 28 105 58 26 104 57 25 106 59 27 109 62 30 106 59 27 105 58 26 115 68 36 113 66 34 116 69 37 122 75 43 122 75 43 112 65 33 117 70 38 117 70 38 121 74 42 120 73 41 111 64 32 112 65 33 106 59 27 106 59 27 103 56 24 105 58 26 114 67 35 110 63 31 113 66 34 117 70 38 120 73 41 122 75 43 122 75 43 127 80 48 116 69 37 126 79 47 123 76 44 130 83 51 131 84 52 118 71 39 129 82 50 119 72 40 121 74 42 123 76 44 113 66 34 120 73 41 114 67 35 109 62 30 118 71 39 116 69 37 122 75 43 120 73 41 120 73 41 127 80 48 117 70 38 123 76 44 125 78 46 123 76 44 133 86 54 131 84 52 120 73 41 117 70 38 128 81 49 118 71 39 119 72 40 113 66 34 112 65 33 110 63 31 117 70 38 112 65 33 115 68 36 103 56 24 107 60 28 117 70 38 113 66 34 113 66 34 120 73 41 115 68 36 120 73 41
117 70 38 121 74 42 128 81 49 119 72 40 113 66 34 123 76 44 121 74 42 119 72 40 112 65 33 115 68 36 113 66 34 109 62 30 114 67 35 112 65 33 111 64 32 127 80 48 116 69 37 117 70 38 132 85 53 128 81 49 126 79 47 133 86 54 128 81 49 124 77 45 123 76 44 122 75 43 123 76 44 120 73 41 122 75 43 112 65 33 110 63 31 119 72 40 116 69 37 106 59 27 111 64 32 119 72 40 115 68 36 116 69 37 112 65 33 114 67 35 118 71 39 121 74 42 124 77 45 120 73 41 119 72 40 124 77 45 122 75 43 109 62 30 119 72 40 110 63 31 107 60 28 108 61 29 100 53 21 108 61 29 107 60 28 106 59 27 104 57 25 106 59 27 104 57 25 107 60 28 118 71 39 117 70 38 115 68 36 121 74 42 112 65 33 118 71 39 123 76 44 111 64 32 117 70 38 113 66 34 105 58 26 115 68 36 113 66 34 110 63 31 110 63 31 105 58 26 109 62 30 110 63 31 110 63 31 118 71 39 116 69 37 124 77 45 126 79 47 120 73 41 122 75 43 123 76 44 122 75 43 123 76 44 128 81 49 128 81 49 125 78 46 116 69 37 118 71 39 115 68 36 120 73 41 118 71 39 111 64 32 118 71 39 116 69 37 118 71 39 116 69 37 118 71 39 122 75 43 117 70 38 127 80 48 123 76 44 126 79 47 126 79 47 129 82 50 129 82 50 130 83 51 121 74 42 114 67 35 122 75 43 111 64 32 109 62 30 107 60 28 114 67 35 113 66 34 107 60 28 113 66 34 116 69 37 117 70 38 108 61 29 118 71 39 122 75 43 121 74 42 112 65 33
118 71 39 129 82 50 115 68 36 127 80 48 114 67 35 121 74 42 116 69 37 119 72 40 119 72 40 110 63 31 112 65 33 107 60 28 110 63 31 114 67 35 111 64 32 125 78 46 122 75 43 125 78 46 124 77 45 129 82 50 128 81 49 128 81 49 127 80 48 121 74 42 120 73 41 118 71 39 126 79 47 117 70 38 115 68 36 113 66 34 110 63 31 112 65 33 112 65 33 107 60 28 109 62 30 109 62 30 110 63 31 119 72 40 119 72 40 126 79 47 127 80 48 122 75 43 128 81 49 127 80 48 124 77 45 115 68 36 116 69 37 114 67 35 107 60 28 116 69 37 102 55 23 106 59 27 102 55 23 98 51 19 101 54 22 101 54 22 105 58 26 106 59 27 107 60 28 107 60 28 112 65 33 118 71 39 117 70 38 117 70 38 116 69 37 115 68 36 116 69 37 123 76 44 115 68 36 115 68 36 114 67 35 111 64 32 113 66 34 110 63 31 109 62 30 107 60 28 112 65 33 111 64 32 114 67 35 110 63 31 113 66 34 116 69 37 119 72 40 126 79 47 128 81 49 127 80 48 119 72 40 123 76 44 127 80 48 128 81 49 117 70 38 123 76 44 114 67 35 118 71 39 112 65 33 110 63 31 117 70 38 116 69 37 108 61 29 109 62 30 113 66 34 125 78 46 123 76 44 125 78 46 123 76 44 129 82 50 125 78 46 122 75 43 130 83 51 126 79 47 120 73 41 118 71 39 120 73 41 118 71 39 120 73 41 107 60 28 113 66 34 104 57 25 104 57 25 103 56 24 116 69 37 112 65 33 116 69 37 108 61 29 108 61 29 109 62 30 117 70 38 123 76 44
123 76 44 123 76 44 120 73 41 120 73 41 118 71 39 118 71 39 115 68 36 113 66 34 119 72 40 117 70 38 110 63 31 118 71 39 121 74 42 118 71 39 111 64 32 123 76 44 118 71 39 125 78 46 131 84 52 123 76 44 127 80 48 133 86 54 123 76 44 126 79 47 123 76 44 126 79 47 121 74 42 114 67 35 116 69 37 116 69 37 109 62 30 114 67 35 106 59 27 108 61 29 111 64 32 115 68 36 114 67 35 116 69 37 120 73 41 126 79 47 122 75 43 120 73 41 115 68 36 123 76 44 119 72 40 117 70 38 117 70 38 119 72 40 115 68 36 113 66 34 103 56 24 106 59 27 110 63 31 103 56 24 103 56 24 109 62 30 112 65 33 107 60 28 115 68 36 118 71 39 115 68 36 113 66 34 121 74 42 112 65 33 117 70 38 119 72 40 123 76 44 117 70 38 117 70 38 112 65 33 105 58 26 105 58 26 107 60 28 112 65 33 114 67 35 108 61 29 102 55 23 107 60 28 113 66 34 118 71 39 116 69 37 112 65 33 123 76 44 116 69 37 122 75 43 126 79 47 121 74 42 127 80 48 121 74 42 123 76 44 126 79 47 117 70 38 126 79 47 111 64 32 123 76 44 108 61 29 109 62 30 112 65 33 115 68 36 119 72 40 114 67 35 119 72 40 124 77 45 126 79 47 126 79 47 132 85 53 131 84 52 127 80 48 130 83 51 119 72 40 122 75 43 128 81 49 118 71 39 122 75 43 120 73 41 117 70 38 117 70 38 109 62 30 104 57 25 115 68 36 115 68 36 115 68 36 118 71 39 112 65 33 109 62 30 111 64 32 123 76 44 119 72 40
119 72 40 117 70 38 115 68 36 125 78 46 118 71 39 119 72 40 119 72 40 118 71 39 114 67 35 106 59 27 107 60 28 109 62 30 116 69 37 113 66 34 122 75 43 119 72 40 116 69 37 122 75 43 132 85 53 125 78 46 134 87 55 133 86 54 128 81 49 126 79 47 119 72 40 123 76 44 124 77 45 117 70 38 120 73 41 117 70 38 116 69 37 107 60 28 107 60 28 115 68 36 119 72 40 119 72 40 110 63 31 122 75 43 114 67 35 120 73 41 126 79 47 117 70 38 120 73 41 125 78 46 120 73 41 125 78 46 116 69 37 115 68 36 114 67 35 116 69 37 102 55 23 100 53 21 103 56 24 108 61 29 107 60 28 111 64 32 104 57 25 105 58 26 110 63 31 107 60 28 119 72 40 110 63 31 112 65 33 122 75 43 117 70 38 117 70 38 119 72 40 111 64 32 116 69 37 109 62 30 111 64 32 111 64 32 115 68 36 105 58 26 102 55 23 103 56 24 104 57 25 105 58 26 110 63 31 119 72 40 121 74 42 121 74 42 121 74 42 127 80 48 124 77 45 125 78 46 124 77 45 126 79 47 125 78 46 120 73 41 118 71 39 123 76 44 115 68 36 111 64 32 116 69 37 111 64 32 118 71 39 112 65 33 109 62 30 112 65 33 113 66 34 113 66 34 118 71 39 126 79 47 118 71 39 119 72 40 125 78 46 133 86 54 122 75 43 123 76 44 122 75 43 124 77 45 120 73 41 124 77 45 111 64 32 107 60 28 110 63 31 108 61 29 105 58 26 113 66 34 114 67 35 107 60 28 115 68 36 116 69 37 120 73 41 122 75 43 119 72 40 112 65 33
127 80 48 120 73 41 128 81 49 118 71 39 112 65 33 124 77 45 122 75 43 108 61 29 119 72 40 110 63 31 107 60 28 108 61 29 111 64 32 110 63 31 114 67 35 117 70 38 123 76 44 126 79 47 130 83 51 121 74 42 127 80 48 135 88 56 123 76 44 133 86 54 125 78 46 120 73 41 123 76 44 116 69 37 113 66 34 117 70 38 112 65 33 115 68 36 109 62 30 117 70 38 108 61 29 107 60 28 121 74 42 116 69 37 119 72 40 126 79 47 128 81 49 125 78 46 116 69 37 126 79 47 116 69 37 126 79 47 117 70 38 122 75 43 118 71 39 113 66 34 104 57 25 111 64 32 110 63 31 99 52 20 99 52 20 102 55 23 102 55 23 113 66 34 109 62 30 108 61 29 109 62 30 118 71 39 111 64 32 115 68 36 125 78 46 114 67 35 122 75 43 122 75 43 119 72 40 108 61 29 110 63 31 112 65 33 106 59 27 113 66 34 106 59 27 111 64 32 108 61 29 103 56 24 115 68 36 118 71 39 120 73 41 112 65 33 121 74 42 120 73 41 121 74 42 121 74 42 124 77 45 126 79 47 130 83 51 126 79 47 123 76 44 126 79 47 114 67 35 111 64 32 117 70 38 115 68 36 119 72 40 111 64 32 114 67 35 117 70 38 121 74 42 118 71 39 116 69 37 121 74 42 127 80 48 119 72 40 123 76 44 132 85 53 120 73 41 130 83 51 129 82 50 124 77 45 113 66 34 120 73 41 113 66 34 120 73 41 114 67 35 106 59 27 108 61 29 115 68 36 113 66 34 116 69 37 114 67 35 117 70 38 116 69 37 121 74 42 112 65 33 117 70 38
118 71 39 119 72 40 128 81 49 116 69 37 119 72 40 121 74 42 114 67 35 117 70 38 114 67 35 116 69 37 106 59 27 107 60 28 121 74 42 111 64 32 118 71 39 117 70 38 118 71 39 124 77 45 127 80 48 133 86 54 122 75 43 129 82 50 130 83 51 130 83 51 131 84 52 128 81 49 127 80 48 116 69 37 120 73 41 116 69 37 117 70 38 116 69 37 112 65 33 116 69 37 113 66 34 116 69 37 111 64 32 116 69 37 120 73 41 120 73 41 124 77 45 125 78 46 115 68 36 117 70 38 125 78 46 113 66 34 111 64 32 118 71 39 110 63 31 109 62 30 110 63 31 104 57 25 112 65 33 103 56 24 109 62 30 109 62 30 110 63 31 114 67 35 107 60 28 112 65 33 107 60 28 120 73 41 119 72 40 115 68 36 119 72 40 119 72 40 115 68 36 110 63 31 120 73 41 114 67 35 108 61 29 108 61 29 105 58 26 112 65 33 111 64 32 113 66 34 111 64 32 114 67 35 106 59 27 118 71 39 117 70 38 122 75 43 115 68 36 117 70 38 123 76 44 119 72 40 130 83 51 122 75 43 127 80 48 124 77 45 116 69 37 123 76 44 119 72 40 110 63 31 121 74 42 116 69 37 114 67 35 116 69 37 118 71 39 114 67 35 120 73 41 121 74 42 125 78 46 126 79 47 118 71 39 127 80 48 130 83 51 121 74 42 120 73 41 121 74 42 127 80 48 120 73 41 122 75 43 122 75 43 116 69 37 112 65 33 113 66 34 103 56 24 109 62 30 112 65 33 115 68 36 112 65 33 115 68 36 109 62 30 119 72 40 118 71 39 113 66 34 123 76 44
117 70 38 118 71 39 123 76 44 126 79 47 120 73 41 118 71 39 113 66 34 118 71 39 111 64 32 106 59 27 107 60 28 111 64 32 111 64 32 118 71 39 114 67 35 118 71 39 122 75 43 122 75 43 122 75 43 130 83 51 133 86 54 130 83 51 132 85 53 132 85 53 129 82 50 119 72 40 127 80 48 121 74 42 121 74 42 118 71 39 108 61 29 111 64 32 115 68 36 109 62 30 112 65 33 117 70 38 109 62 30 122 75 43 124 77 45 116 69 37 115 68 36 124 77 45 120 73 41 115 68 36 117 70 38 117 70 38 120 73 41 113 66 34 119 72 40 115 68 36 108 61 29 110 63 31 105 58 26 109 62 30 98 51 19 107 60 28 102 55 23 111 64 32 110 63 31 112 65 33 120 73 41 110 63 31 115 68 36 112 65 33 125 78 46 123 76 44 124 77 45 122 75 43 110 63 31 114 67 35 116 69 37 117 70 38 103 56 24 109 62 30 111 64 32 111 64 32 111 64 32 115 68 36 113 66 34 120 73 41 114 67 35 120 73 41 115 68 36 126 79 47 123 76 44 120 73 41 123 76 44 123 76 44 127 80 48 122 75 43 122 75 43 116 69 37 121 74 42 120 73 41 123 76 44 113 66 34 110 63 31 113 66 34 120 73 41 114 67 35 114 67 35 122 75 43 121 74 42 117 70 38 129 82 50 128 81 49 128 81 49 123 76 44 124 77 45 124 77 45 118 71 39 127 80 48 126 79 47 111 64 32 117 70 38 115 68 36 110 63 31 108 61 29 114 67 35 102 55 23 112 65 33 110 63 31 110 63 31 115 68 36 115 68 36 110 63 31 113 66 34 121 74 42
124 77 45 122 75 43 119 72 40 126 79 47 115 68 36 118 71 39 110 63 31 111 64 32 114 67 35 107 60 28 108 61 29 114 67 35 117 70 38 111 64 32 113 66 34 113 66 34 124 77 45 127 80 48 119 72 40 126 79 47 122 75 43 133 86 54 133 86 54 120 73 41 123 76 44 119 72 40 115 68 36 124 77 45 116 69 37 110 63 31 112 65 33 113 66 34 115 68 36 111 64 32 109 62 30 110 63 31 120 73 41 117 70 38 122 75 43 117 70 38 121 74 42 118 71 39 125 78 46 122 75 43 124 77 45 123 76 44 114 67 35 109 62 30 113 66 34 108 61 29 109 62 30 101 54 22 100 53 21 105 58 26 99 52 20 104 57 25 110 63 31 102 55 23 109 62 30 110 63 31 116 69 37 108 61 29 121 74 42 119 72 40 118 71 39 121 74 42 115 68 36 111 64 32 111 64 32 118 71 39 114 67 35 108 61 29 103 56 24 110 63 31 114 67 35 111 64 32 104 57 25 114 67 35 113 66 34 110 63 31 122 75 43 124 77 45 116 69 37 125 78 46 129 82 50 120 73 41 129 82 50 125 78 46 124 77 45 128 81 49 116 69 37 119 72 40 117 70 38 120 73 41 113 66 34 117 70 38 107 60 28 117 70 38 120 73 41 113 66 34 110 63 31 123 76 44 118 71 39 124 77 45 129 82 50 129 82 50 126 79 47 124 77 45 125 78 46 119 72 40 119 72 40 122 75 43 127 80 48 117 70 38 121 74 42 118 71 39 112 65 33 114 67 35 105 58 26 107 60 28 102 55 23 113 66 34 108 61 29 112 65 33 107 60 28 113 66 34 118 71 39 120 73 41
120 73 41 116 69 37 124 77 45 114 67 35 124 77 45 116 69 37 116 69 37 111 64 32 112 65 33 119 72 40 112 65 33 113 66 34 115 68 36 114 67 35 116 69 37 114 67 35 119 72 40 126 79 47 130 83 51 131 84 52 132 85 53 128 81 49 127 80 48 126 79 47 131 84 52 117 70 38 126 79 47 122 75 43 112 65 33 119 72 40 116 69 37 105 58 26 113 66 34 116 69 37 113 66 34 115 68 36 121 74 42 114 67 35 123 76 44 114 67 35 121 74 42 125 78 46 118 71 39 116 69 37 114 67 35 112 65 33 120 73 41 110 63 31 109 62 30 108 61 29 107 60 28 107 60 28 106 59 27 109 62 30 104 57 25 102 55 23 111 64 32 112 65 33 115 68 36 108 61 29 115 68 36 109 62 30 121 74 42 114 67 35 118 71 39 112 65 33 115 68 36 115 68 36 113 66 34 110 63 31 105 58 26 115 68 36 109 62 30 104 57 25 110 63 31 107 60 28 114 67 35 113 66 34 116 69 37 113 66 34 110 63 31 114 67 35 127 80 48 129 82 50 125 78 46 119 72 40 119 72 40 119 72 40 129 82 50 130 83 51 116 69 37 116 69 37 125 78 46 120 73 41 123 76 44 115 68 36 116 69 37 112 65 33 110 63 31 121 74 42 111 64 32 119 72 40 114 67 35 129 82 50 127 80 48 121 74 42 130 83 51 130 83 51 130 83 51 128 81 49 120 73 41 127 80 48 123 76 44 115 68 36 119 72 40 113 66 34 110 63 31 108 61 29 106 59 27 103 56 24 104 57 25 109 62 30 108 61 29 107 60 28 111 64 32 121 74 42 118 71 39 125 78 46
129 82 50 123 76 44 126 79 47 114 67 35 116 69 37 114 67 35 110 63 31 109 62 30 114 67 35 116 69 37 109 62 30 118 71 39 112 65 33 122 75 43 122 75 43 124 77 45 119 72 40 121 74 42 128 81 49 125 78 46 122 75 43 129 82 50 122 75 43 123 76 44 128 81 49 118 71 39 119 72 40 116 69 37 118 71 39 116 69 37 117 70 38 108 61 29 107 60 28 105 58 26 108 61 29 110 63 31 113 66 34 114 67 35 118 71 39 118 71 39 123 76 44 120 73 41 116 69 37 120 73 41 124 77 45 114 67 35 116 69 37 115 68 36 118 71 39 106 59 27 103 56 24 107 60 28 106 59 27 108 61 29 111 64 32 107 60 28 109 62 30 108 61 29 113 66 34 117 70 38 108 61 29 116 69 37 116 69 37 115 68 36 120 73 41 122 75 43 123 76 44 113 66 34 121 74 42 121 74 42 114 67 35 115 68 36 111 64 32 106 59 27 110 63 31 109 62 30 114 67 35 105 58 26 113 66 34 112 65 33 111 64 32 116 69 37 125 78 46 124 77 45 119 72 40 120 73 41 126 79 47 130 83 51 127 80 48 118 71 39 121 74 42 120 73 41 123 76 44 120 73 41 111 64 32 113 66 34 117 70 38 113 66 34 120 73 41 113 66 34 115 68 36 125 78 46 119 72 40 121 74 42 131 84 52 131 84 52 128 81 49 127 80 48 130 83 51 124 77 45 120 73 41 125 78 46 126 79 47 114 67 35 113 66 34 108 61 29 113 66 34 115 68 36 106 59 27 109 62 30 115 68 36 116 69 37 116 69 37 116 69 37 111 64 32 116 69 37 123 76 44 125 78 46
129 82 50 118 71 39 121 74 42 115 68 36 123 76 44 116 69 37 109 62 30 115 68 36 115 68 36 115 68 36 112 65 33 117 70 38 118 71 39 114 67 35 119 72 40 121 74 42 127 80 48 120 73 41 129 82 50 123 76 44 129 82 50 131 84 52 122 75 43 129 82 50 127 80 48 123 76 44 119 72 40 113 66 34 121 74 42 111 64 32 109 62 30 110 63 31 111 64 32 114 67 35 110 63 31 115 68 36 113 66 34 121 74 42 115 68 36 126 79 47 115 68 36 127 80 48 127 80 48 120 73 41 127 80 48 123 76 44 118 71 39 117 70 38 117 70 38 115 68 36 110 63 31 101 54 22 112 65 33 100 53 21 100 53 21 106 59 27 111 64 32 104 57 25 114 67 35 105 58 26 109 62 30 115 68 36 122 75 43 111 64 32 114 67 35 116 69 37 114 67 35 113 66 34 116 69 37 112 65 33 106 59 27 115 68 36 112 65 33 104 57 25 108 61 29 104 57 25 107 60 28 110 63 31 106 59 27 108 61 29 116 69 37 115 68 36 113 66 34 124 77 45 119 72 40 128 81 49 119 72 40 128 81 49 132 85 53 122 75 43 123 76 44 122 75 43 126 79 47 121 74 42 122 75 43 109 62 30 115 68 36 121 74 42 109 62 30 119 72 40 119 72 40 123 76 44 114 67 35 118 71 39 124 77 45 126 79 47 127 80 48 121 74 42 124 77 45 125 78 46 122 75 43 124 77 45 126 79 47 122 75 43 109 62 30 120 73 41 105 58 26 111 64 32 114 67 35 115 68 36 109 62 30 108 61 29 113 66 34 119 72 40 118 71 39 116 69 37 110 63 31 121 74 42
117 70 38 117 70 38 127 80 48 118 71 39 122 75 43 118 71 39 122 75 43 120 73 41 112 65 33 115 68 36 116 69 37 109 62 30 110 63 31 115 68 36 112 65 33 113 66 34 126 79 47 119 72 40 124 77 45 128 81 49 122 75 43 125 78 46 131 84 52 130 83 51 131 84 52 125 78 46 119 72 40 125 78 46 123 76 44 117 70 38 114 67 35 106 59 27 114 67 35 109 62 30 110 63 31 112 65 33 114 67 35 110 63 31 115 68 36 118 71 39 115 68 36 120 73 41 126 79 47 120 73 41 122 75 43 123 76 44 117 70 38 111 64 32 116 69 37 107 60 28 108 61 29 104 57 25 99 52 20 98 51 19 103 56 24 101 54 22 102 55 23 111 64 32 111 64 32 118 71 39 107 60 28 118 71 39 122 75 43 114 67 35 119 72 40 124 77 45 121 74 42 111 64 32 112 65 33 111 64 32 116 69 37 113 66 34 109 62 30 113 66 34 112 65 33 109 62 30 107 60 28 106 59 27 106 59 27 118 71 39 119 72 40 114 67 35 119 72 40 129 82 50 130 83 51 129 82 50 130 83 51 122 75 43 126 79 47 123 76 44 128 81 49 124 77 45 115 68 36 119 72 40 121 74 42 116 69 37 109 62 30 110 63 31 120 73 41 120 73 41 118 71 39 114 67 35 126 79 47 123 76 44 118 71 39 123 76 44 131 84 52 127 80 48 131 84 52 128 81 49 130 83 51 116 69 37 120 73 41 124 77 45 109 62 30 116 69 37 112 65 33 111 64 32 112 65 33 103 56 24 108 61 29 105 58 26 108 61 29 116 69 37 118 71 39 120 73 41 123 76 44 118 71 39
129 82 50 123 76 44 115 68 36 127 80 48 123 76 44 121 74 42 113 66 34 110 63 31 118 71 39 106 59 27 108 61 29 109 62 30 119 72 40 122 75 43 123 76 44 116 69 37 124 77 45 126 79 47 130 83 51 126 79 47 121 74 42 123 76 44 134 87 55 133 86 54 122 75 43 118 71 39 128 81 49 117 70 38 121 74 42 119 72 40 112 65 33 111 64 32 113 66 34 109 62 30 106 59 27 119 72 40 114 67 35 111 64 32 119 72 40 118 71 39 114 67 35 117 70 38 118 71 39 123 76 44 117 70 38 115 68 36 115 68 36 119 72 40 116 69 37 107 60 28 113 66 34 102 55 23 104 57 25 109 62 30 106 59 27 100 53 21 109 62 30 109 62 30 114 67 35 112 65 33 108 61 29 117 70 38 124 77 45 123 76 44 124 77 45 116 69 37 123 76 44 119 72 40 120 73 41 111 64 32 107 60 28 109 62 30 110 63 31 109 62 30 112 65 33 108 61 29 111 64 32 114 67 35 107 60 28 117 70 38 112 65 33 117 70 38 124 77 45 124 77 45 118 71 39 119 72 40 128 81 49 127 80 48 124 77 45 130 83 51 128 81 49 123 76 44 119 72 40 113 66 34 120 73 41 111 64 32 120 73 41 118 71 39 115 68 36 116 69 37 116 69 37 125 78 46 115 68 36 123 76 44 123 76 44 125 78 46 129 82 50 133 86 54 121 74 42 131 84 52 126 79 47 126 79 47 126 79 47 122 75 43 118 71 39 108 61 29 108 61 29 116 69 37 112 65 33 114 67 35 110 63 31 112 65 33 116 69 37 108 61 29 118 71 39 110 63 31 119 72 40 114 67 35
130 83 51 127 80 48 118 71 39 125 78 46 114 67 35 117 70 38 112 65 33 112 65 33 115 68 36 112 65 33 118 71 39 115 68 36 109 62 30 112 65 33 121 74 42 121 74 42 124 77 45 127 80 48 119 72 40 133 86 54 134 87 55 133 86 54 123 76 44 120 73 41 126 79 47 120 73 41 123 76 44 114 67 35 119 72 40 115 68 36 118 71 39 112 65 33 112 65 33 113 66 34 113 66 34 107 60 28 120 73 41 110 63 31 113 66 34 126 79 47 120 73 41 124 77 45 117 70 38 120 73 41 119 72 40 125 78 46 112 65 33 117 70 38 107 60 28 112 65 33 114 67 35 101 54 22 110 63 31 107 60 28 99 52 20 106 59 27 107 60 28 108 61 29 104 57 25 116 69 37 109 62 30 114 67 35 112 65 33 118 71 39 121 74 42 121 74 42 124 77 45 114 67 35 114 67 35 115 68 36 116 69 37 112 65 33 102 55 23 108 61 29 113 66 34 105 58 26 107 60 28 105 58 26 106 59 27 117 70 38 115 68 36 124 77 45 124 77 45 128 81 49 128 81 49 130 83 51 129 82 50 124 77 45 128 81 49 118 71 39 128 81 49 115 68 36 114 67 35 117 70 38 116 69 37 114 67 35 110 63 31 112 65 33 118 71 39 111 64 32 117 70 38 115 68 36 120 73 41 126 79 47 117 70 38 131 84 52 126 79 47 125 78 46 127 80 48 125 78 46 131 84 52 122 75 43 127 80 48 116 69 37 122 75 43 107 60 28 117 70 38 105 58 26 105 58 26 114 67 35 103 56 24 113 66 34 110 63 31 115 68 36 119 72 40 117 70 38 121 74 42 118 71 39
116 69 37 121 74 42 126 79 47 122 75 43 116 69 37 113 66 34 111 64 32 112 65 33 114 67 35 111 64 32 113 66 34 107 60 28 121 74 42 112 65 33 114 67 35 121 74 42 120 73 41 117 70 38 127 80 48 124 77 45 132 85 53 131 84 52 134 87 55 122 75 43 125 78 46 120 73 41 120 73 41 116 69 37 122 75 43 116 69 37 119 72 40 107 60 28 117 70 38 105 58 26 113 66 34 117 70 38 112 65 33 115 68 36 118 71 39 117 70 38 117 70 38 127 80 48 127 80 48 122 75 43 117 70 38 122 75 43 124 77 45 113 66 34 111 64 32 114 67 35 113 66 34 111 64 32 99 52 20 102 55 23 103 56 24 101 54 22 110 63 31 113 66 34 107 60 28 116 69 37 113 66 34 120 73 41 123 76 44 112 65 33 113 66 34 116 69 37 114 67 35 123 76 44 121 74 42 115 68 36 107 60 28 114 67 35 104 57 25 108 61 29 106 59 27 102 55 23 111 64 32 110 63 31 112 65 33 114 67 35 118 71 39 112 65 33 124 77 45 121 74 42 126 79 47 119 72 40 128 81 49 133 86 54 132 85 53 119 72 40 122 75 43 119 72 40 121 74 42 122 75 43 114 67 35 116 69 37 119 72 40 111 64 32 112 65 33 114 67 35 123 76 44 120 73 41 119 72 40 116 69 37 128 81 49 132 85 53 125 78 46 130 83 51 133 86 54 126 79 47 128 81 49 129 82 50 126 79 47 116 69 37 118 71 39 120 73 41 106 59 27 105 58 26 113 66 34 108 61 29 113 66 34 112 65 33 110 63 31 114 67 35 113 66 34 112 65 33 114 67 35 117 70 38
129 82 50 118 71 39 127 80 48 114 67 35 125 78 46 118 71 39 121 74 42 114 67 35 109 62 30 106 59 27 107 60 28 120 73 41 111 64 32 120 73 41 124 77 45 119 72 40 120 73 41 126 79 47 122 75 43 130 83 51 130 83 51 128 81 49 127 80 48 131 84 52 120 73 41 118 71 39 114 67 35 113 66 34 120 73 41 111 64 32 107 60 28 113 66 34 115 68 36 108 61 29 117 70 38 116 69 37 116 69 37 119 72 40 121 74 42 124 77 45 125 78 46 116 69 37 119 72 40 126 79 47 115 68 36 126 79 47 111 64 32 114 67 35 114 67 35 104 57 25 113 66 34 110 63 31 103 56 24 112 65 33 106 59 27 99 52 20 99 52 20 112 65 33 110 63 31 111 64 32 107 60 28 111 64 32 112 65 33 125 78 46 121 74 42 111 64 32 117 70 38 122 75 43 118 71 39 118 71 39 115 68 36 109 62 30 107 60 28 113 66 34 106 59 27 111 64 32 113 66 34 111 64 32 106 59 27 118 71 39 113 66 34 122 75 43 114 67 35 118 71 39 123 76 44 128 81 49 130 83 51 122 75 43 118 71 39 124 77 45 128 81 49 126 79 47 117 70 38 123 76 44 111 64 32 116 69 37 120 73 41 117 70 38 116 69 37 116 69 37 119 72 40 120 73 41 117 70 38 122 75 43 125 78 46 120 73 41 129 82 50 121 74 42 121 74 42 123 76 44 118 71 39 116 69 37 116 69 37 122 75 43 122 75 43 111 64 32 106 59 27 116 69 37 115 68 36 102 55 23 105 58 26 110 63 31 112 65 33 115 68 36 114 67 35 118 71 39 113 66 34 116 69 37
120 73 41 128 81 49 116 69 37 121 74 42 116 69 37 124 77 45 122 75 43 113 66 34 116 69 37 114 67 35 110 63 31 120 73 41 109 62 30 117 70 38 114 67 35 116 69 37 120 73 41 127 80 48 131 84 52 122 75 43 128 81 49 122 75 43 133 86 54 129 82 50 120 73 41 127 80 48 122 75 43 113 66 34 120 73 41 119 72 40 116 69 37 111 64 32 109 62 30 111 64 32 112 65 33 117 70 38 122 75 43 122 75 43 123 76 44 115 68 36 115 68 36 121 74 42 129 82 50 127 80 48 122 75 43 123 76 44 117 70 38 121 74 42 108 61 29 106 59 27 115 68 36 102 55 23 100 53 21 106 59 27 101 54 22 101 54 22 102 55 23 109 62 30 113 66 34 111 64 32 115 68 36 114 67 35 114 67 35 116 69 37 117 70 38 119 72 40 123 76 44 116 69 37 122 75 43 117 70 38 112 65 33 106 59 27 112 65 33 110 63 31 114 67 35 107 60 28 110 63 31 103 56 24 117 70 38 118 71 39 116 69 37 119 72 40 126 79 47 128 81 49 128 81 49 123 76 44 119 72 40 123 76 44 122 75 43 124 77 45 127 80 48 115 68 36 118 71 39 122 75 43 113 66 34 115 68 36 111 64 32 110 63 31 117 70 38 111 64 32 112 65 33 117 70 38 123 76 44 126 79 47 121 74 42 122 75 43 123 76 44 130 83 51 120 73 41 125 78 46 130 83 51 118 71 39 117 70 38 114 67 35 121 74 42 113 66 34 116 69 37 106 59 27 114 67 35 106 59 27 115 68 36 108 61 29 105 58 26 112 65 33 117 70 38 119 72 40 123 76 44 121 74 42
124 77 45 116 69 37 116 69 37 124 77 45 123 76 44 113 66 34 111 64 32 108 61 29 120 73 41 109 62 30 114 67 35 111 64 32 121 74 42 121 74 42 117 70 38 124 77 45 118 71 39 122 75 43 128 81 49 121 74 42 124 77 45 132 85 53 124 77 45 133 86 54 126 79 47 129 82 50 127 80 48 121 74 42 121 74 42 119 72 40 107 60 28 114 67 35 108 61 29 111 64 32 108 61 29 118 71 39 116 69 37 118 71 39 123 76 44 127 80 48 125 78 46 127 80 48 126 79 47 120 73 41 126 79 47 123 76 44 124 77 45 116 69 37 116 69 37 109 62 30 106 59 27 109 62 30 107 60 28 108 61 29 106 59 27 109 62 30 105 58 26 109 62 30 106 59 27 117 70 38 113 66 34 122 75 43 116 69 37 119 72 40 112 65 33 116 69 37 120 73 41 116 69 37 120 73 41 119 72 40 116 69 37 116 69 37 104 57 25 102 55 23 108 61 29 113 66 34 114 67 35 111 64 32 116 69 37 113 66 34 114 67 35 114 67 35 126 79 47 117 70 38 129 82 50 129 82 50 126 79 47 125 78 46 120 73 41 131 84 52 128 81 49 127 80 48 113 66 34 122 75 43 110 63 31 111 64 32 117 70 38 115 68 36 108 61 29 120 73 41 115 68 36 117 70 38 120 73 41 123 76 44 129 82 50 125 78 46 131 84 52 123 76 44 130 83 51 124 77 45 129 82 50 125 78 46 125 78 46 124 77 45 121 74 42 120 73 41 113 66 34 104 57 25 104 57 25 102 55 23 107 60 28 115 68 36 112 65 33 119 72 40 118 71 39 112 65 33 114 67 35 123 76 44
123 76 44 125 78 46 117 70 38 118 71 39 113 66 34 112 65 33 115 68 36 112 65 33 117 70 38 116 69 37 107 60 28 114 67 35 111 64 32 114 67 35 117 70 38 119 72 40 124 77 45 123 76 44 127 80 48 122 75 43 121 74 42 125 78 46 134 87 55 121 74 42 128 81 49 116 69 37 119 72 40 121 74 42 120 73 41 113 66 34 117 70 38 114 67 35 105 58 26 111 64 32 114 67 35 117 70 38 113 66 34 122 75 43 124 77 45 119 72 40 123 76 44 122 75 43 116 69 37 116 69 37 123 76 44 125 78 46 122 75 43 115 68 36 106 59 27 106 59 27 111 64 32 108 61 29 100 53 21 99 52 20 110 63 31 101 54 22 106 59 27 110 63 31 112 65 33 108 61 29 119 72 40 115 68 36 119 72 40 114 67 35 120 73 41 114 67 35 114 67 35 115 68 36 111 64 32 119 72 40 110 63 31 114 67 35 110 63 31 112 65 33 103 56 24 103 56 24 111 64 32 112 65 33 110 63 31 109 62 30 116 69 37 123 76 44 123 76 44 126 79 47 128 81 49 123 76 44 121 74 42 132 85 53 129 82 50 130 83 51 128 81 49 121 74 42 113 66 34 121 74 42 114 67 35 119 72 40 112 65 33 119 72 40 115 68 36 110 63 31 119 72 40 122 75 43 115 68 36 118 71 39 119 72 40 130 83 51 122 75 43 132 85 53 123 76 44 125 78 46 122 75 43 116 69 37 116 69 37 116 69 37 122 75 43 110 63 31 110 63 31 107 60 28 113 66 34 103 56 24 110 63 31 116 69 37 112 65 33 114 67 35 116 69 37 109 62 30 111 64 32 116 69 37
124 77 45 121 74 42 115 68 36 127 80 48 112 65 33 124 77 45 120 73 41 120 73 41 109 62 30 107 60 28 110 63 31 119 72 40 120 73 41 121 74 42 121 74 42 124 77 45 121 74 42 122 75 43 121 74 42 127 80 48 133 86 54 127 80 48 131 84 52 122 75 43 118 71 39 129 82 50 127 80 48 118 71 39 123 76 44 116 69 37 112 65 33 107 60 28 107 60 28 117 70 38 112 65 33 114 67 35 118 71 39 112 65 33 116 69 37 127 80 48 115 68 36 123 76 44 125 78 46 117 70 38 125 78 46 125 78 46 121 74 42 114 67 35 106 59 27 114 67 35 111 64 32 109 62 30 106 59 27 108 61 29 105 58 26 99 52 20 110 63 31 111 64 32 105 58 26 113 66 34 118 71 39 112 65 33 123 76 44 113 66 34 116 69 37 117 70 38 115 68 36 116 69 37 118 71 39 118 71 39 113 66 34 111 64 32 106 59 27 107 60 28 106 59 27 102 55 23 110 63 31 111 64 32 111 64 32 114 67 35 115 68 36 122 75 43 123 76 44 118 71 39 119 72 40 123 76 44 130 83 51 121 74 42 122 75 43 118 71 39 122 75 43 118 71 39 115 68 36 119 72 40 120 73 41 108 61 29 112 65 33 112 65 33 116 69 37 115 68 36 119 72 40 114 67 35 124 77 45 117 70 38 126 79 47 122 75 43 131 84 52 124 77 45 130 83 51 132 85 53 119 72 40 120 73 41 123 76 44 111 64 32 122 75 43 107 60 28 115 68 36 111 64 32 106 59 27 113 66 34 104 57 25 104 57 25 107 60 28 110 63 31 118 71 39 109 62 30 111 64 32 117 70 38
126 79 47 117 70 38 118 71 39 120 73 41 123 76 44 111 64 32 121 74 42 109 62 30 114 67 35 118 71 39 112 65 33 120 73 41 119 72 40 110 63 31 116 69 37 125 78 46 120 73 41 124 77 45 127 80 48 126 79 47 128 81 49 129 82 50 123 76 44 130 83 51 129 82 50 117 70 38 116 69 37 120 73 41 111 64 32 108 61 29 117 70 38 105 58 26 115 68 36 112 65 33 114 67 35 111 64 32 120 73 41 120 73 41 113 66 34 122 75 43 125 78 46 127 80 48 123 76 44 127 80 48 119 72 40 117 70 38 114 67 35 121 74 42 110 63 31 106 59 27 112 65 33 106 59 27 106 59 27 108 61 29 104 57 25 106 59 27 107 60 28 102 55 23 116 69 37 109 62 30 119 72 40 117 70 38 121 74 42 113 66 34 115 68 36 115 68 36 112 65 33 112 65 33 112 65 33 116 69 37 109 62 30 104 57 25 116 69 37 102 55 23 112 65 33 109 62 30 114 67 35 113 66 34 111 64 32 114 67 35 120 73 41 116 69 37 125 78 46 118 71 39 131 84 52 128 81 49 131 84 52 120 73 41 132 85 53 127 80 48 116 69 37 121 74 42 126 79 47 122 75 43 114 67 35 111 64 32 118 71 39 108 61 29 116 69 37 117 70 38 121 74 42 113 66 34 122 75 43 123 76 44 119 72 40 131 84 52 124 77 45 130 83 51 121 74 42 129 82 50 123 76 44 116 69 37 126 79 47 116 69 37 122 75 43 110 63 31 110 63 31 116 69 37 113 66 34 104 57 25 103 56 24 113 66 34 104 57 25 113 66 34 108 61 29 122 75 43 117 70 38 118 71 39
122 75 43 128 81 49 120 73 41 123 76 44 122 75 43 113 66 34 110 63 31 120 73 41 107 60 28 108 61 29 110 63 31 119 72 40 118 71 39 113 66 34 122 75 43 120 73 41 121 74 42 124 77 45 120 73 41 129 82 50 132 85 53 130 83 51 133 86 54 129 82 50 131 84 52 118 71 39 127 80 48 119 72 40 110 63 31 114 67 35 118 71 39 109 62 30 110 63 31 117 70 38 112 65 33 113 66 34 122 75 43 112 65 33 119 72 40 119 72 40 119 72 40 116 69 37 118 71 39 118 71 39 119 72 40 116 69 37 123 76 44 122 75 43 115 68 36 116 69 37 110 63 31 104 57 25 106 59 27 108 61 29 103 56 24 100 53 21 106 59 27 103 56 24 113 66 34 111 64 32 114 67 35 116 69 37 121 74 42 112 65 33 117 70 38 114 67 35 111 64 32 119 72 40 109 62 30 118 71 39 112 65 33 107 60 28 105 58 26 103 56 24 109 62 30 105 58 26 105 58 26 115 68 36 118 71 39 109 62 30 116 69 37 119 72 40 117 70 38 124 77 45 120 73 41 119 72 40 129 82 50 126 79 47 129 82 50 125 78 46 119 72 40 127 80 48 121 74 42 113 66 34 111 64 32 108 61 29 116 69 37 110 63 31 116 69 37 113 66 34 113 66 34 114 67 35 125 78 46 125 78 46 119 72 40 132 85 53 120 73 41 133 86 54 130 83 51 129 82 50 127 80 48 127 80 48 118 71 39 117 70 38 115 68 36 110 63 31 108 61 29 111 64 32 116 69 37 114 67 35 112 65 33 113 66 34 104 57 25 111 64 32 108 61 29 118 71 39 124 77 45 120 73 41
122 75 43 119 72 40 123 76 44 126 79 47 126 79 47 113 66 34 116 69 37 117 70 38 111 64 32 111 64 32 110 63 31 109 62 30 111 64 32 112 65 33 124 77 45 126 79 47 126 79 47 117 70 38 124 77 45 125 78 46 133 86 54 134 87 55 134 87 55 124 77 45 129 82 50 121 74 42 119 72 40 114 67 35 117 70 38 115 68 36 108 61 29 107 60 28 114 67 35 106 59 27 107 60 28 112 65 33 108 61 29 118 71 39 119 72 40 119 72 40 127 80 48 117 70 38 124 77 45 118 71 39 126 79 47 118 71 39 122 75 43 116 69 37 106 59 27 109 62 30 107 60 28 105 58 26 110 63 31 100 53 21 98 51 19 104 57 25 111 64 32 107 60 28 107 60 28 117 70 38 111 64 32 115 68 36 113 66 34 111 64 32 117 70 38 112 65 33 113 66 34 123 76 44 109 62 30 109 62 30 118 71 39 117 70 38 107 60 28 103 56 24 109 62 30 106 59 27 113 66 34 107 60 28 107 60 28 109 62 30 117 70 38 116 69 37 125 78 46 129 82 50 119 72 40 130 83 51 121 74 42 129 82 50 125 78 46 122 75 43 119 72 40 125 78 46 124 77 45 118 71 39 121 74 42 120 73 41 115 68 36 114 67 35 119 72 40 110 63 31 114 67 35 116 69 37 125 78 46 124 77 45 123 76 44 126 79 47 124 77 45 121 74 42 129 82 50 129 82 50 121 74 42 118 71 39 125 78 46 114 67 35 122 75 43 118 71 39 109 62 30 108 61 29 114 67 35 108 61 29 115 68 36 109 62 30 116 69 37 119 72 40 109 62 30 116 69 37 117 70 38 120 73 41
94 47 15 94 47 15 94 47 15 94 47 15 94 47 15 94 47 15 94 47 15 94 47 15 94 47 15 94 47 15 94 47 15 94 47 15 94 47 15 94 47 15 94 47 15 94 47 15 94 47 15 94 47 15 94 47 15 94 47 15 94 47 15 94 47 15 94 47 15 94 47 15 94 47 15 94 47 15 94 47 15 94 47 15 94 47 15 94 47 15 94 47 15 94 47 15 94 47 15 94 47 15 94 47 15 94 47 15 94 47 15 94 47 15 94 47 15 94 47 15 94 47 15 94 47 15 94 47 15 94 47 15 94 47 15 94 47 15 94 47 15 94 47 15 94 47 15 94 47 15 94 47 15 94 47 15 94 47 15 94 47 15 94 47 15 94 47 15 94 47 15 94 47 15 94 47 15 94 47 15 94 47 15 94 47 15 94 47 15 94 47 15 94 47 15 94 47 15 94 47 15 94 47 15 94 47 15 94 47 15 94 47 15 94 47 15 94 47 15 94 47 15 94 47 15 94 47 15 94 47 15 94 47 15 94 47 15 94 47 15 94 47 15 94 47 15 94 47 15 94 47 15 94 47 15 94 47 15 94 47 15 94 47 15 94 47 15 94 47 15 94 47 15 94 47 15 94 47 15 94 47 15 94 47 15 94 47 15 94 47 15 94 47 15 94 47 15 94 47 15 94 47 15 94 47 15 94 47 15 94 47 15 94 47 15 94 47 15 94 47 15 94 47 15 94 47 15 94 47 15 94 47 15 94 47 15 94 47 15 94 47 15 94 47 15 94 47 15 94 47 15 94 47 15 94 47 15 94 47 15 94 47 15 94 47 15 94 47 15 94 47 15 94 47 15 94 47 15 94 47 15 94 47 15
94 47 15 94 47 15 94 47 15 94 47 15 94 47 15 94 47 15 94 47 15 94 47 15 94 47 15 94 47 15 94 47 15 94 47 15 94 47 15 94 47 15 94 47 15 94 47 15 94 47 15 94 47 15 94 47 15 94 47 15 94 47 15 94 47 15 94 47 15 94 47 15 94 47 15 94 47 15 94 47 15 94 47 15 94 47 15 94 47 15 94 47 15 94 47 15 94 47 15 94 47 15 94 47 15 94 47 15 94 47 15 94 47 15 94 47 15 94 47 15 94 47 15 94 47 15 94 47 15 94 47 15 94 47 15 94 47 15 94 47 15 94 47 15 94 47 15 94 47 15 94 47 15 94 47 15 94 47 15 94 47 15 94 47 15 94 47 15 94 47 15 94 47 15 94 47 15 94 47 15 94 47 15 94 47 15 94 47 15 94 47 15 94 47 15 94 47 15 94 47 15 94 47 15 94 47 15 94 47 15 94 47 15 94 47 15 94 47 15 94 47 15 94 47 15 94 47 15 94 47 15 94 47 15 94 47 15 94 47 15 94 47 15 94 47 15 94 47 15 94 47 15 94 47 15 94 47 15 94 47 15 94 47 15 94 47 15 94 47 15 94 47 15 94 47 15 94 47 15 94 47 15 94 47 15 94 47 15 94 47 15 94 47 15 94 47 15 94 47 15 94 47 15 94 47 15 94 47 15 94 47 15 94 47 15 94 47 15 94 47 15 94 47 15 94 47 15 94 47 15 94 47 15 94 47 15 94 47 15 94 47 15 94 47 15 94 47 15 94 47 15 94 47 15 94 47 15 94 47 15 94 47 15 94 47 15 94 47 15 94 47 15 94 47 15 94 47 15 94 47 15 94 47 15
107 60 28 116 69 37 105 58 26 111 64 32 117 70 38 108 61 29 113 66 34 118 71 39 114 67 35 115 68 36 115 68 36 121 74 42 129 82 50 132 85 53 132 85 53 126 79 47 134 87 55 130 83 51 120 73 41 130 83 51 120 73 41 116 69 37 123 76 44 121 74 42 115 68 36 117 70 38 108 61 29 112 65 33 115 68 36 113 66 34 117 70 38 115 68 36 120 73 41 121 74 42 121 74 42 119 72 40 117 70 38 126 79 47 128 81 49 118 71 39 124 77 45 120 73 41 121 74 42 112 65 33 106 59 27 107 60 28 100 53 21 109 62 30 109 62 30 112 65 33 112 65 33 106 59 27 111 64 32 110 63 31 109 62 30 118 71 39 117 70 38 121 74 42 124 77 45 119 72 40 122 75 43 119 72 40 108 61 29 113 66 34 110 63 31 105 58 26 113 66 34 110 63 31 108 61 29 112 65 33 101 54 22 112 65 33 109 62 30 111 64 32 117 70 38 122 75 43 117 70 38 127 80 48 116 69 37 126 79 47 126 79 47 128 81 49 123 76 44 127 80 48 122 75 43 118 71 39 112 65 33 110 63 31 117 70 38 118 71 39 107 60 28 119 72 40 118 71 39 115 68 36 120 73 41 125 78 46 126 79 47 121 74 42 131 84 52 122 75 43 133 86 54 124 77 45 124 77 45 132 85 53 126 79 47 124 77 45 127 80 48 124 77 45 123 76 44 115 68 36 119 72 40 117 70 38 110 63 31 110 63 31 115 68 36 116 69 37 121 74 42 118 71 39 113 66 34 119 72 40 114 67 35 125 78 46 120 73 41 118 71 39 123 76 44 114 67 35 119 72 40 117 70 38
111 64 32 109 62 30 113 66 34 117 70 38 110 63 31 107 60 28 111 64 32 115 68 36 115 68 36 123 76 44 118 71 39 130 83 51 123 76 44 128 81 49 130 83 51 125 78 46 134 87 55 132 85 53 123 76 44 122 75 43 114 67 35 125 78 46 123 76 44 110 63 31 120 73 41 109 62 30 115 68 36 110 63 31 121 74 42 121 74 42 120 73 41 120 73 41 125 78 46 125 78 46 127 80 48 120 73 41 121 74 42 117 70 38 120 73 41 115 68 36 122 75 43 117 70 38 118 71 39 109 62 30 103 56 24 105 58 26 101 54 22 105 58 26 111 64 32 105 58 26 105 58 26 104 57 25 116 69 37 116 69 37 111 64 32 119 72 40 112 65 33 115 68 36 117 70 38 118 71 39 123 76 44 112 65 33 112 65 33 115 68 36 110 63 31 107 60 28 100 53 21 109 62 30 110 63 31 100 53 21 112 65 33 102 55 23 115 68 36 115 68 36 107 60 28 111 64 32 112 65 33 127 80 48 118 71 39 117 70 38 126 79 47 130 83 51 123 76 44 115 68 36 127 80 48 124 77 45 121 74 42 114 67 35 108 61 29 112 65 33 109 62 30 118 71 39 109 62 30 114 67 35 118 71 39 122 75 43 123 76 44 124 77 45 126 79 47 133 86 54 124 77 45 129 82 50 127 80 48 131 84 52 125 78 46 117 70 38 120 73 41 121 74 42 114 67 35 114 67 35 113 66 34 112 65 33 107 60 28 106 59 27 105 58 26 110 63 31 118 71 39 113 66 34 118 71 39 114 67 35 116 69 37 126 79 47 120 73 41 115 68 36 115 68 36 119 72 40 122 75 43 122 75 43
111 64 32 117 70 38 117 70 38 108 61 29 111 64 32 107 60 28 114 67 35 113 66 34 112 65 33 125 78 46 122 75 43 129 82 50 120 73 41 131 84 52 127 80 48 126 79 47 125 78 46 130 83 51 128 81 49 118 71 39 124 77 45 125 78 46 113 66 34 119 72 40 113 66 34 118 71 39 115 68 36 112 65 33 119 72 40 116 69 37 124 77 45 122 75 43 119 72 40 128 81 49 124 77 45 125 78 46 125 78 46 121 74 42 120 73 41 122 75 43 123 76 44 123 76 44 120 73 41 117 70 38 114 67 35 109 62 30 107 60 28 106 59 27 101 54 22 105 58 26 105 58 26 103 56 24 112 65 33 117 70 38 121 74 42 112 65 33 118 71 39 116 69 37 116 69 37 119 72 40 114 67 35 113 66 34 115 68 36 112 65 33 111 64 32 109 62 30 111 64 32 102 55 23 100 53 21 108 61 29 105 58 26 104 57 25 115 68 36 118 71 39 116 69 37 115 68 36 112 65 33 122 75 43 126 79 47 124 77 45 122 75 43 123 76 44 125 78 46 126 79 47 115 68 36 118 71 39 121 74 42 113 66 34 114 67 35 111 64 32 120 73 41 107 60 28 112 65 33 121 74 42 112 65 33 113 66 34 121 74 42 124 77 45 125 78 46 124 77 45 134 87 55 122 75 43 131 84 52 121 74 42 127 80 48 118 71 39 127 80 48 115 68 36 117 70 38 118 71 39 114 67 35 118 71 39 116 69 37 110 63 31 114 67 35 113 66 34 120 73 41 114 67 35 115 68 36 114 67 35 126 79 47 126 79 47 121 74 42 116 69 37 126 79 47 120 73 41 111 64 32 112 65 33
116 69 37 111 64 32 115 68 36 114 67 35 107 60 28 112 65 33 113 66 34 116 69 37 114 67 35 118 71 39 127 80 48 125 78 46 123 76 44 122 75 43 124 77 45 132 85 53 134 87 55 122 75 43 127 80 48 124 77 45 118 71 39 125 78 46 116 69 37 119 72 40 114 67 35 118 71 39 108 61 29 119 72 40 117 70 38 115 68 36 124 77 45 116 69 37 123 76 44 123 76 44 119 72 40 128 81 49 124 77 45 118 71 39 126 79 47 124 77 45 125 78 46 113 66 34 108 61 29 108 61 29 117 70 38 105 58 26 102 55 23 105 58 26 108 61 29 105 58 26 110 63 31 107 60 28 118 71 39 117 70 38 114 67 35 116 69 37 116 69 37 121 74 42 119 72 40 123 76 44 112 65 33 116 69 37 111 64 32 111 64 32 114 67 35 110 63 31 108 61 29 112 65 33 104 57 25 101 54 22 106 59 27 101 54 22 115 68 36 110 63 31 117 70 38 118 71 39 116 69 37 123 76 44 124 77 45 126 79 47 121 74 42 121 74 42 116 69 37 125 78 46 120 73 41 117 70 38 111 64 32 113 66 34 111 64 32 119 72 40 119 72 40 111 64 32 115 68 36 113 66 34 110 63 31 120 73 41 118 71 39 117 70 38 131 84 52 125 78 46 123 76 44 130 83 51 131 84 52 127 80 48 121 74 42 123 76 44 119 72 40 119 72 40 120 73 41 112 65 33 111 64 32 107 60 28 109 62 30 105 58 26 106 59 27 115 68 36 115 68 36 121 74 42 115 68 36 114 67 35 126 79 47 123 76 44 118 71 39 116 69 37 117 70 38 119 72 40 124 77 45 120 73 41
113 66 34 112 65 33 107 60 28 107 60 28 104 57 25 117 70 38 114 67 35 109 62 30 115 68 36 115 68 36 123 76 44 123 76 44 119 72 40 132 85 53 122 75 43 134 87 55 132 85 53 122 75 43 131 84 52 130 83 51 125 78 46 125 78 46 112 65 33 121 74 42 118 71 39 114 67 35 116 69 37 108 61 29 108 61 29 117 70 38 122 75 43 116 69 37 123 76 44 118 71 39 130 83 51 127 80 48 127 80 48 127 80 48 130 83 51 126 79 47 120 73 41 115 68 36 121 74 42 112 65 33 104 57 25 109 62 30 112 65 33 110 63 31 105 58 26 113 66 34 114 67 35 115 68 36 108 61 29 112 65 33 109 62 30 111 64 32 113 66 34 120 73 41 121 74 42 114 67 35 112 65 33 117 70 38 117 70 38 115 68 36 114 67 35 110 63 31 108 61 29 103 56 24 103 56 24 106 59 27 104 57 25 104 57 25 109 62 30 107 60 28 120 73 41 120 73 41 112 65 33 123 76 44 118 71 39 128 81 49 125 78 46 123 76 44 124 77 45 118 71 39 126 79 47 112 65 33 124 77 45 120 73 41 116 69 37 109 62 30 108 61 29 113 66 34 109 62 30 122 75 43 120 73 41 112 65 33 119 72 40 129 82 50 119 72 40 122 75 43 128 81 49 121 74 42 123 76 44 126 79 47 120 73 41 123 76 44 118 71 39 123 76 44 117 70 38 115 68 36 117 70 38 118 71 39 113 66 34 106 59 27 106 59 27 117 70 38 111 64 32 109 62 30 116 69 37 116 69 37 117 70 38 118 71 39 123 76 44 127 80 48 117 70 38 121 74 42 120 73 41 118 71 39
119 72 40 107 60 28 105 58 26 105 58 26 109 62 30 108 61 29 115 68 36 108 61 29 114 67 35 113 66 34 114 67 35 123 76 44 121 74 42 124 77 45 132 85 53 130 83 51 129 82 50 126 79 47 121 74 42 122 75 43 124 77 45 118 71 39 119 72 40 116 69 37 108 61 29 120 73 41 120 73 41 119 72 40 113 66 34 109 62 30 111 64 32 116 69 37 126 79 47 123 76 44 118 71 39 118 71 39 118 71 39 127 80 48 128 81 49 117 70 38 123 76 44 118 71 39 109 62 30 115 68 36 112 65 33 115 68 36 109 62 30 109 62 30 111 64 32 101 54 22 101 54 22 113 66 34 115 68 36 115 68 36 107 60 28 119 72 40 115 68 36 117 70 38 122 75 43 124 77 45 114 67 35 122 75 43 113 66 34 115 68 36 113 66 34 107 60 28 114 67 35 104 57 25 103 56 24 108 61 29 111 64 32 113 66 34 115 68 36 115 68 36 120 73 41 116 69 37 123 76 44 126 79 47 122 75 43 124 77 45 120 73 41 130 83 51 130 83 51 123 76 44 114 67 35 115 68 36 112 65 33 112 65 33 119 72 40 116 69 37 119 72 40 113 66 34 120 73 41 113 66 34 119 72 40 123 76 44 115 68 36 122 75 43 130 83 51 128 81 49 124 77 45 127 80 48 124 77 45 122 75 43 121 74 42 126 79 47 121 74 42 119 72 40 124 77 45 113 66 34 109 62 30 117 70 38 113 66 34 112 65 33 116 69 37 110 63 31 118 71 39 113 66 34 122 75 43 115 68 36 121 74 42 126 79 47 119 72 40 125 78 46 118 71 39 125 78 46 122 75 43 118 71 39
114 67 35 106 59 27 105 58 26 116 69 37 107 60 28 110 63 31 110 63 31 109 62 30 114 67 35 124 77 45 115 68 36 127 80 48 126 79 47 125 78 46 128 81 49 130 83 51 133 86 54 130 83 51 128 81 49 124 77 45 128 81 49 122 75 43 116 69 37 118 71 39 119 72 40 116 69 37 117 70 38 111 64 32 119 72 40 115 68 36 119 72 40 119 72 40 125 78 46 124 77 45 120 73 41 118 71 39 126 79 47 126 79 47 118 71 39 116 69 37 120 73 41 116 69 37 118 71 39 113 66 34 108 61 29 108 61 29 105 58 26 109 62 30 110 63 31 112 65 33 101 54 22 112 65 33 105 58 26 118 71 39 117 70 38 122 75 43 122 75 43 111 64 32 113 66 34 118 71 39 118 71 39 117 70 38 114 67 35 111 64 32 107 60 28 109 62 30 107 60 28 100 53 21 111 64 32 101 54 22 101 54 22 110 63 31 115 68 36 118 71 39 120 73 41 112 65 33 114 67 35 121 74 42 124 77 45 123 76 44 118 71 39 125 78 46 128 81 49 128 81 49 124 77 45 122 75 43 117 70 38 116 69 37 121 74 42 118 71 39 117 70 38 114 67 35 109 62 30 116 69 37 112 65 33 124 77 45 118 71 39 125 78 46 129 82 50 122 75 43 128 81 49 130 83 51 128 81 49 121 74 42 126 79 47 128 81 49 122 75 43 126 79 47 114 67 35 111 64 32 117 70 38 116 69 37 113 66 34 116 69 37 115 68 36 111 64 32 111 64 32 119 72 40 114 67 35 115 68 36 125 78 46 116 69 37 122 75 43 117 70 38 116 69 37 120 73 41 117 70 38 119 72 40
114 67 35 116 69 37 109 62 30 107 60 28 104 57 25 115 68 36 112 65 33 109 62 30 110 63 31 115 68 36 115 68 36 123 76 44 123 76 44 131 84 52 131 84 52 127 80 48 124 77 45 120 73 41 126 79 47 122 75 43 126 79 47 120 73 41 118 71 39 111 64 32 116 69 37 117 70 38 110 63 31 120 73 41 108 61 29 118 71 39 124 77 45 120 73 41 128 81 49 122 75 43 120 73 41 122 75 43 121 74 42 127 80 48 129 82 50 123 76 44 121 74 42 111 64 32 110 63 31 105 58 26 108 61 29 111 64 32 103 56 24 111 64 32 104 57 25 106 59 27 104 57 25 104 57 25 110 63 31 111 64 32 115 68 36 119 72 40 117 70 38 115 68 36 118 71 39 122 75 43 112 65 33 116 69 37 108 61 29 119 72 40 116 69 37 104 57 25 105 58 26 108 61 29 107 60 28 100 53 21 106 59 27 112 65 33 116 69 37 112 65 33 118 71 39 121 74 42 121 74 42 123 76 44 122 75 43 124 77 45 120 73 41 118 71 39 119 72 40 124 77 45 127 80 48 122 75 43 111 64 32 122 75 43 110 63 31 108 61 29 109 62 30 117 70 38 112 65 33 111 64 32 111 64 32 114 67 35 114 67 35 121 74 42 129 82 50 123 76 44 134 87 55 127 80 48 128 81 49 133 86 54 121 74 42 124 77 45 125 78 46 117 70 38 122 75 43 108 61 29 119 72 40 115 68 36 118 71 39 108 61 29 109 62 30 109 62 30 120 73 41 110 63 31 123 76 44 118 71 39 115 68 36 118 71 39 121 74 42 116 69 37 124 77 45 114 67 35 111 64 32 114 67 35
109 62 30 115 68 36 116 69 37 113 66 34 117 70 38 110 63 31 109 62 30 110 63 31 117 70 38 122 75 43 127 80 48 124 77 45 122 75 43 132 85 53 128 81 49 128 81 49 120 73 41 127 80 48 125 78 46 116 69 37 122 75 43 113 66 34 111 64 32 118 71 39 111 64 32 114 67 35 117 70 38 121 74 42 120 73 41 122 75 43 113 66 34 115 68 36 114 67 35 127 80 48 118 71 39 124 77 45 125 78 46 119 72 40 122 75 43 118 71 39 117 70 38 122 75 43 119 72 40 113 66 34 112 65 33 108 61 29 101 54 22 102 55 23 110 63 31 101 54 22 105 58 26 107 60 28 104 57 25 112 65 33 115 68 36 113 66 34 122 75 43 120 73 41 111 64 32 123 76 44 111 64 32 116 69 37 111 64 32 117 70 38 116 69 37 106 59 27 110 63 31 112 65 33 107 60 28 107 60 28 102 55 23 104 57 25 106 59 27 108 61 29 111 64 32 119 72 40 119 72 40 122 75 43 127 80 48 126 79 47 127 80 48 121 74 42 128 81 49 119 72 40 124 77 45 118 71 39 120 73 41 118 71 39 119 72 40 107 60 28 109 62 30 120 73 41 116 69 37 112 65 33 123 76 44 116 69 37 121 74 42 128 81 49 122 75 43 125 78 46 124 77 45 127 80 48 130 83 51 131 84 52 120 73 41 121 74 42 128 81 49 114 67 35 122 75 43 117 70 38 117 70 38 107 60 28 111 64 32 104 57 25 114 67 35 108 61 29 119 72 40 109 62 30 121 74 42 113 66 34 114 67 35 121 74 42 128 81 49 116 69 37 127 80 48 118 71 39 123 76 44 115 68 36
112 65 33 108 61 29 106 59 27 110 63 31 110 63 31 109 62 30 116 69 37 113 66 34 115 68 36 119 72 40 124 77 45 117 70 38 121 74 42 132 85 53 122 75 43 123 76 44 122 75 43 129 82 50 125 78 46 128 81 49 126 79 47 121 74 42 120 73 41 115 68 36 120 73 41 117 70 38 113 66 34 118 71 39 120 73 41 109 62 30 114 67 35 115 68 36 121 74 42 126 79 47 117 70 38 128 81 49 122 75 43 118 71 39 121 74 42 125 78 46 116 69 37 118 71 39 119 72 40 105 58 26 116 69 37 112 65 33 108 61 29 104 57 25 110 63 31 112 65 33 109 62 30 111 64 32 117 70 38 110 63 31 116 69 37 122 75 43 113 66 34 117 70 38 118 71 39 112 65 33 119 72 40 110 63 31 108 61 29 117 70 38 103 56 24 103 56 24 101 54 22 102 55 23 107 60 28 103 56 24 111 64 32 105 58 26 111 64 32 109 62 30 112 65 33 116 69 37 122 75 43 119 72 40 128 81 49 120 73 41 117 70 38 125 78 46 118 71 39 124 77 45 119 72 40 125 78 46 115 68 36 110 63 31 119 72 40 120 73 41 113 66 34 109 62 30 118 71 39 121 74 42 113 66 34 116 69 37 119 72 40 121 74 42 122 75 43 132 85 53 128 81 49 124 77 45 124 77 45 126 79 47 127 80 48 129 82 50 117 70 38 125 78 46 115 68 36 118 71 39 117 70 38 115 68 36 113 66 34 118 71 39 113 66 34 119 72 40 109 62 30 111 64 32 119 72 40 121 74 42 121 74 42 120 73 41 115 68 36 119 72 40 126 79 47 116 69 37 121 74 42 110 63 31
114 67 35 109 62 30 116 69 37 113 66 34 107 60 28 109 62 30 107 60 28 111 64 32 121 74 42 114 67 35 123 76 44 124 77 45 119 72 40 129 82 50 125 78 46 129 82 50 127 80 48 132 85 53 129 82 50 120 73 41 121 74 42 118 71 39 111 64 32 115 68 36 119 72 40 107 60 28 112 65 33 113 66 34 108 61 29 112 65 33 120 73 41 122 75 43 122 75 43 125 78 46 123 76 44 130 83 51 119 72 40 126 79 47 128 81 49 126 79 47 123 76 44 117 70 38 112 65 33 119 72 40 111 64 32 104 57 25 109 62 30 105 58 26 111 64 32 100 53 21 110 63 31 107 60 28 116 69 37 113 66 34 116 69 37 121 74 42 118 71 39 113 66 34 122 75 43 116 69 37 124 77 45 112 65 33 119 72 40 106 59 27 108 61 29 108 61 29 105 58 26 109 62 30 109 62 30 101 54 22 102 55 23 102 55 23 115 68 36 118 71 39 108 61 29 116 69 37 119 72 40 120 73 41 115 68 36 117 70 38 124 77 45 119 72 40 123 76 44 119 72 40 121 74 42 121 74 42 116 69 37 109 62 30 110 63 31 111 64 32 113 66 34 118 71 39 119 72 40 116 69 37 114 67 35 122 75 43 127 80 48 117 70 38 131 84 52 129 82 50 134 87 55 132 85 53 131 84 52 125 78 46 121 74 42 120 73 41 122 75 43 121 74 42 119 72 40 111 64 32 117 70 38 118 71 39 115 68 36 118 71 39 111 64 32 117 70 38 107 60 28 115 68 36 115 68 36 119 72 40 115 68 36 114 67 35 122 75 43 119 72 40 124 77 45 125 78 46 117 70 38 113 66 34
115 68 36 106 59 27 117 70 38 114 67 35 112 65 33 108 61 29 114 67 35 109 62 30 113 66 34 123 76 44 123 76 44 122 75 43 128 81 49 120 73 41 134 87 55 132 85 53 132 85 53 127 80 48 122 75 43 119 72 40 125 78 46 124 77 45 122 75 43 113 66 34 113 66 34 113 66 34 120 73 41 119 72 40 113 66 34 120 73 41 119 72 40 121 74 42 125 78 46 127 80 48 126 79 47 130 83 51 123 76 44 128 81 49 130 83 51 123 76 44 114 67 35 120 73 41 116 69 37 107 60 28 105 58 26 106 59 27 101 54 22 103 56 24 107 60 28 102 55 23 112 65 33 116 69 37 115 68 36 107 60 28 121 74 42 122 75 43 123 76 44 121 74 42 123 76 44 118 71 39 117 70 38 109 62 30 114 67 35 114 67 35 110 63 31 107 60 28 107 60 28 112 65 33 111 64 32 111 64 32 102 55 23 104 57 25 107 60 28 113 66 34 120 73 41 122 75 43 115 68 36 125 78 46 115 68 36 121 74 42 130 83 51 121 74 42 128 81 49 119 72 40 116 69 37 115 68 36 112 65 33 119 72 40 121 74 42 115 68 36 113 66 34 119 72 40 115 68 36 120 73 41 117 70 38 121 74 42 128 81 49 119 72 40 125 78 46 132 85 53 128 81 49 124 77 45 129 82 50 124 77 45 127 80 48 127 80 48 115 68 36 122 75 43 123 76 44 112 65 33 107 60 28 107 60 28 111 64 32 110 63 31 108 61 29 115 68 36 111 64 32 118 71 39 115 68 36 113 66 34 120 73 41 119 72 40 118 71 39 118 71 39 126 79 47 116 69 37 121 74 42 119 72 40
118 71 39 118 71 39 116 69 37 106 59 27 114 67 35 117 70 38 113 66 34 113 66 34 118 71 39 122 75 43 124 77 45 128 81 49 121 74 42 120 73 41 126 79 47 122 75 43 132 85 53 126 79 47 125 78 46 126 79 47 123 76 44 113 66 34 112 65 33 116 69 37 117 70 38 118 71 39 115 68 36 114 67 35 109 62 30 121 74 42 115 68 36 117 70 38 119 72 40 118 71 39 120 73 41 117 70 38 130 83 51 127 80 48 121 74 42 121 74 42 122 75 43 121 74 42 120 73 41 109 62 30 113 66 34 107 60 28 112 65 33 100 53 21 102 55 23 107 60 28 109 62 30 114 67 35 117 70 38 112 65 33 109 62 30 114 67 35 121 74 42 120 73 41 112 65 33 114 67 35 114 67 35 114 67 35 115 68 36 114 67 35 115 68 36 115 68 36 100 53 21 103 56 24 99 52 20 101 54 22 108 61 29 112 65 33 113 66 34 114 67 35 109 62 30 119 72 40 121 74 42 114 67 35 123 76 44 123 76 44 130 83 51 129 82 50 117 70 38 123 76 44 122 75 43 125 78 46 111 64 32 113 66 34 120 73 41 112 65 33 115 68 36 119 72 40 121 74 42 112 65 33 122 75 43 119 72 40 120 73 41 124 77 45 132 85 53 122 75 43 133 86 54 132 85 53 123 76 44 125 78 46 124 77 45 129 82 50 128 81 49 114 67 35 123 76 44 113 66 34 118 71 39 110 63 31 115 68 36 107 60 28 108 61 29 115 68 36 108 61 29 121 74 42 112 65 33 121 74 42 127 80 48 115 68 36 120 73 41 114 67 35 121 74 42 120 73 41 121 74 42 120 73 41
109 62 30 113 66 34 108 61 29 110 63 31 106 59 27 112 65 33 117 70 38 115 68 36 113 66 34 122 75 43 119 72 40 119 72 40 123 76 44 128 81 49 126 79 47 130 83 51 131 84 52 131 84 52 118 71 39 120 73 41 122 75 43 117 70 38 124 77 45 111 64 32 119 72 40 116 69 37 108 61 29 114 67 35 121 74 42 118 71 39 112 65 33 116 69 37 115 68 36 123 76 44 122 75 43 122 75 43 118 71 39 117 70 38 129 82 50 121 74 42 117 70 38 116 69 37 110 63 31 107 60 28 115 68 36 113 66 34 102 55 23 103 56 24 110 63 31 102 55 23 103 56 24 103 56 24 117 70 38 110 63 31 110 63 31 115 68 36 122 75 43 117 70 38 117 70 38 116 69 37 112 65 33 118 71 39 120 73 41 118 71 39 117 70 38 107 60 28 100 53 21 107 60 28 112 65 33 103 56 24 106 59 27 103 56 24 109 62 30 109 62 30 117 70 38 117 70 38 123 76 44 117 70 38 115 68 36 121 74 42 122 75 43 124 77 45 119 72 40 127 80 48 125 78 46 116 69 37 116 69 37 113 66 34 111 64 32 109 62 30 116 69 37 107 60 28 117 70 38 121 74 42 120 73 41 116 69 37 127 80 48 125 78 46 129 82 50 125 78 46 121 74 42 128 81 49 125 78 46 133 86 54 119 72 40 129 82 50 127 80 48 120 73 41 114 67 35 111 64 32 108 61 29 119 72 40 115 68 36 115 68 36 108 61 29 107 60 28 115 68 36 117 70 38 114 67 35 115 68 36 115 68 36 115 68 36 120 73 41 124 77 45 118 71 39 125 78 46 117 70 38 110 63 31
116 69 37 114 67 35 110 63 31 114 67 35 109 62 30 106 59 27 114 67 35 115 68 36 118 71 39 121 74 42 122 75 43 119 72 40 119 72 40 127 80 48 133 86 54 129 82 50 124 77 45 124 77 45 121 74 42 120 73 41 114 67 35 114 67 35 124 77 45 121 74 42 121 74 42 113 66 34 116 69 37 111 64 32 117 70 38 111 64 32 114 67 35 121 74 42 123 76 44 123 76 44 127 80 48 130 83 51 131 84 52 127 80 48 129 82 50 128 81 49 122 75 43 112 65 33 112 65 33 105 58 26 105 58 26 114 67 35 112 65 33 102 55 23 111 64 32 113 66 34 108 61 29 104 57 25 111 64 32 115 68 36 119 72 40 114 67 35 120 73 41 122 75 43 113 66 34 112 65 33 114 67 35 115 68 36 117 70 38 115 68 36 109 62 30 114 67 35 111 64 32 103 56 24 104 57 25 108 61 29 108 61 29 113 66 34 108 61 29 112 65 33 108 61 29 121 74 42 112 65 33 125 78 46 117 70 38 125 78 46 130 83 51 130 83 51 119 72 40 117 70 38 121 74 42 114 67 35 112 65 33 121 74 42 117 70 38 120 73 41 112 65 33 113 66 34 116 69 37 117 70 38 115 68 36 121 74 42 115 68 36 116 69 37 128 81 49 129 82 50 134 87 55 129 82 50 130 83 51 133 86 54 123 76 44 121 74 42 122 75 43 116 69 37 122 75 43 113 66 34 108 61 29 112 65 33 112 65 33 111 64 32 111 64 32 117 70 38 108 61 29 112 65 33 119 72 40 119 72 40 117 70 38 116 69 37 118 71 39 127 80 48 123 76 44 117 70 38 122 75 43 112 65 33
106 59 27 112 65 33 113 66 34 116 69 37 116 69 37 109 62 30 108 61 29 119 72 40 122 75 43 121 74 42 117 70 38 124 77 45 126 79 47 126 79 47 131 84 52 129 82 50 133 86 54 127 80 48 123 76 44 130 83 51 115 68 36 116 69 37 121 74 42 117 70 38 116 69 37 118 71 39 118 71 39 113 66 34 117 70 38 116 69 37 112 65 33 122 75 43 115 68 36 128 81 49 128 81 49 126 79 47 119 72 40 118 71 39 124 77 45 127 80 48 117 70 38 121 74 42 108 61 29 113 66 34 110 63 31 112 65 33 110 63 31 107 60 28 110 63 31 103 56 24 105 58 26 109 62 30 108 61 29 112 65 33 112 65 33 120 73 41 123 76 44 113 66 34 121 74 42 119 72 40 123 76 44 113 66 34 111 64 32 116 69 37 113 66 34 103 56 24 102 55 23 112 65 33 104 57 25 100 53 21 113 66 34 106 59 27 115 68 36 117 70 38 116 69 37 111 64 32 113 66 34 119 72 40 125 78 46 117 70 38 129 82 50 125 78 46 119 72 40 120 73 41 122 75 43 120 73 41 117 70 38 116 69 37 107 60 28 115 68 36 111 64 32 115 68 36 121 74 42 121 74 42 113 66 34 119 72 40 123 76 44 120 73 41 127 80 48 128 81 49 123 76 44 127 80 48 129 82 50 131 84 52 127 80 48 126 79 47 126 79 47 114 67 35 111 64 32 115 68 36 113 66 34 115 68 36 107 60 28 108 61 29 117 70 38 118 71 39 112 65 33 118 71 39 112 65 33 123 76 44 121 74 42 118 71 39 115 68 36 118 71 39 115 68 36 122 75 43 115 68 36 115 68 36
114 67 35 116 69 37 110 63 31 109 62 30 113 66 34 110 63 31 114 67 35 109 62 30 112 65 33 122 75 43 125 78 46 122 75 43 127 80 48 123 76 44 129 82 50 126 79 47 123 76 44 131 84 52 131 84 52 129 82 50 128 81 49 120 73 41 115 68 36 109 62 30 109 62 30 107 60 28 113 66 34 117 70 38 109 62 30 117 70 38 116 69 37 123 76 44 117 70 38 119 72 40 120 73 41 125 78 46 127 80 48 122 75 43 119 72 40 121 74 42 124 77 45 121 74 42 109 62 30 113 66 34 106 59 27 106 59 27 109 62 30 109 62 30 101 54 22 111 64 32 105 58 26 108 61 29 114 67 35 115 68 36 109 62 30 121 74 42 119 72 40 111 64 32 114 67 35 116 69 37 112 65 33 122 75 43 118 71 39 113 66 34 109 62 30 111 64 32 105 58 26 102 55 23 105 58 26 110 63 31 105 58 26 108 61 29 107 60 28 108 61 29 107 60 28 115 68 36 113 66 34 119 72 40 119 72 40 124 77 45 124 77 45 128 81 49 122 75 43 127 80 48 123 76 44 121 74 42 124 77 45 116 69 37 118 71 39 119 72 40 116 69 37 114 67 35 118 71 39 112 65 33 113 66 34 123 76 44 123 76 44 120 73 41 124 77 45 127 80 48 133 86 54 122 75 43 130 83 51 131 84 52 130 83 51 122 75 43 117 70 38 118 71 39 111 64 32 120 73 41 116 69 37 111 64 32 112 65 33 117 70 38 114 67 35 106 59 27 107 60 28 117 70 38 113 66 34 119 72 40 122 75 43 118 71 39 127 80 48 118 71 39 118 71 39 122 75 43 123 76 44 112 65 33
108 61 29 112 65 33 107 60 28 108 61 29 107 60 28 113 66 34 119 72 40 111 64 32 122 75 43 116 69 37 126 79 47 117 70 38 127 80 48 124 77 45 131 84 52 133 86 54 122 75 43 125 78 46 125 78 46 118 71 39 121 74 42 116 69 37 118 71 39 118 71 39 117 70 38 115 68 36 116 69 37 113 66 34 112 65 33 115 68 36 118 71 39 114 67 35 126 79 47 125 78 46 125 78 46 130 83 51 126 79 47 131 84 52 129 82 50 124 77 45 112 65 33 122 75 43 112 65 33 114 67 35 114 67 35 108 61 29 102 55 23 103 56 24 101 54 22 111 64 32 107 60 28 115 68 36 114 67 35 114 67 35 117 70 38 118 71 39 112 65 33 121 74 42 113 66 34 112 65 33 113 66 34 121 74 42 115 68 36 116 69 37 114 67 35 114 67 35 102 55 23 110 63 31 109 62 30 99 52 20 110 63 31 108 61 29 113 66 34 117 70 38 113 66 34 113 66 34 114 67 35 126 79 47 116 69 37 128 81 49 127 80 48 127 80 48 120 73 41 116 69 37 123 76 44 124 77 45 123 76 44 111 64 32 110 63 31 112 65 33 108 61 29 106 59 27 107 60 28 115 68 36 116 69 37 123 76 44 114 67 35 119 72 40 124 77 45 124 77 45 132 85 53 123 76 44 127 80 48 132 85 53 122 75 43 124 77 45 123 76 44 114 67 35 112 65 33 112 65 33 115 68 36 108 61 29 110 63 31 110 63 31 109 62 30 106 59 27 107 60 28 115 68 36 120 73 41 120 73 41 114 67 35 120 73 41 125 78 46 118 71 39 118 71 39 119 72 40 117 70 38 119 72 40
115 68 36 109 62 30 108 61 29 103 56 24 112 65 33 106 59 27 116 69 37 117 70 38 116 69 37 125 78 46 120 73 41 118 71 39 119 72 40 130 83 51 132 85 53 125 78 46 130 83 51 125 78 46 129 82 50 118 71 39 118 71 39 120 73 41 122 75 43 120 73 41 108 61 29 110 63 31 119 72 40 119 72 40 113 66 34 120 73 41 122 75 43 117 70 38 117 70 38 126 79 47 127 80 48 124 77 45 130 83 51 128 81 49 129 82 50 124 77 45 116 69 37 121 74 42 118 71 39 107 60 28 109 62 30 110 63 31 106 59 27 108 61 29 105 58 26 108 61 29 110 63 31 111 64 32 108 61 29 109 62 30 112 65 33 118 71 39 116 69 37 121 74 42 113 66 34 112 65 33 112 65 33 112 65 33 111 64 32 105 58 26 109 62 30 107 60 28 113 66 34 102 55 23 112 65 33 105 58 26 113 66 34 114 67 35 114 67 35 117 70 38 120 73 41 117 70 38 121 74 42 126 79 47 117 70 38 129 82 50 117 70 38 123 76 44 125 78 46 120 73 41 122 75 43 112 65 33 112 65 33 113 66 34 113 66 34 117 70 38 108 61 29 119 72 40 117 70 38 122 75 43 124 77 45 122 75 43 117 70 38 126 79 47 119 72 40 129 82 50 133 86 54 130 83 51 127 80 48 134 87 55 121 74 42 130 83 51 126 79 47 124 77 45 112 65 33 115 68 36 108 61 29 113 66 34 114 67 35 109 62 30 111 64 32 111 64 32 118 71 39 117 70 38 120 73 41 120 73 41 114 67 35 119 72 40 114 67 35 123 76 44 118 71 39 121 74 42 112 65 33 122 75 43
110 63 31 111 64 32 109 62 30 104 57 25 113 66 34 106 59 27 109 62 30 115 68 36 116 69 37 113 66 34 118 71 39 122 75 43 124 77 45 131 84 52 121 74 42 123 76 44 131 84 52 119 72 40 124 77 45 117 70 38 126 79 47 121 74 42 115 68 36 113 66 34 120 73 41 107 60 28 117 70 38 110 63 31 118 71 39 117 70 38 114 67 35 115 68 36 120 73 41 123 76 44 128 81 49 126 79 47 124 77 45 127 80 48 125 78 46 122 75 43 126 79 47 115 68 36 112 65 33 112 65 33 114 67 35 110 63 31 110 63 31 111 64 32 100 53 21 107 60 28 111 64 32 106 59 27 104 57 25 108 61 29 114 67 35 111 64 32 113 66 34 122 75 43 122 75 43 122 75 43 121 74 42 114 67 35 114 67 35 118 71 39 104 57 25 107 60 28 112 65 33 111 64 32 105 58 26 112 65 33 107 60 28 114 67 35 103 56 24 111 64 32 112 65 33 112 65 33 115 68 36 123 76 44 117 70 38 130 83 51 125 78 46 120 73 41 127 80 48 129 82 50 116 69 37 112 65 33 121 74 42 119 72 40 110 63 31 117 70 38 117 70 38 116 69 37 118 71 39 111 64 32 115 68 36 120 73 41 117 70 38 130 83 51 120 73 41 126 79 47 124 77 45 128 81 49 129 82 50 123 76 44 124 77 45 122 75 43 127 80 48 118 71 39 122 75 43 109 62 30 112 65 33 112 65 33 109 62 30 106 59 27 117 70 38 114 67 35 110 63 31 115 68 36 118 71 39 116 69 37 115 68 36 116 69 37 115 68 36 117 70 38 122 75 43 118 71 39 121 74 42 116 69 37
118 71 39 118 71 39 113 66 34 115 68 36 106 59 27 107 60 28 119 72 40 115 68 36 122 75 43 114 67 35 118 71 39 123 76 44 131 84 52 131 84 52 125 78 46 130 83 51 129 82 50 133 86 54 128 81 49 119 72 40 124 77 45 118 71 39 117 70 38 118 71 39 110 63 31 119 72 40 113 66 34 111 64 32 114 67 35 109 62 30 113 66 34 125 78 46 127 80 48 123 76 44 124 77 45 129 82 50 121 74 42 128 81 49 116 69 37 127 80 48 115 68 36 111 64 32 120 73 41 108 61 29 107 60 28 107 60 28 100 53 21 101 54 22 108 61 29 110 63 31 113 66 34 109 62 30 111 64 32 113 66 34 110 63 31 112 65 33 119 72 40 121 74 42 118 71 39 119 72 40 112 65 33 121 74 42 109 62 30 110 63 31 108 61 29 111 64 32 113 66 34 102 55 23 104 57 25 111 64 32 112 65 33 111 64 32 105 58 26 115 68 36 112 65 33 118 71 39 116 69 37 118 71 39 128 81 49 119 72 40 121 74 42 123 76 44 116 69 37 125 78 46 114 67 35 119 72 40 114 67 35 112 65 33 107 60 28 115 68 36 114 67 35 107 60 28 109 62 30 115 68 36 113 66 34 114 67 35 126 79 47 125 78 46 121 74 42 129 82 50 123 76 44 124 77 45 125 78 46 125 78 46 123 76 44 126 79 47 123 76 44 125 78 46 122 75 43 114 67 35 118 71 39 115 68 36 106 59 27 110 63 31 116 69 37 109 62 30 119 72 40 115 68 36 124 77 45 114 67 35 114 67 35 119 72 40 114 67 35 126 79 47 125 78 46 115 68 36 114 67 35 108 61 29
119 72 40 111 64 32 105 58 26 116 69 37 104 57 25 107 60 28 115 68 36 113 66 34 120 73 41 116 69 37 117 70 38 121 74 42 123 76 44 122 75 43 123 76 44 131 84 52 124 77 45 120 73 41 127 80 48 120 73 41 124 77 45 119 72 40 118 71 39 119 72 40 115 68 36 118 71 39 111 64 32 112 65 33 117 70 38 123 76 44 120 73 41 117 70 38 117 70 38 120 73 41 120 73 41 127 80 48 123 76 44 124 77 45 122 75 43 115 68 36 112 65 33 122 75 43 116 69 37 105 58 26 115 68 36 104 57 25 109 62 30 100 53 21 110 63 31 100 53 21 105 58 26 106 59 27 109 62 30 112 65 33 112 65 33 116 69 37 118 71 39 124 77 45 115 68 36 120 73 41 117 70 38 117 70 38 111 64 32 116 69 37 113 66 34 102 55 23 113 66 34 105 58 26 100 53 21 107 60 28 101 54 22 101 54 22 105 58 26 116 69 37 111 64 32 116 69 37 121 74 42 119 72 40 119 72 40 125 78 46 129 82 50 127 80 48 116 69 37 115 68 36 114 67 35 117 70 38 119 72 40 119 72 40 113 66 34 116 69 37 118 71 39 120 73 41 113 66 34 112 65 33 114 67 35 112 65 33 127 80 48 126 79 47 126 79 47 125 78 46 132 85 53 131 84 52 132 85 53 124 77 45 127 80 48 125 78 46 124 77 45 113 66 34 120 73 41 113 66 34 112 65 33 114 67 35 109 62 30 112 65 33 111 64 32 119 72 40 113 66 34 110 63 31 122 75 43 123 76 44 117 70 38 117 70 38 119 72 40 126 79 47 126 79 47 119 72 40 124 77 45 112 65 33
107 60 28 109 62 30 117 70 38 105 58 26 116 69 37 106 59 27 113 66 34 121 74 42 120 73 41 120 73 41 123 76 44 117 70 38 122 75 43 132 85 53 121 74 42 133 86 54 126 79 47 133 86 54 123 76 44 128 81 49 122 75 43 116 69 37 119 72 40 117 70 38 116 69 37 111 64 32 107 60 28 119 72 40 121 74 42 116 69 37 122 75 43 119 72 40 119 72 40 128 81 49 118 71 39 121 74 42 127 80 48 126 79 47 119 72 40 124 77 45 124 77 45 115 68 36 120 73 41 115 68 36 107 60 28 115 68 36 108 61 29 104 57 25 109 62 30 106 59 27 110 63 31 114 67 35 112 65 33 112 65 33 112 65 33 113 66 34 121 74 42 113 66 34 125 78 46 121 74 42 116 69 37 109 62 30 115 68 36 116 69 37 113 66 34 103 56 24 103 56 24 101 54 22 108 61 29 103 56 24 101 54 22 114 67 35 111 64 32 116 69 37 118 71 39 115 68 36 119 72 40 125 78 46 127 80 48 122 75 43 125 78 46 126 79 47 117 70 38 116 69 37 125 78 46 123 76 44 118 71 39 113 66 34 115 68 36 109 62 30 107 60 28 112 65 33 110 63 31 119 72 40 114 67 35 125 78 46 126 79 47 120 73 41 126 79 47 128 81 49 133 86 54 129 82 50 128 81 49 122 75 43 121 74 42 127 80 48 120 73 41 113 66 34 114 67 35 120 73 41 116 69 37 112 65 33 114 67 35 114 67 35 112 65 33 108 61 29 118 71 39 116 69 37 122 75 43 114 67 35 115 68 36 125 78 46 117 70 38 128 81 49 120 73 41 126 79 47 121 74 42 111 64 32
108 61 29 107 60 28 106 59 27 107 60 28 108 61 29 107 60 28 118 71 39 117 70 38 113 66 34 117 70 38 115 68 36 124 77 45 130 83 51 130 83 51 132 85 53 122 75 43 125 78 46 133 86 54 119 72 40 128 81 49 126 79 47 119 72 40 119 72 40 115 68 36 111 64 32 107 60 28 116 69 37 118 71 39 109 62 30 117 70 38 120 73 41 115 68 36 125 78 46 128 81 49 118 71 39 120 73 41 121 74 42 128 81 49 117 70 38 115 68 36 123 76 44 112 65 33 108 61 29 114 67 35 114 67 35 112 65 33 108 61 29 100 53 21 106 59 27 106 59 27 114 67 35 109 62 30 108 61 29 110 63 31 113 66 34 120 73 41 115 68 36 119 72 40 112 65 33 123 76 44 120 73 41 112 65 33 115 68 36 114 67 35 109 62 30 111 64 32 106 59 27 112 65 33 103 56 24 105 58 26 104 57 25 106 59 27 108 61 29 105 58 26 119 72 40 122 75 43 124 77 45 125 78 46 122 75 43 123 76 44 119 72 40 129 82 50 127 80 48 117 70 38 120 73 41 116 69 37 113 66 34 113 66 34 118 71 39 110 63 31 109 62 30 119 72 40 114 67 35 113 66 34 116 69 37 116 69 37 124 77 45 129 82 50 118 71 39 124 77 45 124 77 45 133 86 54 121 74 42 127 80 48 121 74 42 123 76 44 123 76 44 124 77 45 118 71 39 118 71 39 119 72 40 111 64 32 116 69 37 105 58 26 108 61 29 116 69 37 108 61 29 114 67 35 110 63 31 112 65 33 118 71 39 124 77 45 120 73 41 123 76 44 116 69 37 116 69 37 120 73 41 122 75 43
118 71 39 113 66 34 112 65 33 116 69 37 112 65 33 106 59 27 118 71 39 112 65 33 119 72 40 114 67 35 127 80 48 117 70 38 125 78 46 124 77 45 130 83 51 130 83 51 123 76 44 131 84 52 130 83 51 125 78 46 116 69 37 126 79 47 113 66 34 110 63 31 120 73 41 118 71 39 110 63 31 119 72 40 114 67 35 116 69 37 121 74 42 125 78 46 124 77 45 129 82 50 120 73 41 119 72 40 131 84 52 127 80 48 128 81 49 126 79 47 117 70 38 112 65 33 109 62 30 114 67 35 115 68 36 104 57 25 103 56 24 107 60 28 108 61 29 102 55 23 106 59 27 114 67 35 117 70 38 114 67 35 119 72 40 112 65 33 111 64 32 117 70 38 117 70 38 119 72 40 119 72 40 115 68 36 119 72 40 118 71 39 115 68 36 114 67 35 109 62 30 111 64 32 103 56 24 111 64 32 110 63 31 109 62 30 105 58 26 108 61 29 118 71 39 112 65 33 124 77 45 120 73 41 122 75 43 125 78 46 127 80 48 129 82 50 125 78 46 118 71 39 123 76 44 124 77 45 117 70 38 119 72 40 117 70 38 118 71 39 112 65 33 115 68 36 110 63 31 116 69 37 121 74 42 112 65 33 120 73 41 125 78 46 131 84 52 133 86 54 132 85 53 133 86 54 129 82 50 125 78 46 123 76 44 125 78 46 124 77 45 122 75 43 111 64 32 114 67 35 115 68 36 114 67 35 108 61 29 107 60 28 105 58 26 110 63 31 117 70 38 111 64 32 110 63 31 113 66 34 120 73 41 116 69 37 124 77 45 125 78 46 121 74 42 118 71 39 120 73 41 118 71 39
116 69 37 107 60 28 114 67 35 116 69 37 113 66 34 116 69 37 113 66 34 118 71 39 121 74 42 126 79 47 122 75 43 121 74 42 119 72 40 130 83 51 122 75 43 131 84 52 124 77 45 120 73 41 127 80 48 130 83 51 124 77 45 113 66 34 111 64 32 109 62 30 115 68 36 113 66 34 114 67 35 114 67 35 108 61 29 121 74 42 113 66 34 125 78 46 119 72 40 116 69 37 124 77 45 131 84 52 119 72 40 117 70 38 124 77 45 128 81 49 118 71 39 118 71 39 119 72 40 115 68 36 114 67 35 112 65 33 100 53 21 106 59 27 104 57 25 113 66 34 108 61 29 115 68 36 106 59 27 109 62 30 108 61 29 117 70 38 117 70 38 124 77 45 113 66 34 124 77 45 123 76 44 119 72 40 111 64 32 115 68 36 104 57 25 109 62 30 111 64 32 101 54 22 100 53 21 103 56 24 103 56 24 111 64 32 111 64 32 113 66 34 114 67 35 121 74 42 123 76 44 124 77 45 126 79 47 118 71 39 131 84 52 130 83 51 125 78 46 124 77 45 114 67 35 125 78 46 118 71 39 114 67 35 113 66 34 114 67 35 112 65 33 110 63 31 115 68 36 119 72 40 120 73 41 115 68 36 126 79 47 128 81 49 119 72 40 127 80 48 128 81 49 127 80 48 131 84 52 128 81 49 129 82 50 119 72 40 119 72 40 122 75 43 118 71 39 114 67 35 112 65 33 117 70 38 117 70 38 115 68 36 115 68 36 119 72 40 119 72 40 122 75 43 115 68 36 125 78 46 115 68 36 123 76 44 124 77 45 119 72 40 117 70 38 126 79 47 119 72 40 112 65 33
117 70 38 107 60 28 106 59 27 112 65 33 112 65 33 107 60 28 109 62 30 115 68 36 120 73 41 123 76 44 127 80 48 127 80 48 123 76 44 122 75 43 129 82 50 133 86 54 121 74 42 125 78 46 128 81 49 120 73 41 115 68 36 124 77 45 111 64 32 117 70 38 115 68 36 121 74 42 117 70 38 113 66 34 117 70 38 113 66 34 121 74 42 125 78 46 123 76 44 118 71 39 126 79 47 131 84 52 123 76 44 121 74 42 127 80 48 126 79 47 125 78 46 114 67 35 119 72 40 113 66 34 109 62 30 108 61 29 111 64 32 102 55 23 101 54 22 101 54 22 108 61 29 110 63 31 112 65 33 108 61 29 108 61 29 113 66 34 122 75 43 119 72 40 119 72 40 115 68 36 115 68 36 122 75 43 112 65 33 115 68 36 104 57 25 103 56 24 113 66 34 103 56 24 106 59 27 111 64 32 100 53 21 112 65 33 107 60 28 111 64 32 118 71 39 121 74 42 112 65 33 123 76 44 128 81 49 125 78 46 125 78 46 128 81 49 126 79 47 121 74 42 124 77 45 124 77 45 112 65 33 119 72 40 110 63 31 109 62 30 111 64 32 109 62 30 118 71 39 113 66 34 116 69 37 125 78 46 122 75 43 117 70 38 119 72 40 124 77 45 132 85 53 128 81 49 122 75 43 132 85 53 128 81 49 126 79 47 126 79 47 124 77 45 114 67 35 115 68 36 117 70 38 114 67 35 109 62 30 111 64 32 113 66 34 115 68 36 108 61 29 119 72 40 117 70 38 119 72 40 122 75 43 126 79 47 116 69 37 123 76 44 123 76 44 121 74 42 113 66 34 117 70 38
108 61 29 105 58 26 109 62 30 104 57 25 110 63 31 107 60 28 107 60 28 111 64 32 121 74 42 125 78 46 125 78 46 126 79 47 128 81 49 129 82 50 131 84 52 122 75 43 125 78 46 127 80 48 130 83 51 121 74 42 120 73 41 120 73 41 120 73 41 120 73 41 121 74 42 118 71 39 120 73 41 117 70 38 113 66 34 115 68 36 121 74 42 113 66 34 122 75 43 120 73 41 125 78 46 125 78 46 127 80 48 118 71 39 119 72 40 119 72 40 122 75 43 123 76 44 110 63 31 109 62 30 115 68 36 109 62 30 107 60 28 106 59 27 109 62 30 101 54 22 109 62 30 109 62 30 107 60 28 119 72 40 118 71 39 111 64 32 121 74 42 111 64 32 113 66 34 122 75 43 112 65 33 121 74 42 110 63 31 111 64 32 111 64 32 103 56 24 108 61 29 101 54 22 100 53 21 101 54 22 109 62 30 110 63 31 109 62 30 115 68 36 120 73 41 109 62 30 115 68 36 114 67 35 116 69 37 122 75 43 120 73 41 121 74 42 126 79 47 127 80 48 125 78 46 117 70 38 118 71 39 112 65 33 113 66 34 119 72 40 115 68 36 114 67 35 118 71 39 115 68 36 112 65 33 117 70 38 122 75 43 129 82 50 125 78 46 123 76 44 132 85 53 133 86 54 126 79 47 123 76 44 121 74 42 122 75 43 118 71 39 125 78 46 118 71 39 116 69 37 110 63 31 107 60 28 117 70 38 111 64 32 112 65 33 113 66 34 117 70 38 115 68 36 112 65 33 114 67 35 119 72 40 125 78 46 115 68 36 116 69 37 118 71 39 125 78 46 124 77 45 118 71 39
110 63 31 113 66 34 107 60 28 108 61 29 117 70 38 116 69 37 117 70 38 111 64 32 121 74 42 118 71 39 117 70 38 128 81 49 122 75 43 122 75 43 128 81 49 121 74 42 126 79 47 124 77 45 123 76 44 126 79 47 120 73 41 114 67 35 116 69 37 114 67 35 120 73 41 110 63 31 107 60 28 119 72 40 111 64 32 111 64 32 121 74 42 122 75 43 121 74 42 128 81 49 118 71 39 118 71 39 122 75 43 123 76 44 126 79 47 123 76 44 120 73 41 117 70 38 113 66 34 119 72 40 108 61 29 103 56 24 102 55 23 109 62 30 109 62 30 107 60 28 102 55 23 103 56 24 111 64 32 114 67 35 112 65 33 120 73 41 111 64 32 122 75 43 124 77 45 112 65 33 122 75 43 120 73 41 114 67 35 105 58 26 107 60 28 105 58 26 111 64 32 110 63 31 108 61 29 103 56 24 100 53 21 114 67 35 115 68 36 105 58 26 112 65 33 118 71 39 116 69 37 118 71 39 124 77 45 121 74 42 122 75 43 124 77 45 116 69 37 124 77 45 114 67 35 116 69 37 118 71 39 114 67 35 120 73 41 115 68 36 109 62 30 119 72 40 110 63 31 122 75 43 123 76 44 123 76 44 115 68 36 117 70 38 121 74 42 127 80 48 132 85 53 130 83 51 132 85 53 127 80 48 122 75 43 124 77 45 121 74 42 115 68 36 124 77 45 110 63 31 109 62 30 115 68 36 112 65 33 114 67 35 115 68 36 115 68 36 119 72 40 113 66 34 112 65 33 124 77 45 118 71 39 117 70 38 126 79 47 119 72 40 116 69 37 122 75 43 122 75 43 111 64 32
114 67 35 106 59 27 108 61 29 108 61 29 106 59 27 108 61 29 113 66 34 121 74 42 123 76 44 121 74 42 124 77 45 127 80 48 121 74 42 125 78 46 125 78 46 132 85 53 132 85 53 128 81 49 120 73 41 128 81 49 127 80 48 121 74 42 114 67 35 115 68 36 113 66 34 109 62 30 119 72 40 112 65 33 114 67 35 119 72 40 111 64 32 116 69 37 114 67 35 116 69 37 123 76 44 121 74 42 129 82 50 124 77 45 118 71 39 127 80 48 125 78 46 123 76 44 108 61 29 117 70 38 107 60 28 115 68 36 105 58 26 106 59 27 104 57 25 101 54 22 103 56 24 105 58 26 117 70 38 112 65 33 119 72 40 122 75 43 114 67 35 124 77 45 123 76 44 118 71 39 110 63 31 109 62 30 118 71 39 119 72 40 109 62 30 110 63 31 109 62 30 112 65 33 111 64 32 110 63 31 104 57 25 111 64 32 108 61 29 116 69 37 109 62 30 116 69 37 114 67 35 120 73 41 122 75 43 119 72 40 120 73 41 124 77 45 121 74 42 128 81 49 122 75 43 117 70 38 115 68 36 117 70 38 114 67 35 116 69 37 113 66 34 114 67 35 109 62 30 112 65 33 120 73 41 114 67 35 127 80 48 120 73 41 121 74 42 133 86 54 129 82 50 121 74 42 132 85 53 130 83 51 121 74 42 130 83 51 128 81 49 115 68 36 111 64 32 113 66 34 118 71 39 108 61 29 115 68 36 112 65 33 116 69 37 116 69 37 120 73 41 108 61 29 123 76 44 118 71 39 124 77 45 115 68 36 127 80 48 121 74 42 127 80 48 125 78 46 115 68 36 112 65 33
94 47 15 94 47 15 94 47 15 94 47 15 94 47 15 94 47 15 94 47 15 94 47 15 94 47 15 94 47 15 94 47 15 94 47 15 94 47 15 94 47 15 94 47 15 94 47 15 94 47 15 94 47 15 94 47 15 94 47 15 94 47 15 94 47 15 94 47 15 94 47 15 94 47 15 94 47 15 94 47 15 94 47 15 94 47 15 94 47 15 94 47 15 94 47 15 94 47 15 94 47 15 94 47 15 94 47 15 94 47 15 94 47 15 94 47 15 94 47 15 94 47 15 94 47 15 94 47 15 94 47 15 94 47 15 94 47 15 94 47 15 94 47 15 94 47 15 94 47 15 94 47 15 94 47 15 94 47 15 94 47 15 94 47 15 94 47 15 94 47 15 94 47 15 94 47 15 94 47 15 94 47 15 94 47 15 94 47 15 94 47 15 94 47 15 94 47 15 94 47 15 94 47 15 94 47 15 94 47 15 94 47 15 94 47 15 94 47 15 94 47 15 94 47 15 94 47 15 94 47 15 94 47 15 94 47 15 94 47 15 94 47 15 94 47 15 94 47 15 94 47 15 94 47 15 94 47 15 94 47 15 94 47 15 94 47 15 94 47 15 94 47 15 94 47 15 94 47 15 94 47 15 94 47 15 94 47 15 94 47 15 94 47 15 94 47 15 94 47 15 94 47 15 94 47 15 94 47 15 94 47 15 94 47 15 94 47 15 94 47 15 94 47 15 94 47 15 94 47 15 94 47 15 94 47 15 94 47 15 94 47 15 94 47 15 94 47 15 94 47 15 94 47 15 94 47 15 94 47 15 94 47 15 94 47 15 94 47 15 94 47 15 94 47 15 94 47 15 94 47 15 94 47 15
94 47 15 94 47 15 94 47 15 94 47 15 94 47 15 94 47 15 94 47 15 94 47 15 94 47 15 94 47 15 94 47 15 94 47 15 94 47 15 94 47 15 94 47 15 94 47 15 94 47 15 94 47 15 94 47 15 94 47 15 94 47 15 94 47 15 94 47 15 94 47 15 94 47 15 94 47 15 94 47 15 94 47 15 94 47 15 94 47 15 94 47 15 94 47 15 94 47 15 94 47 15 94 47 15 94 47 15 94 47 15 94 47 15 94 47 15 94 47 15 94 47 15 94 47 15 94 47 15 94 47 15 94 47 15 94 47 15 94 47 15 94 47 15 94 47 15 94 47 15 94 47 15 94 47 15 94 47 15 94 47 15 94 47 15 94 47 15 94 47 15 94 47 15 94 47 15 94 47 15 94 47 15 94 47 15 94 47 15 94 47 15 94 47 15 94 47 15 94 47 15 94 47 15 94 47 15 94 47 15 94 47 15 94 47 15 94 47 15 94 47 15 94 47 15 94 47 15 94 47 15 94 47 15 94 47 15 94 47 15 94 47 15 94 47 15 94 47 15 94 47 15 94 47 15 94 47 15 94 47 15 94 47 15 94 47 15 94 47 15 94 47 15 94 47 15 94 47 15 94 47 15 94 47 15 94 47 15 94 47 15 94 47 15 94 47 15 94 47 15 94 47 15 94 47 15 94 47 15 94 47 15 94 47 15 94 47 15 94 47 15 94 47 15 94 47 15 94 47 15 94 47 15 94 47 15 94 47 15 94 47 15 94 47 15 94 47 15 94 47 15 94 47 15 94 47 15 94 47 15 94 47 15 94 47 15 94 47 15 94 47 15 94 47 15 94 47 15 94 47 15 94 47 15
114 67 35 108 61 29 114 67 35 112 65 33 115 68 36 128 81 49 121 74 42 123 76 44 123 76 44 128 81 49 128 81 49 118 71 39 119 72 40 128 81 49 124 77 45 124 77 45 118 71 39 122 75 43 108 61 29 111 64 32 120 73 41 113 66 34 122 75 43 122 75 43 122 75 43 127 80 48 120 73 41 123 76 44 127 80 48 130 83 51 131 84 52 131 84 52 127 80 48 116 69 37 118 71 39 121 74 42 121 74 42 116 69 37 115 68 36 109 62 30 111 64 32 108 61 29 112 65 33 110 63 31 117 70 38 111 64 32 118 71 39 117 70 38 110 63 31 113 66 34 122 75 43 116 69 37 122 75 43 121 74 42 110 63 31 117 70 38 119 72 40 110 63 31 113 66 34 109 62 30 109 62 30 107 60 28 103 56 24 100 53 21 104 57 25 102 55 23 110 63 31 108 61 29 111 64 32 111 64 32 115 68 36 123 76 44 116 69 37 125 78 46 114 67 35 118 71 39 126 79 47 118 71 39 120 73 41 111 64 32 109 62 30 111 64 32 113 66 34 105 58 26 112 65 33 110 63 31 113 66 34 109 62 30 122 75 43 122 75 43 126 79 47 129 82 50 126 79 47 128 81 49 132 85 53 133 86 54 129 82 50 128 81 49 122 75 43 118 71 39 129 82 50 117 70 38 121 74 42 120 73 41 116 69 37 117 70 38 110 63 31 117 70 38 111 64 32 121 74 42 112 65 33 114 67 35 120 73 41 126 79 47 127 80 48 123 76 44 119 72 40 123 76 44 126 79 47 121 74 42 126 79 47 122 75 43 109 62 30 107 60 28 107 60 28 105 58 26 109 62 30 108 61 29
105 58 26 119 72 40 115 68 36 116 69 37 123 76 44 126 79 47 130 83 51 119 72 40 132 85 53 124 77 45 123 76 44 122 75 43 123 76 44 127 80 48 125 78 46 113 66 34 114 67 35 116 69 37 113 66 34 114 67 35 111 64 32 114 67 35 121 74 42 116 69 37 114 67 35 125 78 46 128 81 49 127 80 48 124 77 45 131 84 52 128 81 49 120 73 41 121 74 42 118 71 39 128 81 49 119 72 40 111 64 32 110 63 31 109 62 30 107 60 28 113 66 34 103 56 24 108 61 29 109 62 30 105 58 26 108 61 29 112 65 33 119 72 40 118 71 39 119 72 40 112 65 33 122 75 43 119 72 40 118 71 39 121 74 42 122 75 43 120 73 41 118 71 39 112 65 33 111 64 32 107 60 28 110 63 31 109 62 30 111 64 32 99 52 20 103 56 24 109 62 30 109 62 30 118 71 39 111 64 32 115 68 36 114 67 35 116 69 37 120 73 41 128 81 49 124 77 45 125 78 46 121 74 42 123 76 44 119 72 40 111 64 32 117 70 38 107 60 28 110 63 31 115 68 36 109 62 30 118 71 39 112 65 33 117 70 38 123 76 44 127 80 48 118 71 39 131 84 52 120 73 41 121 74 42 123 76 44 121 74 42 121 74 42 129 82 50 118 71 39 120 73 41 127 80 48 119 72 40 111 64 32 117 70 38 112 65 33 108 61 29 112 65 33 107 60 28 112 65 33 123 76 44 119 72 40 125 78 46 119 72 40 119 72 40 119 72 40 126 79 47 119 72 40 123 76 44 124 77 45 113 66 34 114 67 35 111 64 32 110 63 31 116 69 37 106 59 27 102 55 23 102 55 23
112 65 33 114 67 35 121 74 42 116 69 37 126 79 47 115 68 36 120 73 41 128 81 49 124 77 45 124 77 45 122 75 43 124 77 45 129 82 50 129 82 50 125 78 46 123 76 44 111 64 32 118 71 39 121 74 42 114 67 35 111 64 32 108 61 29 121 74 42 124 77 45 119 72 40 120 73 41 116 69 37 131 84 52 124 77 45 123 76 44 127 80 48 132 85 53 124 77 45 126 79 47 118 71 39 119 72 40 117 70 38 114 67 35 115 68 36 110 63 31 106 59 27 114 67 35 110 63 31 107 60 28 114 67 35 107 60 28 118 71 39 119 72 40 120 73 41 120 73 41 118 71 39 124 77 45 123 76 44 118 71 39 116 69 37 117 70 38 115 68 36 113 66 34 111 64 32 108 61 29 108 61 29 108 61 29 110 63 31 101 54 22 104 57 25 113 66 34 102 55 23 107 60 28 106 59 27 116 69 37 117 70 38 116 69 37 122 75 43 121 74 42 116 69 37 119 72 40 118 71 39 123 76 44 111 64 32 111 64 32 107 60 28 114 67 35 116 69 37 115 68 36 108 61 29 116 69 37 108 61 29 113 66 34 117 70 38 112 65 33 116 69 37 125 78 46 130 83 51 133 86 54 129 82 50 128 81 49 133 86 54 131 84 52 131 84 52 119 72 40 124 77 45 126 79 47 115 68 36 110 63 31 113 66 34 109 62 30 113 66 34 111 64 32 110 63 31 119 72 40 117 70 38 119 72 40 126 79 47 122 75 43 129 82 50 130 83 51 124 77 45 130 83 51 118 71 39 128 81 49 123 76 44 119 72 40 118 71 39 111 64 32 112 65 33 104 57 25 111 64 32 110 63 31
109 62 30 112 65 33 109 62 30 117 70 38 119 72 40 127 80 48 124 77 45 128 81 49 127 80 48 128 81 49 130 83 51 128 81 49 128 81 49 123 76 44 125 78 46 122 75 43 123 76 44 121 74 42 118 71 39 119 72 40 116 69 37 108 61 29 117 70 38 120 73 41 118 71 39 122 75 43 124 77 45 120 73 41 120 73 41 119 72 40 126 79 47 121 74 42 129 82 50 116 69 37 122 75 43 120 73 41 120 73 41 117 70 38 111 64 32 111 64 32 104 57 25 107 60 28 105 58 26 115 68 36 111 64 32 116 69 37 116 69 37 121 74 42 113 66 34 122 75 43 124 77 45 121 74 42 120 73 41 123 76 44 118 71 39 111 64 32 116 69 37 109 62 30 115 68 36 106 59 27 110 63 31 98 51 19 104 57 25 111 64 32 105 58 26 105 58 26 105 58 26 108 61 29 111 64 32 110 63 31 113 66 34 116 69 37 123 76 44 122 75 43 120 73 41 118 71 39 127 80 48 119 72 40 121 74 42 111 64 32 121 74 42 113 66 34 108 61 29 106 59 27 105 58 26 112 65 33 113 66 34 120 73 41 120 73 41 121 74 42 125 78 46 119 72 40 121 74 42 131 84 52 134 87 55 126 79 47 132 85 53 133 86 54 125 78 46 121 74 42 126 79 47 126 79 47 119 72 40 113 66 34 114 67 35 108 61 29 109 62 30 107 60 28 109 62 30 111 64 32 114 67 35 122 75 43 126 79 47 117 70 38 125 78 46 126 79 47 123 76 44 121 74 42 116 69 37 116 69 37 121 74 42 112 65 33 116 69 37 118 71 39 115 68 36 109 62 30 112 65 33 108 61 29
113 66 34 109 62 30 114 67 35 113 66 34 122 75 43 117 70 38 127 80 48 128 81 49 126 79 47 121 74 42 124 77 45 124 77 45 121 74 42 116 69 37 115 68 36 125 78 46 118 71 39 117 70 38 113 66 34 112 65 33 116 69 37 119 72 40 121 74 42 121 74 42 123 76 44 121 74 42 122 75 43 126 79 47 126 79 47 126 79 47 130 83 51 128 81 49 122 75 43 119 72 40 128 81 49 113 66 34 118 71 39 118 71 39 107 60 28 113 66 34 103 56 24 106 59 27 110 63 31 109 62 30 106 59 27 114 67 35 109 62 30 115 68 36 116 69 37 124 77 45 115 68 36 118 71 39 112 65 33 124 77 45 124 77 45 113 66 34 120 73 41 105 58 26 104 57 25 105 58 26 107 60 28 106 59 27 106 59 27 99 52 20 101 54 22 100 53 21 114 67 35 107 60 28 113 66 34 113 66 34 114 67 35 114 67 35 126 79 47 122 75 43 122 75 43 127 80 48 125 78 46 125 78 46 119 72 40 111 64 32 114 67 35 114 67 35 110 63 31 113 66 34 105 58 26 107 60 28 111 64 32 110 63 31 122 75 43 124 77 45 115 68 36 123 76 44 121 74 42 127 80 48 127 80 48 133 86 54 121 74 42 120 73 41 121 74 42 118 71 39 116 69 37 120 73 41 120 73 41 109 62 30 110 63 31 109 62 30 115 68 36 113 66 34 107 60 28 115 68 36 118 71 39 123 76 44 116 69 37 122 75 43 127 80 48 120 73 41 127 80 48 124 77 45 126 79 47 127 80 48 114 67 35 120 73 41 114 67 35 118 71 39 113 66 34 105 58 26 112 65 33 102 55 23
109 62 30 108 61 29 119 72 40 110 63 31 121 74 42 124 77 45 121 74 42 125 78 46 122 75 43 124 77 45 129 82 50 120 73 41 126 79 47 119 72 40 118 71 39 115 68 36 120 73 41 113 66 34 114 67 35 119 72 40 119 72 40 118 71 39 122 75 43 121 74 42 121 74 42 120 73 41 129 82 50 123 76 44 121 74 42 122 75 43 132 85 53 120 73 41 120 73 41 116 69 37 125 78 46 115 68 36 120 73 41 113 66 34 108 61 29 110 63 31 108 61 29 113 66 34 111 64 32 112 65 33 117 70 38 113 66 34 106 59 27 112 65 33 112 65 33 121 74 42 115 68 36 113 66 34 114 67 35 119 72 40 112 65 33 113 66 34 119 72 40 109 62 30 106 59 27 113 66 34 112 65 33 103 56 24 105 58 26 104 57 25 101 54 22 111 64 32 104 57 25 105 58 26 116 69 37 111 64 32 111 64 32 123 76 44 122 75 43 119 72 40 116 69 37 118 71 39 116 69 37 124 77 45 123 76 44 122 75 43 118 71 39 113 66 34 112 65 33 111 64 32 110 63 31 107 60 28 114 67 35 114 67 35 121 74 42 115 68 36 117 70 38 128 81 49 130 83 51 127 80 48 134 87 55 123 76 44 122 75 43 124 77 45 125 78 46 126 79 47 128 81 49 123 76 44 112 65 33 120 73 41 116 69 37 113 66 34 107 60 28 118 71 39 116 69 37 117 70 38 110 63 31 113 66 34 117 70 38 128 81 49 123 76 44 119 72 40 125 78 46 121 74 42 118 71 39 125 78 46 122 75 43 118 71 39 117 70 38 109 62 30 117 70 38 104 57 25 110 63 31 107 60 28
105 58 26 115 68 36 122 75 43 120 73 41 120 73 41 126 79 47 123 76 44 124 77 45 124 77 45 128 81 49 120 73 41 126 79 47 124 77 45 128 81 49 119 72 40 122 75 43 110 63 31 114 67 35 108 61 29 120 73 41 114 67 35 114 67 35 122 75 43 116 69 37 119 72 40 128 81 49 129 82 50 124 77 45 123 76 44 123 76 44 125 78 46 122 75 43 122 75 43 116 69 37 119 72 40 122 75 43 120 73 41 117 70 38 105 58 26 117 70 38 105 58 26 104 57 25 107 60 28 110 63 31 116 69 37 112 65 33 114 67 35 111 64 32 114 67 35 118 71 39 124 77 45 123 76 44 124 77 45 116 69 37 120 73 41 116 69 37 109 62 30 114 67 35 113 66 34 107 60 28 106 59 27 101 54 22 108 61 29 101 54 22 103 56 24 100 53 21 109 62 30 109 62 30 115 68 36 111 64 32 112 65 33 116 69 37 120 73 41 119 72 40 122 75 43 121 74 42 117 70 38 112 65 33 118 71 39 119 72 40 120 73 41 110 63 31 110 63 31 110 63 31 110 63 31 112 65 33 106 59 27 112 65 33 116 69 37 122 75 43 124 77 45 126 79 47 130 83 51 120 73 41 128 81 49 130 83 51 127 80 48 121 74 42 130 83 51 120 73 41 124 77 45 119 72 40 112 65 33 120 73 41 116 69 37 112 65 33 111 64 32 119 72 40 110 63 31 116 69 37 111 64 32 121 74 42 124 77 45 119 72 40 128 81 49 119 72 40 126 79 47 126 79 47 123 76 44 118 71 39 121 74 42 124 77 45 111 64 32 115 68 36 109 62 30 110 63 31 102 55 23 112 65 33
104 57 25 108 61 29 115 68 36 112 65 33 115 68 36 124 77 45 129 82 50 131 84 52 124 77 45 126 79 47 127 80 48 119 72 40 126 79 47 125 78 46 119 72 40 114 67 35 122 75 43 111 64 32 117 70 38 109 62 30 117 70 38 117 70 38 110 63 31 116 69 37 120 73 41 127 80 48 118 71 39 129 82 50 128 81 49 122 75 43 123 76 44 119 72 40 126 79 47 119 72 40 116 69 37 114 67 35 114 67 35 112 65 33 111 64 32 107 60 28 109 62 30 111 64 32 113 66 34 103 56 24 107 60 28 115 68 36 116 69 37 120 73 41 119 72 40 119 72 40 113 66 34 124 77 45 116 69 37 112 65 33 110 63 31 113 66 34 109 62 30 109 62 30 110 63 31 111 64 32 103 56 24 99 52 20 102 55 23 105 58 26 106 59 27 109 62 30 102 55 23 106 59 27 117 70 38 110 63 31 110 63 31 115 68 36 114 67 35 118 71 39 116 69 37 125 78 46 115 68 36 117 70 38 116 69 37 120 73 41 108 61 29 119 72 40 107 60 28 107 60 28 106 59 27 109 62 30 110 63 31 120 73 41 115 68 36 114 67 35 114 67 35 117 70 38 124 77 45 122 75 43 131 84 52 129 82 50 121 74 42 133 86 54 125 78 46 129 82 50 119 72 40 113 66 34 123 76 44 117 70 38 110 63 31 109 62 30 107 60 28 111 64 32 115 68 36 119 72 40 119 72 40 118 71 39 115 68 36 128 81 49 124 77 45 117 70 38 123 76 44 125 78 46 128 81 49 120 73 41 118 71 39 117 70 38 108 61 29 112 65 33 104 57 25 105 58 26 100 53 21 106 59 27
115 68 36 107 60 28 111 64 32 111 64 32 113 66 34 121 74 42 124 77 45 127 80 48 130 83 51 125 78 46 133 86 54 123 76 44 117 70 38 126 79 47 125 78 46 113 66 34 116 69 37 118 71 39 119 72 40 115 68 36 113 66 34 113 66 34 118 71 39 123 76 44 117 70 38 122 75 43 129 82 50 129 82 50 132 85 53 133 86 54 122 75 43 127 80 48 128 81 49 116 69 37 126 79 47 113 66 34 118 71 39 115 68 36 114 67 35 107 60 28 109 62 30 115 68 36 107 60 28 114 67 35 111 64 32 109 62 30 112 65 33 108 61 29 121 74 42 112 65 33 120 73 41 112 65 33 116 69 37 112 65 33 110 63 31 119 72 40 107 60 28 114 67 35 113 66 34 110 63 31 107 60 28 110 63 31 99 52 20 107 60 28 99 52 20 105 58 26 106 59 27 111 64 32 115 68 36 113 66 34 116 69 37 113 66 34 114 67 35 123 76 44 119 72 40 122 75 43 120 73 41 119 72 40 117 70 38 111 64 32 109 62 30 108 61 29 110 63 31 104 57 25 111 64 32 115 68 36 111 64 32 115 68 36 118 71 39 116 69 37 122 75 43 128 81 49 126 79 47 120 73 41 122 75 43 128 81 49 129 82 50 122 75 43 130 83 51 120 73 41 115 68 36 121 74 42 123 76 44 123 76 44 118 71 39 118 71 39 115 68 36 117 70 38 109 62 30 114 67 35 118 71 39 123 76 44 122 75 43 127 80 48 125 78 46 124 77 45 124 77 45 124 77 45 129 82 50 117 70 38 115 68 36 113 66 34 112 65 33 106 59 27 114 67 35 104 57 25 105 58 26 112 65 33
113 66 34 112 65 33 112 65 33 120 73 41 118 71 39 116 69 37 120 73 41 130 83 51 129 82 50 122 75 43 126 79 47 119 72 40 124 77 45 116 69 37 117 70 38 122 75 43 118 71 39 116 69 37 108 61 29 109 62 30 119 72 40 120 73 41 116 69 37 115 68 36 122 75 43 122 75 43 129 82 50 130 83 51 126 79 47 132 85 53 129 82 50 130 83 51 130 83 51 127 80 48 125 78 46 113 66 34 112 65 33 110 63 31 116 69 37 106 59 27 107 60 28 104 57 25 110 63 31 104 57 25 108 61 29 107 60 28 115 68 36 118 71 39 121 74 42 120 73 41 120 73 41 119 72 40 118 71 39 123 76 44 120 73 41 118 71 39 111 64 32 106 59 27 114 67 35 111 64 32 111 64 32 111 64 32 97 50 18 111 64 32 98 51 19 109 62 30 104 57 25 113 66 34 118 71 39 113 66 34 114 67 35 122 75 43 123 76 44 126 79 47 125 78 46 125 78 46 125 78 46 116 69 37 112 65 33 116 69 37 109 62 30 110 63 31 105 58 26 105 58 26 106 59 27 115 68 36 118 71 39 110 63 31 117 70 38 114 67 35 118 71 39 125 78 46 123 76 44 122 75 43 121 74 42 125 78 46 134 87 55 130 83 51 132 85 53 125 78 46 125 78 46 123 76 44 125 78 46 118 71 39 114 67 35 115 68 36 118 71 39 109 62 30 111 64 32 118 71 39 112 65 33 114 67 35 117 70 38 128 81 49 124 77 45 126 79 47 121 74 42 117 70 38 129 82 50 126 79 47 125 78 46 111 64 32 117 70 38 115 68 36 104 57 25 108 61 29 105 58 26 101 54 22
110 63 31 118 71 39 119 72 40 122 75 43 113 66 34 127 80 48 129 82 50 121 74 42 125 78 46 128 81 49 124 77 45 120 73 41 121 74 42 127 80 48 123 76 44 116 69 37 111 64 32 114 67 35 109 62 30 118 71 39 108 61 29 119 72 40 122 75 43 116 69 37 120 73 41 120 73 41 122 75 43 122 75 43 128 81 49 128 81 49 126 79 47 128 81 49 118 71 39 116 69 37 124 77 45 117 70 38 119 72 40 112 65 33 111 64 32 110 63 31 111 64 32 108 61 29 110 63 31 107 60 28 105 58 26 117 70 38 113 66 34 113 66 34 117 70 38 119 72 40 113 66 34 120 73 41 115 68 36 119 72 40 118 71 39 116 69 37 119 72 40 108 61 29 109 62 30 114 67 35 99 52 20 98 51 19 109 62 30 107 60 28 103 56 24 100 53 21 101 54 22 111 64 32 117 70 38 110 63 31 116 69 37 117 70 38 116 69 37 123 76 44 119 72 40 116 69 37 127 80 48 122 75 43 115 68 36 116 69 37 120 73 41 119 72 40 108 61 29 111 64 32 108 61 29 105 58 26 116 69 37 120 73 41 110 63 31 120 73 41 127 80 48 127 80 48 120 73 41 122 75 43 129 82 50 134 87 55 129 82 50 120 73 41 127 80 48 127 80 48 127 80 48 122 75 43 121 74 42 116 69 37 119 72 40 112 65 33 116 69 37 108 61 29 108 61 29 109 62 30 110 63 31 116 69 37 121 74 42 122 75 43 126 79 47 126 79 47 117 70 38 125 78 46 120 73 41 114 67 35 124 77 45 116 69 37 114 67 35 115 68 36 105 58 26 111 64 32 100 53 21 106 59 27
113 66 34 110 63 31 117 70 38 112 65 33 113 66 34 121 74 42 128 81 49 118 71 39 121 74 42 124 77 45 130 83 51 118 71 39 124 77 45 124 77 45 125 78 46 121 74 42 117 70 38 109 62 30 111 64 32 118 71 39 109 62 30 110 63 31 119 72 40 111 64 32 120 73 41 125 78 46 119 72 40 121 74 42 131 84 52 121 74 42 127 80 48 121 74 42 124 77 45 117 70 38 121 74 42 115 68 36 123 76 44 114 67 35 113 66 34 109 62 30 114 67 35 109 62 30 107 60 28 111 64 32 104 57 25 116 69 37 116 69 37 110 63 31 117 70 38 117 70 38 117 70 38 122 75 43 121 74 42 123 76 44 116 69 37 109 62 30 110 63 31 106 59 27 109 62 30 103 56 24 102 55 23 110 63 31 98 51 19 111 64 32 101 54 22 103 56 24 106 59 27 104 57 25 118 71 39 113 66 34 110 63 31 116 69 37 114 67 35 121 74 42 124 77 45 123 76 44 120 73 41 113 66 34 117 70 38 114 67 35 117 70 38 108 61 29 107 60 28 107 60 28 115 68 36 111 64 32 116 69 37 112 65 33 121 74 42 113 66 34 127 80 48 123 76 44 126 79 47 125 78 46 124 77 45 131 84 52 132 85 53 126 79 47 120 73 41 124 77 45 123 76 44 122 75 43 119 72 40 111 64 32 113 66 34 107 60 28 110 63 31 113 66 34 112 65 33 118 71 39 117 70 38 117 70 38 114 67 35 118 71 39 116 69 37 126 79 47 127 80 48 122 75 43 126 79 47 126 79 47 123 76 44 121 74 42 115 68 36 116 69 37 109 62 30 110 63 31 110 63 31 101 54 22
107 60 28 108 61 29 118 71 39 117 70 38 123 76 44 116 69 37 130 83 51 128 81 49 128 81 49 122 75 43 124 77 45 127 80 48 119 72 40 125 78 46 123 76 44 115 68 36 111 64 32 111 64 32 109 62 30 111 64 32 113 66 34 121 74 42 112 65 33 118 71 39 116 69 37 124 77 45 116 69 37 125 78 46 131 84 52 129 82 50 126 79 47 131 84 52 119 72 40 126 79 47 123 76 44 112 65 33 119 72 40 118 71 39 110 63 31 109 62 30 110 63 31 104 57 25 112 65 33 110 63 31 117 70 38 118 71 39 115 68 36 111 64 32 110 63 31 116 69 37 113 66 34 124 77 45 112 65 33 118 71 39 115 68 36 119 72 40 118 71 39 106 59 27 107 60 28 110 63 31 102 55 23 107 60 28 107 60 28 104 57 25 109 62 30 111 64 32 106 59 27 104 57 25 111 64 32 119 72 40 115 68 36 124 77 45 124 77 45 121 74 42 119 72 40 120 73 41 125 78 46 125 78 46 112 65 33 111 64 32 110 63 31 116 69 37 114 67 35 104 57 25 106 59 27 108 61 29 112 65 33 112 65 33 121 74 42 122 75 43 120 73 41 123 76 44 131 84 52 129 82 50 130 83 51 126 79 47 124 77 45 133 86 54 120 73 41 123 76 44 119 72 40 121 74 42 111 64 32 110 63 31 110 63 31 117 70 38 118 71 39 108 61 29 120 73 41 115 68 36 112 65 33 112 65 33 119 72 40 121 74 42 121 74 42 129 82 50 125 78 46 122 75 43 117 70 38 116 69 37 123 76 44 115 68 36 114 67 35 110 63 31 112 65 33 110 63 31 112 65 33 102 55 23
108 61 29 113 66 34 119 72 40 122 75 43 121 74 42 127 80 48 130 83 51 130 83 51 131 84 52 127 80 48 123 76 44 128 81 49 129 82 50 129 82 50 115 68 36 118 71 39 112 65 33 121 74 42 108 61 29 118 71 39 112 65 33 117 70 38 115 68 36 119 72 40 113 66 34 127 80 48 117 70 38 125 78 46 129 82 50 131 84 52 126 79 47 123 76 44 130 83 51 119 72 40 116 69 37 123 76 44 111 64 32 117 70 38 117 70 38 113 66 34 116 69 37 103 56 24 111 64 32 107 60 28 111 64 32 115 68 36 116 69 37 114 67 35 122 75 43 121 74 42 117 70 38 120 73 41 118 71 39 112 65 33 120 73 41 110 63 31 107 60 28 106 59 27 106 59 27 109 62 30 103 56 24 104 57 25 106 59 27 103 56 24 99 52 20 100 53 21 105 58 26 111 64 32 108 61 29 112 65 33 123 76 44 120 73 41 117 70 38 124 77 45 126 79 47 123 76 44 127 80 48 114 67 35 117 70 38 118 71 39 108 61 29 114 67 35 106 59 27 115 68 36 112 65 33 117 70 38 109 62 30 118 71 39 122 75 43 114 67 35 127 80 48 127 80 48 126 79 47 121 74 42 126 79 47 128 81 49 132 85 53 127 80 48 131 84 52 126 79 47 119 72 40 116 69 37 123 76 44 111 64 32 110 63 31 108 61 29 116 69 37 110 63 31 108 61 29 109 62 30 120 73 41 118 71 39 120 73 41 119 72 40 124 77 45 118 71 39 121 74 42 128 81 49 122 75 43 118 71 39 116 69 37 118 71 39 112 65 33 110 63 31 116 69 37 102 55 23 106 59 27 104 57 25
109 62 30 116 69 37 117 70 38 123 76 44 115 68 36 127 80 48 128 81 49 130 83 51 130 83 51 133 86 54 132 85 53 120 73 41 127 80 48 120 73 41 123 76 44 113 66 34 119 72 40 115 68 36 111 64 32 113 66 34 111 64 32 109 62 30 119 72 40 119 72 40 113 66 34 120 73 41 127 80 48 130 83 51 126 79 47 125 78 46 123 76 44 124 77 45 129 82 50 118 71 39 119 72 40 117 70 38 123 76 44 114 67 35 114 67 35 111 64 32 107 60 28 112 65 33 109 62 30 107 60 28 113 66 34 117 70 38 111 64 32 112 65 33 117 70 38 113 66 34 115 68 36 114 67 35 119 72 40 120 73 41 111 64 32 116 69 37 108 61 29 109 62 30 112 65 33 112 65 33 109 62 30 108 61 29 105 58 26 99 52 20 106 59 27 100 53 21 102 55 23 104 57 25 117 70 38 110 63 31 123 76 44 116 69 37 118 71 39 120 73 41 122 75 43 115 68 36 124 77 45 122 75 43 114 67 35 118 71 39 113 66 34 109 62 30 113 66 34 109 62 30 104 57 25 109 62 30 114 67 35 120 73 41 118 71 39 114 67 35 125 78 46 121 74 42 131 84 52 130 83 51 125 78 46 121 74 42 134 87 55 133 86 54 131 84 52 118 71 39 122 75 43 121 74 42 119 72 40 113 66 34 121 74 42 108 61 29 107 60 28 111 64 32 120 73 41 110 63 31 116 69 37 121 74 42 114 67 35 123 76 44 127 80 48 117 70 38 123 76 44 130 83 51 123 76 44 117 70 38 114 67 35 123 76 44 109 62 30 110 63 31 109 62 30 104 57 25 110 63 31 110 63 31
112 65 33 111 64 32 121 74 42 115 68 36 125 78 46 120 73 41 129 82 50 120 73 41 124 77 45 123 76 44 119 72 40 122 75 43 126 79 47 123 76 44 121 74 42 119 72 40 113 66 34 116 69 37 121 74 42 115 68 36 116 69 37 121 74 42 122 75 43 120 73 41 113 66 34 121 74 42 122 75 43 119 72 40 126 79 47 120 73 41 126 79 47 120 73 41 125 78 46 129 82 50 117 70 38 114 67 35 114 67 35 117 70 38 116 69 37 108 61 29 103 56 24 108 61 29 104 57 25 113 66 34 105 58 26 117 70 38 107 60 28 112 65 33 122 75 43 116 69 37 123 76 44 116 69 37 114 67 35 121 74 42 115 68 36 118 71 39 114 67 35 116 69 37 115 68 36 110 63 31 108 61 29 100 53 21 98 51 19 108 61 29 103 56 24 99 52 20 109 62 30 106 59 27 112 65 33 115 68 36 111 64 32 122 75 43 127 80 48 114 67 35 117 70 38 114 67 35 115 68 36 125 78 46 116 69 37 109 62 30 113 66 34 117 70 38 115 68 36 113 66 34 115 68 36 115 68 36 114 67 35 114 67 35 113 66 34 117 70 38 121 74 42 121 74 42 130 83 51 128 81 49 133 86 54 134 87 55 133 86 54 131 84 52 125 78 46 124 77 45 127 80 48 121 74 42 120 73 41 116 69 37 119 72 40 112 65 33 106 59 27 106 59 27 113 66 34 109 62 30 121 74 42 119 72 40 117 70 38 126 79 47 122 75 43 124 77 45 125 78 46 122 75 43 123 76 44 127 80 48 126 79 47 122 75 43 118 71 39 112 65 33 106 59 27 109 62 30 112 65 33 107 60 28
116 69 37 111 64 32 117 70 38 119 72 40 115 68 36 124 77 45 117 70 38 128 81 49 122 75 43 124 77 45 128 81 49 121 74 42 128 81 49 128 81 49 114 67 35 113 66 34 116 69 37 118 71 39 120 73 41 119 72 40 108 61 29 117 70 38 121 74 42 113 66 34 121 74 42 115 68 36 119 72 40 125 78 46 125 78 46 119 72 40 122 75 43 121 74 42 131 84 52 128 81 49 124 77 45 119 72 40 120 73 41 111 64 32 111 64 32 106 59 27 103 56 24 108 61 29 101 54 22 102 55 23 112 65 33 112 65 33 109 62 30 107 60 28 112 65 33 123 76 44 125 78 46 117 70 38 113 66 34 122 75 43 116 69 37 119 72 40 114 67 35 118 71 39 103 56 24 105 58 26 99 52 20 106 59 27 106 59 27 102 55 23 104 57 25 111 64 32 107 60 28 103 56 24 118 71 39 117 70 38 118 71 39 114 67 35 125 78 46 119 72 40 118 71 39 117 70 38 116 69 37 123 76 44 113 66 34 116 69 37 120 73 41 112 65 33 106 59 27 112 65 33 117 70 38 112 65 33 108 61 29 120 73 41 112 65 33 112 65 33 127 80 48 116 69 37 132 85 53 124 77 45 125 78 46 125 78 46 130 83 51 133 86 54 124 77 45 130 83 51 116 69 37 118 71 39 111 64 32 113 66 34 110 63 31 120 73 41 112 65 33 107 60 28 110 63 31 112 65 33 122 75 43 116 69 37 118 71 39 125 78 46 120 73 41 130 83 51 126 79 47 126 79 47 121 74 42 121 74 42 116 69 37 120 73 41 112 65 33 107 60 28 104 57 25 102 55 23 106 59 27 100 53 21
112 65 33 118 71 39 114 67 35 119 72 40 122 75 43 118 71 39 120 73 41 120 73 41 121 74 42 122 75 43 121 74 42 125 78 46 124 77 45 122 75 43 122 75 43 118 71 39 115 68 36 111 64 32 112 65 33 108 61 29 114 67 35 118 71 39 112 65 33 122 75 43 124 77 45 127 80 48 128 81 49 125 78 46 128 81 49 121 74 42 125 78 46 122 75 43 123 76 44 127 80 48 128 81 49 115 68 36 111 64 32 111 64 32 106 59 27 107 60 28 116 69 37 109 62 30 102 55 23 112 65 33 110 63 31 115 68 36 112 65 33 119 72 40 118 71 39 115 68 36 118 71 39 124 77 45 113 66 34 118 71 39 112 65 33 114 67 35 116 69 37 108 61 29 109 62 30 104 57 25 112 65 33 98 51 19 99 52 20 102 55 23 105 58 26 113 66 34 113 66 34 109 62 30 112 65 33 121 74 42 119 72 40 123 76 44 117 70 38 126 79 47 121 74 42 125 78 46 124 77 45 124 77 45 122 75 43 122 75 43 112 65 33 112 65 33 111 64 32 113 66 34 112 65 33 110 63 31 111 64 32 110 63 31 114 67 35 114 67 35 122 75 43 124 77 45 124 77 45 129 82 50 124 77 45 123 76 44 128 81 49 125 78 46 127 80 48 128 81 49 124 77 45 116 69 37 113 66 34 119 72 40 108 61 29 109 62 30 110 63 31 118 71 39 107 60 28 115 68 36 115 68 36 113 66 34 122 75 43 128 81 49 123 76 44 127 80 48 130 83 51 122 75 43 119 72 40 119 72 40 118 71 39 117 70 38 109 62 30 110 63 31 109 62 30 103 56 24 113 66 34 110 63 31
112 65 33 111 64 32 119 72 40 120 73 41 124 77 45 121 74 42 124 77 45 124 77 45 119 72 40 131 84 52 127 80 48 124 77 45 127 80 48 117 70 38 118 71 39 119 72 40 112 65 33 111 64 32 118 71 39 107 60 28 117 70 38 120 73 41 121 74 42 122 75 43 123 76 44 122 75 43 117 70 38 127 80 48 132 85 53 132 85 53 120 73 41 127 80 48 122 75 43 126 79 47 121 74 42 114 67 35 122 75 43 115 68 36 108 61 29 114 67 35 109 62 30 106 59 27 114 67 35 114 67 35 103 56 24 108 61 29 118 71 39 116 69 37 112 65 33 116 69 37 115 68 36 125 78 46 123 76 44 111 64 32 123 76 44 112 65 33 110 63 31 118 71 39 115 68 36 107 60 28 105 58 26 102 55 23 103 56 24 99 52 20 103 56 24 105 58 26 109 62 30 114 67 35 113 66 34 113 66 34 122 75 43 122 75 43 126 79 47 125 78 46 122 75 43 116 69 37 115 68 36 117 70 38 119 72 40 115 68 36 119 72 40 113 66 34 119 72 40 108 61 29 108 61 29 105 58 26 108 61 29 108 61 29 115 68 36 112 65 33 116 69 37 126 79 47 129 82 50 133 86 54 125 78 46 128 81 49 131 84 52 131 84 52 124 77 45 124 77 45 120 73 41 122 75 43 124 77 45 115 68 36 113 66 34 116 69 37 115 68 36 115 68 36 117 70 38 110 63 31 118 71 39 120 73 41 113 66 34 126 79 47 116 69 37 121 74 42 127 80 48 120 73 41 118 71 39 118 71 39 122 75 43 114 67 35 113 66 34 119 72 40 114 67 35 106 59 27 103 56 24 107 60 28
108 61 29 109 62 30 116 69 37 112 65 33 116 69 37 118 71 39 122 75 43 128 81 49 122 75 43 120 73 41 122 75 43 126 79 47 123 76 44 117 70 38 120 73 41 119 72 40 120 73 41 118 71 39 121 74 42 109 62 30 120 73 41 120 73 41 113 66 34 124 77 45 114 67 35 125 78 46 128 81 49 130 83 51 123 76 44 125 78 46 121 74 42 133 86 54 129 82 50 125 78 46 119 72 40 113 66 34 114 67 35 113 66 34 118 71 39 111 64 32 114 67 35 115 68 36 113 66 34 108 61 29 109 62 30 113 66 34 107 60 28 114 67 35 115 68 36 120 73 41 120 73 41 120 73 41 118 71 39 120 73 41 113 66 34 119 72 40 110 63 31 117 70 38 106 59 27 111 64 32 101 54 22 98 51 19 109 62 30 105 58 26 106 59 27 110 63 31 106 59 27 108 61 29 106 59 27 111 64 32 118 71 39 117 70 38 116 69 37 119 72 40 124 77 45 114 67 35 121 74 42 116 69 37 111 64 32 111 64 32 110 63 31 116 69 37 118 71 39 110 63 31 115 68 36 116 69 37 108 61 29 112 65 33 109 62 30 122 75 43 119 72 40 118 71 39 118 71 39 132 85 53 126 79 47 133 86 54 128 81 49 127 80 48 121 74 42 118 71 39 126 79 47 122 75 43 115 68 36 115 68 36 116 69 37 107 60 28 112 65 33 109 62 30 120 73 41 117 70 38 112 65 33 117 70 38 122 75 43 114 67 35 119 72 40 129 82 50 130 83 51 125 78 46 125 78 46 121 74 42 115 68 36 119 72 40 121 74 42 119 72 40 107 60 28 111 64 32 102 55 23 111 64 32
111 64 32 113 66 34 113 66 34 123 76 44 117 70 38 117 70 38 119 72 40 127 80 48 121 74 42 128 81 49 125 78 46 125 78 46 124 77 45 120 73 41 119 72 40 122 75 43 116 69 37 111 64 32 109 62 30 114 67 35 112 65 33 121 74 42 118 71 39 112 65 33 114 67 35 127 80 48 116 69 37 121 74 42 128 81 49 129 82 50 128 81 49 132 85 53 130 83 51 128 81 49 120 73 41 118 71 39 119 72 40 109 62 30 118 71 39 114 67 35 108 61 29 104 57 25 105 58 26 110 63 31 114 67 35 117 70 38 116 69 37 120 73 41 110 63 31 114 67 35 120 73 41 125 78 46 113 66 34 121 74 42 111 64 32 116 69 37 113 66 34 111 64 32 106 59 27 105 58 26 102 55 23 111 64 32 98 51 19 110 63 31 102 55 23 101 54 22 112 65 33 113 66 34 108 61 29 113 66 34 121 74 42 113 66 34 121 74 42 122 75 43 116 69 37 125 78 46 126 79 47 113 66 34 117 70 38 121 74 42 117 70 38 118 71 39 108 61 29 109 62 30 115 68 36 113 66 34 112 65 33 110 63 31 121 74 42 125 78 46 124 77 45 125 78 46 130 83 51 132 85 53 128 81 49 125 78 46 132 85 53 131 84 52 128 81 49 130 83 51 120 73 41 122 75 43 118 71 39 119 72 40 119 72 40 115 68 36 110 63 31 114 67 35 113 66 34 109 62 30 115 68 36 122 75 43 114 67 35 121 74 42 125 78 46 121 74 42 128 81 49 124 77 45 119 72 40 122 75 43 122 75 43 112 65 33 111 64 32 111 64 32 108 61 29 102 55 23 100 53 21 110 63 31
108 61 29 116 69 37 122 75 43 115 68 36 117 70 38 116 69 37 125 78 46 130 83 51 127 80 48 121 74 42 126 79 47 125 78 46 119 72 40 125 78 46 117 70 38 124 77 45 110 63 31 116 69 37 110 63 31 110 63 31 112 65 33 115 68 36 109 62 30 116 69 37 125 78 46 118 71 39 116 69 37 121 74 42 132 85 53 130 83 51 133 86 54 123 76 44 131 84 52 127 80 48 125 78 46 125 78 46 112 65 33 119 72 40 113 66 34 111 64 32 110 63 31 108 61 29 111 64 32 109 62 30 105 58 26 116 69 37 107 60 28 113 66 34 110 63 31 119 72 40 115 68 36 122 75 43 118 71 39 124 77 45 111 64 32 117 70 38 117 70 38 112 65 33 106 59 27 104 57 25 109 62 30 102 55 23 98 51 19 110 63 31 100 53 21 105 58 26 115 68 36 108 61 29 107 60 28 108 61 29 121 74 42 121 74 42 124 77 45 127 80 48 120 73 41 123 76 44 116 69 37 117 70 38 124 77 45 123 76 44 116 69 37 110 63 31 106 59 27 115 68 36 111 64 32 114 67 35 109 62 30 117 70 38 123 76 44 122 75 43 123 76 44 122 75 43 129 82 50 131 84 52 128 81 49 130 83 51 128 81 49 128 81 49 120 73 41 130 83 51 116 69 37 120 73 41 118 71 39 121 74 42 121 74 42 108 61 29 108 61 29 113 66 34 108 61 29 110 63 31 110 63 31 125 78 46 121 74 42 116 69 37 116 69 37 126 79 47 124 77 45 125 78 46 123 76 44 122 75 43 116 69 37 122 75 43 111 64 32 107 60 28 105 58 26 105 58 26 106 59 27 101 54 22
108 61 29 115 68 36 114 67 35 121 74 42 117 70 38 126 79 47 125 78 46 131 84 52 127 80 48 131 84 52 128 81 49 120 73 41 119 72 40 125 78 46 124 77 45 115 68 36 114 67 35 114 67 35 116 69 37 108 61 29 116 69 37 120 73 41 114 67 35 111 64 32 120 73 41 122 75 43 117 70 38 127 80 48 119 72 40 127 80 48 132 85 53 132 85 53 119 72 40 123 76 44 127 80 48 125 78 46 112 65 33 111 64 32 108 61 29 109 62 30 106 59 27 114 67 35 115 68 36 112 65 33 111 64 32 115 68 36 112 65 33 113 66 34 122 75 43 116 69 37 119 72 40 120 73 41 119 72 40 119 72 40 120 73 41 117 70 38 119 72 40 116 69 37 106 59 27 107 60 28 108 61 29 108 61 29 109 62 30 110 63 31 100 53 21 102 55 23 109 62 30 109 62 30 107 60 28 110 63 31 110 63 31 112 65 33 125 78 46 116 69 37 119 72 40 124 77 45 123 76 44 119 72 40 116 69 37 122 75 43 119 72 40 116 69 37 114 67 35 108 61 29 114 67 35 112 65 33 108 61 29 118 71 39 119 72 40 113 66 34 121 74 42 129 82 50 128 81 49 130 83 51 129 82 50 127 80 48 133 86 54 129 82 50 132 85 53 125 78 46 126 79 47 115 68 36 114 67 35 122 75 43 110 63 31 116 69 37 107 60 28 116 69 37 114 67 35 121 74 42 111 64 32 114 67 35 118 71 39 118 71 39 122 75 43 120 73 41 125 78 46 126 79 47 129 82 50 120 73 41 112 65 33 114 67 35 116 69 37 109 62 30 115 68 36 102 55 23 104 57 25 106 59 27
112 65 33 106 59 27 114 67 35 116 69 37 113 66 34 124 77 45 127 80 48 124 77 45 128 81 49 121 74 42 123 76 44 121 74 42 127 80 48 125 78 46 126 79 47 125 78 46 111 64 32 113 66 34 118 71 39 107 60 28 112 65 33 122 75 43 109 62 30 122 75 43 125 78 46 116 69 37 128 81 49 122 75 43 125 78 46 126 79 47 125 78 46 132 85 53 124 77 45 125 78 46 114 67 35 122 75 43 115 68 36 117 70 38 118 71 39 108 61 29 116 69 37 108 61 29 104 57 25 102 55 23 108 61 29 116 69 37 111 64 32 108 61 29 120 73 41 121 74 42 122 75 43 123 76 44 123 76 44 111 64 32 114 67 35 122 75 43 109 62 30 113 66 34 102 55 23 108 61 29 108 61 29 98 51 19 100 53 21 105 58 26 107 60 28 105 58 26 114 67 35 104 57 25 114 67 35 116 69 37 124 77 45 118 71 39 114 67 35 114 67 35 116 69 37 121 74 42 118 71 39 118 71 39 121 74 42 122 75 43 114 67 35 113 66 34 108 61 29 114 67 35 107 60 28 111 64 32 107 60 28 109 62 30 121 74 42 117 70 38 124 77 45 124 77 45 124 77 45 133 86 54 132 85 53 132 85 53 121 74 42 128 81 49 125 78 46 130 83 51 119 72 40 115 68 36 118 71 39 114 67 35 120 73 41 120 73 41 116 69 37 107 60 28 110 63 31 111 64 32 111 64 32 124 77 45 126 79 47 119 72 40 121 74 42 130 83 51 128 81 49 128 81 49 119 72 40 120 73 41 121 74 42 110 63 31 118 71 39 110 63 31 104 57 25 105 58 26 105 58 26 111 64 32
117 70 38 108 61 29 112 65 33 114 67 35 124 77 45 119 72 40 123 76 44 131 84 52 127 80 48 131 84 52 121 74 42 128 81 49 127 80 48 121 74 42 124 77 45 122 75 43 114 67 35 115 68 36 114 67 35 120 73 41 121 74 42 118 71 39 111 64 32 119 72 40 117 70 38 114 67 35 117 70 38 118 71 39 119 72 40 120 73 41 126 79 47 131 84 52 124 77 45 130 83 51 115 68 36 117 70 38 123 76 44 118 71 39 105 58 26 117 70 38 109 62 30 103 56 24 108 61 29 114 67 35 112 65 33 113 66 34 107 60 28 119 72 40 116 69 37 117 70 38 118 71 39 118 71 39 118 71 39 117 70 38 123 76 44 120 73 41 112 65 33 105 58 26 116 69 37 112 65 33 111 64 32 104 57 25 101 54 22 103 56 24 112 65 33 105 58 26 112 65 33 116 69 37 116 69 37 110 63 31 110 63 31 121 74 42 119 72 40 121 74 42 118 71 39 118 71 39 116 69 37 122 75 43 123 76 44 118 71 39 113 66 34 111 64 32 118 71 39 108 61 29 107 60 28 111 64 32 110 63 31 111 64 32 116 69 37 125 78 46 127 80 48 127 80 48 131 84 52 129 82 50 132 85 53 134 87 55 132 85 53 128 81 49 128 81 49 123 76 44 121 74 42 118 71 39 123 76 44 120 73 41 117 70 38 114 67 35 109 62 30 106 59 27 110 63 31 112 65 33 115 68 36 122 75 43 113 66 34 115 68 36 116 69 37 127 80 48 120 73 41 123 76 44 122 75 43 127 80 48 118 71 39 120 73 41 117 70 38 111 64 32 116 69 37 106 59 27 100 53 21 110 63 31
106 59 27 111 64 32 115 68 36 115 68 36 124 77 45 126 79 47 121 74 42 124 77 45 122 75 43 127 80 48 121 74 42 122 75 43 126 79 47 117 70 38 114 67 35 120 73 41 121 74 42 113 66 34 109 62 30 113 66 34 118 71 39 111 64 32 113 66 34 121 74 42 117 70 38 117 70 38 120 73 41 129 82 50 120 73 41 132 85 53 124 77 45 125 78 46 122 75 43 128 81 49 121 74 42 121 74 42 110 63 31 112 65 33 117 70 38 107 60 28 105 58 26 106 59 27 107 60 28 114 67 35 112 65 33 112 65 33 111 64 32 115 68 36 118 71 39 121 74 42 116 69 37 115 68 36 125 78 46 118 71 39 122 75 43 114 67 35 109 62 30 108 61 29 104 57 25 108 61 29 110 63 31 108 61 29 106 59 27 106 59 27 104 57 25 101 54 22 103 56 24 105 58 26 111 64 32 110 63 31 116 69 37 119 72 40 122 75 43 125 78 46 125 78 46 122 75 43 114 67 35 122 75 43 123 76 44 122 75 43 109 62 30 120 73 41 119 72 40 106 59 27 118 71 39 105 58 26 115 68 36 109 62 30 121 74 42 122 75 43 120 73 41 118 71 39 126 79 47 128 81 49 124 77 45 123 76 44 135 88 56 128 81 49 119 72 40 123 76 44 117 70 38 124 77 45 123 76 44 116 69 37 108 61 29 111 64 32 109 62 30 117 70 38 107 60 28 118 71 39 121 74 42 114 67 35 125 78 46 117 70 38 117 70 38 124 77 45 124 77 45 117 70 38 117 70 38 127 80 48 125 78 46 124 77 45 118 71 39 115 68 36 108 61 29 110 63 31 112 65 33 109 62 30
106 59 27 115 68 36 114 67 35 119 72 40 123 76 44 122 75 43 127 80 48 126 79 47 130 83 51 130 83 51 126 79 47 129 82 50 122 75 43 126 79 47 114 67 35 125 78 46 110 63 31 122 75 43 114 67 35 120 73 41 115 68 36 116 69 37 117 70 38 124 77 45 125 78 46 127 80 48 118 71 39 118 71 39 124 77 45 121 74 42 122 75 43 121 74 42 123 76 44 128 81 49 126 79 47 119 72 40 117 70 38 116 69 37 118 71 39 115 68 36 115 68 36 111 64 32 105 58 26 112 65 33 113 66 34 109 62 30 112 65 33 108 61 29 115 68 36 117 70 38 125 78 46 123 76 44 122 75 43 125 78 46 112 65 33 120 73 41 116 69 37 111 64 32 102 55 23 109 62 30 108 61 29 110 63 31 109 62 30 102 55 23 106 59 27 102 55 23 111 64 32 116 69 37 108 61 29 120 73 41 120 73 41 115 68 36 121 74 42 127 80 48 117 70 38 122 75 43 121 74 42 118 71 39 123 76 44 123 76 44 121 74 42 119 72 40 111 64 32 105 58 26 105 58 26 107 60 28 113 66 34 117 70 38 123 76 44 114 67 35 117 70 38 119 72 40 118 71 39 130 83 51 124 77 45 126 79 47 123 76 44 126 79 47 130 83 51 119 72 40 116 69 37 122 75 43 115 68 36 113 66 34 117 70 38 120 73 41 115 68 36 112 65 33 117 70 38 119 72 40 123 76 44 117 70 38 115 68 36 116 69 37 128 81 49 123 76 44 127 80 48 122 75 43 128 81 49 116 69 37 122 75 43 112 65 33 118 71 39 114 67 35 112 65 33 113 66 34 112 65 33 112 65 33
115 68 36 111 64 32 110 63 31 124 77 45 115 68 36 127 80 48 128 81 49 122 75 43 131 84 52 132 85 53 127 80 48 130 83 51 129 82 50 128 81 49 115 68 36 118 71 39 123 76 44 115 68 36 115 68 36 119 72 40 111 64 32 112 65 33 110 63 31 119 72 40 116 69 37 125 78 46 118 71 39 124 77 45 124 77 45 119 72 40 122 75 43 121 74 42 119 72 40 129 82 50 114 67 35 114 67 35 116 69 37 115 68 36 119 72 40 109 62 30 105 58 26 115 68 36 107 60 28 105 58 26 107 60 28 112 65 33 106 59 27 113 66 34 118 71 39 117 70 38 122 75 43 120 73 41 125 78 46 120 73 41 123 76 44 116 69 37 115 68 36 113 66 34 107 60 28 111 64 32 105 58 26 106 59 27 108 61 29 107 60 28 106 59 27 104 57 25 105 58 26 105 58 26 106 59 27 121 74 42 111 64 32 124 77 45 126 79 47 118 71 39 120 73 41 124 77 45 125 78 46 122 75 43 118 71 39 118 71 39 116 69 37 116 69 37 118 71 39 113 66 34 116 69 37 118 71 39 118 71 39 111 64 32 114 67 35 119 72 40 120 73 41 117 70 38 119 72 40 132 85 53 133 86 54 126 79 47 131 84 52 120 73 41 131 84 52 126 79 47 125 78 46 127 80 48 116 69 37 110 63 31 118 71 39 115 68 36 111 64 32 106 59 27 113 66 34 112 65 33 120 73 41 124 77 45 125 78 46 116 69 37 118 71 39 127 80 48 129 82 50 127 80 48 124 77 45 124 77 45 117 70 38 112 65 33 119 72 40 108 61 29 104 57 25 107 60 28 107 60 28 100 53 21
104 57 25 106 59 27 118 71 39 115 68 36 117 70 38 117 70 38 129 82 50 122 75 43 129 82 50 123 76 44 127 80 48 129 82 50 127 80 48 119 72 40 115 68 36 121 74 42 113 66 34 111 64 32 117 70 38 109 62 30 119 72 40 114 67 35 113 66 34 117 70 38 121 74 42 120 73 41 119 72 40 131 84 52 124 77 45 130 83 51 120 73 41 121 74 42 125 78 46 129 82 50 120 73 41 124 77 45 110 63 31 114 67 35 110 63 31 115 68 36 103 56 24 104 57 25 106 59 27 108 61 29 104 57 25 113 66 34 116 69 37 114 67 35 113 66 34 118 71 39 124 77 45 113 66 34 124 77 45 124 77 45 122 75 43 115 68 36 119 72 40 117 70 38 110 63 31 114 67 35 101 54 22 108 61 29 106 59 27 108 61 29 104 57 25 110 63 31 113 66 34 113 66 34 116 69 37 113 66 34 122 75 43 122 75 43 116 69 37 126 79 47 120 73 41 124 77 45 124 77 45 119 72 40 111 64 32 116 69 37 113 66 34 110 63 31 115 68 36 112 65 33 111 64 32 113 66 34 116 69 37 118 71 39 121 74 42 115 68 36 119 72 40 122 75 43 123 76 44 128 81 49 129 82 50 130 83 51 133 86 54 132 85 53 120 73 41 118 71 39 116 69 37 116 69 37 122 75 43 109 62 30 118 71 39 108 61 29 110 63 31 117 70 38 115 68 36 120 73 41 114 67 35 122 75 43 118 71 39 118 71 39 117 70 38 118 71 39 117 70 38 123 76 44 119 72 40 126 79 47 120 73 41 123 76 44 118 71 39 115 68 36 113 66 34 105 58 26 109 62 30 108 61 29
114 67 35 113 66 34 121 74 42 117 70 38 126 79 47 126 79 47 120 73 41 130 83 51 126 79 47 127 80 48 132 85 53 131 84 52 127 80 48 127 80 48 125 78 46 113 66 34 114 67 35 118 71 39 108 61 29 115 68 36 118 71 39 120 73 41 114 67 35 117 70 38 114 67 35 119 72 40 125 78 46 123 76 44 132 85 53 126 79 47 125 78 46 131 84 52 121 74 42 120 73 41 120 73 41 119 72 40 119 72 40 121 74 42 118 71 39 104 57 25 103 56 24 111 64 32 112 65 33 107 60 28 115 68 36 114 67 35 107 60 28 110 63 31 122 75 43 112 65 33 121 74 42 124 77 45 121 74 42 124 77 45 113 66 34 121 74 42 111 64 32 115 68 36 110 63 31 111 64 32 105 58 26 102 55 23 99 52 20 109 62 30 104 57 25 108 61 29 107 60 28 114 67 35 110 63 31 117 70 38 117 70 38 125 78 46 124 77 45 117 70 38 121 74 42 119 72 40 125 78 46 124 77 45 124 77 45 113 66 34 112 65 33 114 67 35 106 59 27 115 68 36 107 60 28 113 66 34 113 66 34 120 73 41 112 65 33 116 69 37 126 79 47 118 71 39 119 72 40 125 78 46 123 76 44 126 79 47 128 81 49 131 84 52 125 78 46 125 78 46 127 80 48 126 79 47 120 73 41 114 67 35 111 64 32 115 68 36 118 71 39 115 68 36 112 65 33 108 61 29 112 65 33 119 72 40 122 75 43 122 75 43 122 75 43 126 79 47 126 79 47 126 79 47 125 78 46 123 76 44 117 70 38 120 73 41 114 67 35 109 62 30 103 56 24 102 55 23 107 60 28 101 54 22
